;FLAVOR:Marlin
;TIME:3517
;Filament used: 9.67783m
;Layer height: 0.424264
;MINX:82.015
;MINY:0.4
;MINZ:0.6
;MAXX:117.985
;MAXY:51.6
;MAXZ:135.856
;Setting summary:
;  CATEGORY: Crealitybelt
;    Belt Wall Speed: 10
;    Enable Secondary Print Fans: True
;    Secondary Print Fan Speed: 50
;  CATEGORY: Machine
;    Material GUID: 3ed31896-4698-404e-9960-8daebc05885a
;    Diameter: 1.75
;    Nozzle Diameter: 0.8
;    Gantry Angle: 45
;  CATEGORY: Quality
;    Layer Height: 0.3
;  CATEGORY: Shell
;  CATEGORY: Infill
;  CATEGORY: Material
;    Default Printing Temperature: 200
;    Default Build Plate Temperature: 60
;    Flow: 100
;    Standby Temperature: 50
;  CATEGORY: Speed
;  CATEGORY: Travel
;    Retraction Distance: 8
;    Retraction Speed: 65
;  CATEGORY: Cooling
;    Fan Speed: 100
;  CATEGORY: Support
;  CATEGORY: Build Plate Adhesion
;  CATEGORY: Dual Extrusion
;  CATEGORY: Mesh Fixes
;  CATEGORY: Special Modes
;  CATEGORY: Experimental
;  CATEGORY: Command Line Settings
;  Copies: 1
;BLACKBELTPROCESSED
;Generated with Creality Slicer 4.8.2-254
M140 S60
M105
M190 S60
M104 S200
M105
M109 S200
M82 ;absolute extrusion mode
G90               ; Set to Absolute Positioning
M82               ; Set extruder to absolute mode
G21               ; Metric values
G28 X Y
G92 Z0 E0   ; Set all axis to 0
;home X
G1 Y2             ; Move Y axis off the bed
G28 X0 F2000      ; Home X axis
G1 X200 Z5 F4000  ; Move X to the center
;probe Y
M908 P5 S10       ; Setting the motor current of the Y1 motor off
M908 P1 S10       ; Setting the motor current of the Y2 motor off
G1 Y20 G3000      ; Move Y up
M400              ; Wait for current moves to finish
M908 P5 S25       ; Setting the motor current of the Y1 motor very low
M908 P1 S25       ; Setting the motor current of the Y2 motor off
G1 Y0 F500        ; Move Y down into the belt
M400              ; Wait for current moves to finish
M908 P5 S140      ; Setting the motor current of the Y1 motor to normal
M908 P1 S140      ; Setting the motor current of the Y2 motor to normal
G92 Y0.4
;purge
G1 Y2             ; Move Y axis off the bed
G1 F15000         ; Set high feedrate
G1 X200 Y 1 G1 E10; Extruder 10mm material and move to the side
G1 Z10 E12 F500;add
G1 X0 E32
G1 Z20 E34
G1 X200 E54

G1 Z30 E56 F500
G1 X0 E76
G1 Z40 E78
G1 X200 E98

G1 X0 Z40.2 E120
G92 E0 Z0   
G1 E-4 F3900      ; Retract 4mm at 65mm/s
G92 E0
G92 E0
G1 F3900 E-8
;LAYER_COUNT:321
;LAYER:0
M107
;MESH:square_tube.stl
G0 F7200 X82.015 Y0.4 Z0.6
;TYPE:WALL-OUTER
G1 F3900 E0
G1 F180 X117.985 Y0.4 E5.07576
G1 X117.985 Y0.748 E5.12486
G1 X82.015 Y0.748 E7.33282
G1 X82.015 Y0.4 E7.38192
G0 F7200 X82.415 Y0.4
G1 F3900 E-0.61808
;MESH:NONMESH
G0 F600 X82.415 Y0.4 Z1.024
G0 F7200 X82.015 Y0.4
;TIME_ELAPSED:27.362717
;LAYER:1
M106 P1 S18
M106 S36.4
;TYPE:WALL-OUTER
;MESH:square_tube.stl
G1 F3900 E7.38192
G1 F600 X117.985 Y0.4 E10.96879
G1 X117.985 Y1.348 E11.06332
G1 X82.015 Y1.348 E14.65019
G1 X82.015 Y0.4 E14.74472
G0 F7800 X82.415 Y0.4
G1 F3900 E6.74472
;MESH:NONMESH
G0 F600 X82.415 Y0.4 Z1.448
G0 F7800 X82.015 Y0.4
;TIME_ELAPSED:35.184210
;LAYER:2
M106 P1 S36
M106 S72.9
;TYPE:WALL-OUTER
;MESH:square_tube.stl
G1 F3900 E14.74472
G1 F600 X117.985 Y0.4 E18.33159
G1 X117.985 Y1.947 E18.48585
G1 X82.015 Y1.947 E22.07272
G1 X82.015 Y0.4 E22.22699
G0 F8400 X82.415 Y0.4
G1 F3900 E14.22699
;MESH:NONMESH
G0 F600 X82.415 Y0.4 Z1.872
G0 F8400 X82.815 Y1.2
;TIME_ELAPSED:43.143628
;LAYER:3
M106 P1 S54
M106 S109.3
;TYPE:WALL-INNER
;MESH:square_tube.stl
G1 F3900 E22.22699
G1 F1043.4 X117.185 Y1.2 E25.6543
G1 X117.185 Y1.747 E25.70885
G1 X82.815 Y1.747 E28.05228
G1 X82.815 Y1.2 E28.10682
G1 F3900 E20.10682
G0 F9000 X82.015 Y0.4
;TYPE:WALL-OUTER
G1 F3900 E28.10682
G1 F600 ; Belt wall speed
G1 X117.985 Y0.4 E31.69369
G1 F782 ; Restored speed
G1 X117.985 Y2.547 E31.90779
G1 X82.015 Y2.547 E35.49465
G1 X82.015 Y0.4 E35.70875
G0 F9000 X82.415 Y0.4
G1 F3900 E27.70875
;MESH:NONMESH
G0 F600 X82.415 Y0.4 Z2.296
G0 F9000 X82.815 Y1.2
;TIME_ELAPSED:53.798930
;LAYER:4
M106 P1 S72
M106 S145.7
;TYPE:WALL-INNER
;MESH:square_tube.stl
G1 F3900 E35.70875
G1 F1060.4 X117.185 Y1.2 E39.13607
G1 X117.185 Y2.347 E39.25044
G1 X82.815 Y2.347 E42.67776
G1 X82.815 Y1.2 E42.79214
G1 F3900 E34.79214
G0 F9000 X82.015 Y0.4
;TYPE:WALL-OUTER
G1 F3900 E42.79214
G1 F600 ; Belt wall speed
G1 X117.985 Y0.4 E46.37901
G1 F795 ; Restored speed
G1 X117.985 Y3.147 E46.65293
G1 X82.015 Y3.147 E50.2398
G1 X82.015 Y0.4 E50.51373
G0 F9000 X82.415 Y0.4
G1 F3900 E42.51373
;MESH:NONMESH
G0 F600 X82.415 Y0.4 Z2.72
G0 F9000 X82.815 Y1.2
;TIME_ELAPSED:64.454774
;LAYER:5
M106 P1 S91
M106 S182.1
;TYPE:WALL-INNER
;MESH:square_tube.stl
G1 F3900 E50.51373
G1 F1077.5 X117.185 Y1.2 E53.94104
G1 X117.185 Y2.946 E54.11515
G1 X82.815 Y2.946 E57.54247
G1 X82.815 Y1.2 E57.71658
G1 F3900 E49.71658
G0 F9000 X82.015 Y0.4
;TYPE:WALL-OUTER
G1 F3900 E57.71658
G1 F600 ; Belt wall speed
G1 X117.985 Y0.4 E61.30345
G1 F808 ; Restored speed
G1 X117.985 Y3.746 E61.6371
G1 X82.015 Y3.746 E65.22397
G1 X82.015 Y0.4 E65.55763
G0 F9000 X82.415 Y0.4
G1 F3900 E57.55763
;MESH:NONMESH
G0 F600 X82.415 Y0.4 Z3.144
G0 F9000 X82.815 Y1.2
;TIME_ELAPSED:75.111181
;LAYER:6
M106 P1 S109
M106 S218.6
;TYPE:WALL-INNER
;MESH:square_tube.stl
G1 F3900 E65.55763
G1 F1094.5 X117.185 Y1.2 E68.98495
G1 X117.185 Y3.546 E69.21888
G1 X82.815 Y3.546 E72.6462
G1 X82.815 Y1.2 E72.88014
G1 F3900 E64.88014
G0 F9000 X82.015 Y0.4
;TYPE:WALL-OUTER
G1 F3900 E72.88014
G1 F600 ; Belt wall speed
G1 X117.985 Y0.4 E76.46701
G1 F820 ; Restored speed
G1 X117.985 Y4.346 E76.8605
G1 X82.015 Y4.346 E80.44736
G1 X82.015 Y0.4 E80.84085
G0 F9000 X82.415 Y0.4
G1 F3900 E72.84085
;MESH:NONMESH
G0 F600 X82.415 Y0.4 Z3.568
G0 F9000 X82.815 Y1.2
;TIME_ELAPSED:85.768168
;LAYER:7
M106 P1 S127
M106 S255
;TYPE:WALL-INNER
;MESH:square_tube.stl
G1 F3900 E80.84085
G1 F1111.5 X117.185 Y1.2 E84.26817
G1 X117.185 Y4.145 E84.56184
G1 X82.815 Y4.145 E87.98916
G1 X82.815 Y1.2 E88.28283
G1 F3900 E80.28283
G0 F9000 X82.015 Y0.4
;TYPE:WALL-OUTER
G1 F3900 E88.28283
G1 F600 ; Belt wall speed
G1 X117.985 Y0.4 E91.8697
G1 F833 ; Restored speed
G1 X117.985 Y4.945 E92.32292
G1 X82.015 Y4.945 E95.90978
G1 X82.015 Y0.4 E96.363
G0 F9000 X82.415 Y0.4
G1 F3900 E88.363
;MESH:NONMESH
G0 F600 X82.415 Y0.4 Z3.992
G0 F9000 X82.815 Y1.2
;TIME_ELAPSED:96.425754
;LAYER:8
;TYPE:WALL-INNER
;MESH:square_tube.stl
G1 F3900 E96.363
G1 F1128.5 X117.185 Y1.2 E99.79032
G1 X117.185 Y4.745 E100.14382
G1 X82.815 Y4.745 E103.57114
G1 X82.815 Y1.2 E103.92464
G1 F3900 E95.92464
G0 F9000 X82.015 Y0.4
;TYPE:WALL-OUTER
G1 F3900 E103.92464
G1 F600 ; Belt wall speed
G1 X117.985 Y0.4 E107.51151
G1 F846 ; Restored speed
G1 X117.985 Y5.545 E108.02456
G1 X82.015 Y5.545 E111.61143
G1 X82.015 Y0.4 E112.12448
G0 F9000 X82.415 Y0.4
G1 F3900 E104.12448
;MESH:NONMESH
G0 F600 X82.415 Y0.4 Z4.416
G0 F9000 X82.815 Y1.2
;TIME_ELAPSED:107.083955
;LAYER:9
;TYPE:WALL-INNER
;MESH:square_tube.stl
G1 F3900 E112.12448
G1 F1145.6 X117.185 Y1.2 E115.5518
G1 X117.185 Y5.345 E115.96513
G1 X82.815 Y5.345 E119.39245
G1 X82.815 Y1.2 E119.80578
G1 F3900 E111.80578
G0 F9000 X82.015 Y0.4
;TYPE:WALL-OUTER
G1 F3900 E119.80578
G1 F600 ; Belt wall speed
G1 X117.985 Y0.4 E123.39265
G1 F859 ; Restored speed
G1 X117.985 Y6.145 E123.96553
G1 X82.015 Y6.145 E127.55239
G1 X82.015 Y0.4 E128.12528
G0 F9000 X82.415 Y0.4
G1 F3900 E120.12528
;MESH:NONMESH
G0 F600 X82.415 Y0.4 Z4.84
G0 F9000 X82.815 Y1.2
;TIME_ELAPSED:117.742796
;LAYER:10
;TYPE:WALL-INNER
;MESH:square_tube.stl
G1 F3900 E128.12528
G1 F1162.6 X117.185 Y1.2 E131.55259
G1 X117.185 Y5.944 E132.02566
G1 X82.815 Y5.944 E135.45298
G1 X82.815 Y1.2 E135.92604
G1 F3900 E127.92604
G0 F9000 X82.015 Y0.4
;TYPE:WALL-OUTER
G1 F3900 E135.92604
G1 F600 ; Belt wall speed
G1 X117.985 Y0.4 E139.51291
G1 F871 ; Restored speed
G1 X117.985 Y6.744 E140.14552
G1 X82.015 Y6.744 E143.73239
G1 X82.015 Y0.4 E144.365
G0 F9000 X82.415 Y0.4
G1 F3900 E136.365
;MESH:NONMESH
G0 F600 X82.415 Y0.4 Z5.264
G0 F9000 X82.815 Y1.2
;TIME_ELAPSED:128.402310
;LAYER:11
;TYPE:WALL-INNER
;MESH:square_tube.stl
G1 F3900 E144.365
G1 F1179.6 X117.185 Y1.2 E147.79232
G1 X117.185 Y6.544 E148.32521
G1 X82.815 Y6.544 E151.75253
G1 X82.815 Y1.2 E152.28543
G1 F3900 E144.28543
G0 F9000 X82.015 Y0.4
;TYPE:WALL-OUTER
G1 F3900 E152.28543
G1 F600 ; Belt wall speed
G1 X117.985 Y0.4 E155.87229
G1 F884 ; Restored speed
G1 X117.985 Y7.344 E156.56474
G1 X82.015 Y7.344 E160.1516
G1 X82.015 Y0.4 E160.84405
G0 F9000 X82.415 Y0.4
G1 F3900 E152.84405
;MESH:NONMESH
G0 F600 X82.415 Y0.4 Z5.688
G0 F9000 X82.815 Y1.2
;TIME_ELAPSED:139.062529
;LAYER:12
;TYPE:WALL-INNER
;MESH:square_tube.stl
G1 F3900 E160.84405
G1 F1196.7 X117.185 Y1.2 E164.27137
G1 X117.185 Y7.144 E164.86409
G1 X82.815 Y7.144 E168.29141
G1 X82.815 Y1.2 E168.88413
G1 F3900 E160.88413
G0 F9000 X82.015 Y0.4
;TYPE:WALL-OUTER
G1 F3900 E168.88413
G1 F600 ; Belt wall speed
G1 X117.985 Y0.4 E172.471
G1 F897 ; Restored speed
G1 X117.985 Y7.944 E173.22328
G1 X82.015 Y7.944 E176.81014
G1 X82.015 Y0.4 E177.56242
G0 F9000 X82.415 Y0.4
G1 F3900 E169.56242
;MESH:NONMESH
G0 F600 X82.415 Y0.4 Z6.112
G0 F9000 X82.815 Y1.2
;TIME_ELAPSED:149.723485
;LAYER:13
;TYPE:WALL-INNER
;MESH:square_tube.stl
G1 F3900 E177.56242
G1 F1213.7 X117.185 Y1.2 E180.98974
G1 X117.185 Y7.743 E181.64219
G1 X82.815 Y7.743 E185.06951
G1 X82.815 Y1.2 E185.72197
G1 F3900 E177.72197
G0 F9000 X82.015 Y0.4
;TYPE:WALL-OUTER
G1 F3900 E185.72197
G1 F600 ; Belt wall speed
G1 X117.985 Y0.4 E189.30884
G1 F910 ; Restored speed
G1 X117.985 Y8.543 E190.12084
G1 X82.015 Y8.543 E193.70771
G1 X82.015 Y0.4 E194.51972
G0 F9000 X82.415 Y0.4
G1 F3900 E186.51972
;MESH:NONMESH
G0 F600 X82.415 Y0.4 Z6.536
G0 F9000 X82.815 Y1.2
;TIME_ELAPSED:160.385209
;LAYER:14
;TYPE:WALL-INNER
;MESH:square_tube.stl
G1 F3900 E194.51972
G1 F1230.7 X117.185 Y1.2 E197.94703
G1 X117.185 Y8.343 E198.65932
G1 X82.815 Y8.343 E202.08664
G1 X82.815 Y1.2 E202.79893
G1 F3900 E194.79893
G0 F9000 X82.015 Y0.4
;TYPE:WALL-OUTER
G1 F3900 E202.79893
G1 F600 ; Belt wall speed
G1 X117.985 Y0.4 E206.38579
G1 F923 ; Restored speed
G1 X117.985 Y9.143 E207.25763
G1 X82.015 Y9.143 E210.8445
G1 X82.015 Y0.4 E211.71634
G0 F9000 X82.415 Y0.4
G1 F3900 E203.71634
;MESH:NONMESH
G0 F600 X82.415 Y0.4 Z6.96
G0 F9000 X82.815 Y1.2
;TIME_ELAPSED:171.047729
;LAYER:15
;TYPE:WALL-INNER
;MESH:square_tube.stl
G1 F3900 E211.71634
G1 F1247.7 X117.185 Y1.2 E215.14365
G1 X117.185 Y8.942 E215.91567
G1 X82.815 Y8.942 E219.34299
G1 X82.815 Y1.2 E220.11501
G1 F3900 E212.11501
G0 F9000 X82.015 Y0.4
;TYPE:WALL-OUTER
G1 F3900 E220.11501
G1 F600 ; Belt wall speed
G1 X117.985 Y0.4 E223.70188
G1 F935 ; Restored speed
G1 X117.985 Y9.742 E224.63345
G1 X82.015 Y9.742 E228.22031
G1 X82.015 Y0.4 E229.15188
G0 F9000 X82.415 Y0.4
G1 F3900 E221.15188
;MESH:NONMESH
G0 F600 X82.415 Y0.4 Z7.384
G0 F9000 X82.815 Y1.2
;TIME_ELAPSED:181.711072
;LAYER:16
;TYPE:WALL-INNER
;MESH:square_tube.stl
G1 F3900 E229.15188
G1 F1264.7 X117.185 Y1.2 E232.5792
G1 X117.185 Y9.542 E233.41105
G1 X82.815 Y9.542 E236.83837
G1 X82.815 Y1.2 E237.67022
G1 F3900 E229.67022
G0 F9000 X82.015 Y0.4
;TYPE:WALL-OUTER
G1 F3900 E237.67022
G1 F600 ; Belt wall speed
G1 X117.985 Y0.4 E241.25708
G1 F948 ; Restored speed
G1 X117.985 Y10.342 E242.24848
G1 X82.015 Y10.342 E245.83535
G1 X82.015 Y0.4 E246.82675
G0 F9000 X82.415 Y0.4
G1 F3900 E238.82675
;MESH:NONMESH
G0 F600 X82.415 Y0.4 Z7.808
G0 F9000 X82.815 Y1.2
;TIME_ELAPSED:192.375267
;LAYER:17
;TYPE:WALL-INNER
;MESH:square_tube.stl
G1 F3900 E246.82675
G1 F1281.8 X117.185 Y1.2 E250.25407
G1 X117.185 Y10.142 E251.14575
G1 X82.815 Y10.142 E254.57307
G1 X82.815 Y1.2 E255.46475
G1 F3900 E247.46475
G0 F9000 X82.015 Y0.4
;TYPE:WALL-OUTER
G1 F3900 E255.46475
G1 F600 ; Belt wall speed
G1 X117.985 Y0.4 E259.05162
G1 F961 ; Restored speed
G1 X117.985 Y10.942 E260.10285
G1 X82.015 Y10.942 E263.68971
G1 X82.015 Y0.4 E264.74094
G0 F9000 X82.415 Y0.4
G1 F3900 E256.74094
;MESH:NONMESH
G0 F600 X82.415 Y0.4 Z8.232
G0 F9000 X82.815 Y1.2
;TIME_ELAPSED:203.040339
;LAYER:18
;TYPE:WALL-INNER
;MESH:square_tube.stl
G1 F3900 E264.74094
G1 F1298.8 X117.185 Y1.2 E268.16826
G1 X117.185 Y10.741 E269.11967
G1 X82.815 Y10.741 E272.54699
G1 X82.815 Y1.2 E273.4984
G1 F3900 E265.4984
G0 F9000 X82.015 Y0.4
;TYPE:WALL-OUTER
G1 F3900 E273.4984
G1 F600 ; Belt wall speed
G1 X117.985 Y0.4 E277.08527
G1 F974 ; Restored speed
G1 X117.985 Y11.541 E278.19623
G1 X82.015 Y11.541 E281.7831
G1 X82.015 Y0.4 E282.89406
G0 F9000 X82.415 Y0.4
G1 F3900 E274.89406
;MESH:NONMESH
G0 F600 X82.415 Y0.4 Z8.656
G0 F9000 X82.815 Y1.2
;TIME_ELAPSED:213.706312
;LAYER:19
;TYPE:WALL-INNER
;MESH:square_tube.stl
G1 F3900 E282.89406
G1 F1315.8 X117.185 Y1.2 E286.32138
G1 X117.185 Y11.341 E287.33262
G1 X82.815 Y11.341 E290.75994
G1 X82.815 Y1.2 E291.77118
G1 F3900 E283.77118
G0 F9000 X82.015 Y0.4
;TYPE:WALL-OUTER
G1 F3900 E291.77118
G1 F600 ; Belt wall speed
G1 X117.985 Y0.4 E295.35805
G1 F986 ; Restored speed
G1 X117.985 Y12.141 E296.52884
G1 X82.015 Y12.141 E300.11571
G1 X82.015 Y0.4 E301.2865
G0 F9000 X82.415 Y0.4
G1 F3900 E293.2865
;MESH:NONMESH
G0 F600 X82.415 Y0.4 Z9.08
G0 F9000 X82.815 Y1.2
;TIME_ELAPSED:224.373211
;LAYER:20
;TYPE:WALL-INNER
;MESH:square_tube.stl
G1 F3900 E301.2865
G1 F1332.8 X117.185 Y1.2 E304.71382
G1 X117.185 Y11.94 E305.7848
G1 X82.815 Y11.94 E309.21211
G1 X82.815 Y1.2 E310.28309
G1 F3900 E302.28309
G0 F9000 X82.015 Y0.4
;TYPE:WALL-OUTER
G1 F3900 E310.28309
G1 F600 ; Belt wall speed
G1 X117.985 Y0.4 E313.86996
G1 F999 ; Restored speed
G1 X117.985 Y12.74 E315.10048
G1 X82.015 Y12.74 E318.68735
G1 X82.015 Y0.4 E319.91787
G0 F9000 X82.415 Y0.4
G1 F3900 E311.91787
;MESH:NONMESH
G0 F600 X82.415 Y0.4 Z9.504
G0 F9000 X82.815 Y1.2
;TIME_ELAPSED:235.041057
;LAYER:21
;TYPE:WALL-INNER
;MESH:square_tube.stl
G1 F3900 E319.91787
G1 F1349.9 X117.185 Y1.2 E323.34519
G1 X117.185 Y12.54 E324.47599
G1 X82.815 Y12.54 E327.90331
G1 X82.815 Y1.2 E329.03412
G1 F3900 E321.03412
G0 F9000 X82.015 Y0.4
;TYPE:WALL-OUTER
G1 F3900 E329.03412
G1 F600 ; Belt wall speed
G1 X117.985 Y0.4 E332.62099
G1 F1012 ; Restored speed
G1 X117.985 Y13.34 E333.91134
G1 X82.015 Y13.34 E337.49821
G1 X82.015 Y0.4 E338.78856
G0 F9000 X82.415 Y0.4
G1 F3900 E330.78856
;MESH:NONMESH
G0 F600 X82.415 Y0.4 Z9.928
G0 F9000 X82.815 Y1.2
;TIME_ELAPSED:245.709874
;LAYER:22
;TYPE:WALL-INNER
;MESH:square_tube.stl
G1 F3900 E338.78856
G1 F1366.9 X117.185 Y1.2 E342.21588
G1 X117.185 Y13.14 E343.40652
G1 X82.815 Y13.14 E346.83383
G1 X82.815 Y1.2 E348.02447
G1 F3900 E340.02447
G0 F9000 X82.015 Y0.4
;TYPE:WALL-OUTER
G1 F3900 E348.02447
G1 F600 ; Belt wall speed
G1 X117.985 Y0.4 E351.61134
G1 F1025 ; Restored speed
G1 X117.985 Y13.94 E352.96152
G1 X82.015 Y13.94 E356.54839
G1 X82.015 Y0.4 E357.89858
G0 F9000 X82.415 Y0.4
G1 F3900 E349.89858
;MESH:NONMESH
G0 F600 X82.415 Y0.4 Z10.352
G0 F9000 X82.815 Y1.2
;TIME_ELAPSED:256.379684
;LAYER:23
;TYPE:WALL-INNER
;MESH:square_tube.stl
G1 F3900 E357.89858
G1 F1383.9 X117.185 Y1.2 E361.32589
G1 X117.185 Y13.739 E362.57626
G1 X82.815 Y13.739 E366.00358
G1 X82.815 Y1.2 E367.25395
G1 F3900 E359.25395
G0 F9000 X82.015 Y0.4
;TYPE:WALL-OUTER
G1 F3900 E367.25395
G1 F600 ; Belt wall speed
G1 X117.985 Y0.4 E370.84082
G1 F1037 ; Restored speed
G1 X117.985 Y14.539 E372.25073
G1 X82.015 Y14.539 E375.8376
G1 X82.015 Y0.4 E377.24752
G0 F9000 X82.415 Y0.4
G1 F3900 E369.24752
;MESH:NONMESH
G0 F600 X82.415 Y0.4 Z10.776
G0 F9000 X82.815 Y1.2
;TIME_ELAPSED:267.050505
