;Sliced by ideaMaker 4.3.2.6470, 2023-03-29 09:25:57 UTC-0500
;Dimension: 235.000 235.000 215.000 0.400
;Plate Shape: 0
;Origin Center: 0
;Extruder Offset #1: 25.000 0.000
;Filament Diameter #1: 1.750
;Filament Diameter #2: 1.750
;Filament Compensation #1: 110.00
;Filament Compensation #2: 90.00
;Filament Density #1: 1220.00
;Filament Density #2: 1240.00
;Filament Type #1: TPU
;Filament Type #2: 
;Filament Name #1: [Raise3D] TPU-95A 1.75mm
;Filament Name #2: 
;Firmware: Marlin
;Bounding Box: 33.260 201.740 33.260 201.740 0.000 150.600
;Model Gap: 0.000
M221 T0 S100.00
M140 S60.00
M104 T0 S220.00
M109 T0 S220.00
T0
M190 S60.00
M300 S440 P200           ; Make Print Completed Tones
M300 S660 P250
M300 S880 P300
M300 S440 P200           ; Make Print Completed Tones
M300 S660 P250
M300 S880 P300
shear strings
M117 Nozzle	    ; Indicate nozzle clean in progress on LCD
;M109 S<your temp>    ; Uncomment to set your own temp [run warmer to clean out nozzle]
M107		   ; Turn layer fan off
G21		   ; Set to metric [change to G20 if you want Imperial]
G90                             ; Force coordinates to be absolute relative to the origin
G28
;==============================
; Mesh Bed Leveling
M420 S1                     ; Uncomment to enable.
;Linear Adavance
;M900 K0.3                  ; Uncomment to enable
;===============================                        ; Home X/Y/Z axis
G0 X2 Y0 Z0.2 F9000         ; Move in 2mm from edge and up [z] 0.2mm
G92 E0                              ; Set extruder to [0] zero
G1 Y180 E50 F500             ; Extrude 180 mm filiment along Y axis 180 mm long to prime and clean the nozzle
G92 E0                             ; Reset extruder to [0] zero end of cleaning run
G1 E-7 F500                     ; Retract filiment by 7 mm to reduce string effect
G1 X3 Y190 Z15 F9000      	; Move over and rise to safe Z height
;G1 X3 Y0 Z15 F9000		; Move back to front of bed at safe Z height to
G1 X5 Y5 Z15 F9000
;TOTAL_NUM: 1
;PRINTING_TIME: 0
;REMAINING_TIME: 21381
M83
;LAYER:0
;Z:0.200
;HEIGHT:0.200
M106 S0
;PRINTING: NON-OBJECT
;PRINTING_ID: -1
G1 F1500 E-2.0000
M204 S500.00
M205 X10.00 Y10.00
G0 F4800 X36.676 Y36.605
G0 F720 Z0.200
;TYPE:SKIRT
;WIDTH:0.440
G1 F1200 E1.7000
G1 F1080 X37.405 Y35.942 E0.0397
G1 X38.128 Y35.385 E0.0367
G1 X38.892 Y34.887 E0.0367
G1 X39.632 Y34.482 E0.0339
G1 X40.496 Y34.094 E0.0381
G1 X41.358 Y33.786 E0.0368
G1 X42.240 Y33.550 E0.0367
G1 X43.170 Y33.375 E0.0381
G1 X44.006 Y33.287 E0.0338
G1 X44.755 Y33.260 E0.0302
G1 X190.251 Y33.260 E5.8555
G1 X191.059 Y33.292 E0.0325
G1 X192.002 Y33.403 E0.0382
G1 X192.966 Y33.598 E0.0396
G1 X193.808 Y33.840 E0.0353
G1 X194.598 Y34.133 E0.0339
G1 X195.427 Y34.513 E0.0367
G1 X196.316 Y35.016 E0.0411
G1 X197.043 Y35.509 E0.0354
G1 X197.781 Y36.101 E0.0381
G1 X198.447 Y36.728 E0.0368
G1 X199.035 Y37.378 E0.0353
G1 X199.552 Y38.042 E0.0339
G1 X200.057 Y38.800 E0.0367
G1 X200.533 Y39.663 E0.0397
G1 X200.880 Y40.431 E0.0339
G1 X201.225 Y41.392 E0.0411
G1 X201.450 Y42.239 E0.0353
G1 X201.625 Y43.172 E0.0382
G1 X201.717 Y44.069 E0.0363
G1 X201.740 Y44.755 E0.0276
G1 X201.740 Y190.251 E5.8555
G1 X201.705 Y191.093 E0.0339
G1 X201.603 Y191.966 E0.0354
G1 X201.428 Y192.862 E0.0367
G1 X201.159 Y193.809 E0.0396
G1 X200.840 Y194.664 E0.0367
G1 X200.454 Y195.494 E0.0368
G1 X199.986 Y196.314 E0.0380
G1 X199.534 Y196.985 E0.0326
G1 X198.901 Y197.779 E0.0409
G1 X198.324 Y198.395 E0.0340
G1 X197.595 Y199.058 E0.0397
G1 X196.872 Y199.615 E0.0367
G1 X196.108 Y200.113 E0.0367
G1 X195.368 Y200.518 E0.0339
G1 X194.504 Y200.906 E0.0381
G1 X193.642 Y201.214 E0.0368
G1 X192.760 Y201.450 E0.0367
G1 X191.830 Y201.625 E0.0381
G1 X190.994 Y201.713 E0.0338
G1 X190.245 Y201.740 E0.0302
G1 X44.749 Y201.740 E5.8555
G1 X43.907 Y201.705 E0.0339
G1 X43.034 Y201.603 E0.0354
G1 X42.138 Y201.428 E0.0367
G1 X41.191 Y201.159 E0.0396
G1 X40.336 Y200.840 E0.0367
G1 X39.506 Y200.454 E0.0368
G1 X38.686 Y199.986 E0.0380
G1 X38.015 Y199.534 E0.0326
G1 X37.221 Y198.901 E0.0409
G1 X36.605 Y198.324 E0.0340
G1 X35.942 Y197.595 E0.0397
G1 X35.385 Y196.872 E0.0367
G1 X34.887 Y196.108 E0.0367
G1 X34.482 Y195.368 E0.0339
G1 X34.094 Y194.504 E0.0381
G1 X33.786 Y193.642 E0.0368
G1 X33.550 Y192.760 E0.0367
G1 X33.375 Y191.830 E0.0381
G1 X33.287 Y190.994 E0.0338
G1 X33.260 Y190.245 E0.0302
G1 X33.260 Y44.749 E5.8555
G1 X33.295 Y43.907 E0.0339
G1 X33.397 Y43.034 E0.0354
G1 X33.572 Y42.138 E0.0367
G1 X33.841 Y41.191 E0.0396
G1 X34.160 Y40.336 E0.0367
G1 X34.546 Y39.506 E0.0368
G1 X35.014 Y38.686 E0.0380
G1 X35.466 Y38.015 E0.0326
G1 X36.099 Y37.221 E0.0409
G1 X36.676 Y36.605 E0.0340
G0 F4800 X36.973 Y36.930
G1 F1080 X37.674 Y36.290 E0.0382
G1 X38.369 Y35.753 E0.0353
G1 X39.104 Y35.273 E0.0353
G1 X39.813 Y34.883 E0.0326
G1 X40.644 Y34.508 E0.0367
G1 X41.506 Y34.200 E0.0368
G1 X42.353 Y33.975 E0.0353
G1 X43.216 Y33.813 E0.0353
G1 X44.052 Y33.725 E0.0338
G1 X44.770 Y33.700 E0.0289
G1 X190.234 Y33.700 E5.8542
G1 X191.042 Y33.732 E0.0325
G1 X191.950 Y33.840 E0.0368
G1 X192.845 Y34.021 E0.0367
G1 X193.655 Y34.253 E0.0339
G1 X194.445 Y34.546 E0.0339
G1 X195.243 Y34.913 E0.0353
G1 X196.069 Y35.380 E0.0382
G1 X196.796 Y35.873 E0.0354
G1 X197.480 Y36.422 E0.0353
G1 X198.121 Y37.024 E0.0354
G1 X198.688 Y37.648 E0.0339
G1 X199.205 Y38.312 E0.0339
G1 X199.690 Y39.043 E0.0353
G1 X200.132 Y39.844 E0.0368
G1 X200.479 Y40.612 E0.0339
G1 X200.800 Y41.506 E0.0382
G1 X201.018 Y42.320 E0.0339
G1 X201.187 Y43.217 E0.0367
G1 X201.277 Y44.084 E0.0351
G1 X201.300 Y44.770 E0.0276
G1 X201.300 Y190.234 E5.8542
G1 X201.268 Y191.042 E0.0325
G1 X201.166 Y191.915 E0.0354
G1 X200.996 Y192.777 E0.0354
G1 X200.736 Y193.688 E0.0381
G1 X200.428 Y194.510 E0.0353
G1 X200.055 Y195.307 E0.0354
G1 X199.621 Y196.068 E0.0353
G1 X199.169 Y196.739 E0.0326
G1 X198.579 Y197.479 E0.0381
G1 X198.027 Y198.070 E0.0325
G1 X197.326 Y198.710 E0.0382
G1 X196.631 Y199.247 E0.0353
G1 X195.896 Y199.727 E0.0353
G1 X195.187 Y200.117 E0.0326
G1 X194.356 Y200.492 E0.0367
G1 X193.494 Y200.800 E0.0368
G1 X192.647 Y201.025 E0.0353
G1 X191.784 Y201.187 E0.0353
G1 X190.948 Y201.275 E0.0338
G1 X190.230 Y201.300 E0.0289
G1 X44.766 Y201.300 E5.8542
G1 X43.958 Y201.268 E0.0325
G1 X43.085 Y201.166 E0.0354
G1 X42.223 Y200.996 E0.0354
G1 X41.312 Y200.736 E0.0381
G1 X40.490 Y200.428 E0.0353
G1 X39.693 Y200.055 E0.0354
G1 X38.932 Y199.621 E0.0353
G1 X38.261 Y199.169 E0.0326
G1 X37.521 Y198.579 E0.0381
G1 X36.930 Y198.027 E0.0325
G1 X36.290 Y197.326 E0.0382
G1 X35.753 Y196.631 E0.0353
G1 X35.273 Y195.896 E0.0353
G1 X34.883 Y195.187 E0.0326
G1 X34.508 Y194.356 E0.0367
G1 X34.200 Y193.494 E0.0368
G1 X33.975 Y192.647 E0.0353
G1 X33.813 Y191.784 E0.0353
G1 X33.725 Y190.948 E0.0338
G1 X33.700 Y190.230 E0.0289
G1 X33.700 Y44.766 E5.8542
G1 X33.732 Y43.958 E0.0325
G1 X33.834 Y43.085 E0.0354
G1 X34.004 Y42.223 E0.0354
G1 X34.264 Y41.312 E0.0381
G1 X34.572 Y40.490 E0.0353
G1 X34.945 Y39.693 E0.0354
G1 X35.379 Y38.932 E0.0353
G1 X35.831 Y38.261 E0.0326
G1 X36.421 Y37.521 E0.0381
G1 X36.973 Y36.930 E0.0325
G0 F4800 X37.295 Y37.230
G1 F1080 X37.944 Y36.638 E0.0354
G1 X38.610 Y36.121 E0.0339
G1 X39.316 Y35.659 E0.0340
G1 X40.025 Y35.269 E0.0326
G1 X40.793 Y34.922 E0.0339
G1 X41.620 Y34.625 E0.0354
G1 X42.434 Y34.407 E0.0339
G1 X43.263 Y34.251 E0.0339
G1 X44.067 Y34.165 E0.0325
G1 X44.785 Y34.140 E0.0289
G1 X190.217 Y34.140 E5.8529
G1 X191.025 Y34.172 E0.0325
G1 X191.863 Y34.271 E0.0340
G1 X192.724 Y34.444 E0.0353
G1 X193.534 Y34.676 E0.0339
G1 X194.292 Y34.958 E0.0325
G1 X195.058 Y35.312 E0.0340
G1 X195.822 Y35.744 E0.0353
G1 X196.521 Y36.217 E0.0340
G1 X197.179 Y36.743 E0.0339
G1 X197.795 Y37.320 E0.0340
G1 X198.362 Y37.944 E0.0339
G1 X198.858 Y38.582 E0.0325
G1 X199.323 Y39.286 E0.0340
G1 X199.731 Y40.025 E0.0340
G1 X200.078 Y40.793 E0.0339
G1 X200.375 Y41.620 E0.0354
G1 X200.593 Y42.434 E0.0339
G1 X200.749 Y43.263 E0.0339
G1 X200.837 Y44.099 E0.0338
G1 X200.860 Y44.785 E0.0276
G1 X200.860 Y190.217 E5.8529
G1 X200.828 Y191.025 E0.0325
G1 X200.729 Y191.863 E0.0340
G1 X200.564 Y192.691 E0.0340
G1 X200.324 Y193.534 E0.0353
G1 X200.029 Y194.324 E0.0339
G1 X199.672 Y195.090 E0.0340
G1 X199.256 Y195.822 E0.0339
G1 X198.804 Y196.493 E0.0326
G1 X198.257 Y197.179 E0.0353
G1 X197.705 Y197.770 E0.0325
G1 X197.056 Y198.362 E0.0354
G1 X196.390 Y198.879 E0.0339
G1 X195.684 Y199.341 E0.0340
G1 X194.975 Y199.731 E0.0326
G1 X194.207 Y200.078 E0.0339
G1 X193.380 Y200.375 E0.0354
G1 X192.566 Y200.593 E0.0339
G1 X191.737 Y200.749 E0.0339
G1 X190.933 Y200.835 E0.0325
G1 X190.215 Y200.860 E0.0289
G1 X44.783 Y200.860 E5.8529
G1 X43.975 Y200.828 E0.0325
G1 X43.137 Y200.729 E0.0340
G1 X42.309 Y200.564 E0.0340
G1 X41.466 Y200.324 E0.0353
G1 X40.676 Y200.029 E0.0339
G1 X39.910 Y199.672 E0.0340
G1 X39.178 Y199.256 E0.0339
G1 X38.507 Y198.804 E0.0326
G1 X37.821 Y198.257 E0.0353
G1 X37.230 Y197.705 E0.0325
G1 X36.638 Y197.056 E0.0354
G1 X36.121 Y196.390 E0.0339
G1 X35.659 Y195.684 E0.0340
G1 X35.269 Y194.975 E0.0326
G1 X34.922 Y194.207 E0.0339
G1 X34.625 Y193.380 E0.0354
G1 X34.407 Y192.566 E0.0339
G1 X34.251 Y191.737 E0.0339
G1 X34.165 Y190.933 E0.0325
G1 X34.140 Y190.215 E0.0289
G1 X34.140 Y44.783 E5.8529
G1 X34.172 Y43.975 E0.0325
G1 X34.271 Y43.137 E0.0340
G1 X34.436 Y42.309 E0.0340
G1 X34.676 Y41.466 E0.0353
G1 X34.971 Y40.676 E0.0339
G1 X35.328 Y39.910 E0.0340
G1 X35.744 Y39.178 E0.0339
G1 X36.196 Y38.507 E0.0326
G1 X36.743 Y37.821 E0.0353
G1 X37.295 Y37.230 E0.0325
G0 F4800 X37.617 Y37.530
G1 F1080 X38.214 Y36.985 E0.0325
G1 X38.852 Y36.489 E0.0325
G1 X39.528 Y36.045 E0.0325
G1 X40.237 Y35.655 E0.0326
G1 X40.974 Y35.323 E0.0325
G1 X41.735 Y35.050 E0.0325
G1 X42.516 Y34.839 E0.0326
G1 X43.310 Y34.689 E0.0325
G1 X44.114 Y34.603 E0.0325
G1 X44.800 Y34.580 E0.0276
G1 X190.200 Y34.580 E5.8516
G1 X191.008 Y34.612 E0.0325
G1 X191.811 Y34.708 E0.0325
G1 X192.604 Y34.867 E0.0325
G1 X193.381 Y35.088 E0.0325
G1 X194.139 Y35.370 E0.0325
G1 X194.873 Y35.711 E0.0326
G1 X195.576 Y36.109 E0.0325
G1 X196.247 Y36.561 E0.0326
G1 X196.879 Y37.065 E0.0325
G1 X197.470 Y37.617 E0.0325
G1 X198.015 Y38.214 E0.0325
G1 X198.511 Y38.852 E0.0325
G1 X198.955 Y39.528 E0.0325
G1 X199.345 Y40.237 E0.0326
G1 X199.677 Y40.974 E0.0325
G1 X199.950 Y41.735 E0.0325
G1 X200.161 Y42.516 E0.0326
G1 X200.311 Y43.310 E0.0325
G1 X200.397 Y44.114 E0.0325
G1 X200.420 Y44.800 E0.0276
G1 X200.420 Y190.200 E5.8516
G1 X200.388 Y191.008 E0.0325
G1 X200.292 Y191.811 E0.0325
G1 X200.133 Y192.604 E0.0325
G1 X199.912 Y193.381 E0.0325
G1 X199.630 Y194.139 E0.0325
G1 X199.289 Y194.873 E0.0326
G1 X198.891 Y195.576 E0.0325
G1 X198.439 Y196.247 E0.0326
G1 X197.935 Y196.879 E0.0325
G1 X197.383 Y197.470 E0.0325
G1 X196.786 Y198.015 E0.0325
G1 X196.148 Y198.511 E0.0325
G1 X195.472 Y198.955 E0.0325
G1 X194.763 Y199.345 E0.0326
G1 X194.026 Y199.677 E0.0325
G1 X193.265 Y199.950 E0.0325
G1 X192.484 Y200.161 E0.0326
G1 X191.690 Y200.311 E0.0325
G1 X190.886 Y200.397 E0.0325
G1 X190.200 Y200.420 E0.0276
G1 X44.800 Y200.420 E5.8516
G1 X43.992 Y200.388 E0.0325
G1 X43.189 Y200.292 E0.0325
G1 X42.396 Y200.133 E0.0325
G1 X41.619 Y199.912 E0.0325
G1 X40.861 Y199.630 E0.0325
G1 X40.127 Y199.289 E0.0326
G1 X39.424 Y198.891 E0.0325
G1 X38.753 Y198.439 E0.0326
G1 X38.121 Y197.935 E0.0325
G1 X37.530 Y197.383 E0.0325
G1 X36.985 Y196.786 E0.0325
G1 X36.489 Y196.148 E0.0325
G1 X36.045 Y195.472 E0.0325
G1 X35.655 Y194.763 E0.0326
G1 X35.323 Y194.026 E0.0325
G1 X35.050 Y193.265 E0.0325
G1 X34.839 Y192.484 E0.0326
G1 X34.689 Y191.690 E0.0325
G1 X34.603 Y190.886 E0.0325
G1 X34.580 Y190.200 E0.0276
G1 X34.580 Y44.800 E5.8516
G1 X34.612 Y43.992 E0.0325
G1 X34.708 Y43.189 E0.0325
G1 X34.867 Y42.396 E0.0325
G1 X35.088 Y41.619 E0.0325
G1 X35.370 Y40.861 E0.0325
G1 X35.711 Y40.127 E0.0326
G1 X36.109 Y39.424 E0.0325
G1 X36.561 Y38.753 E0.0326
G1 X37.065 Y38.121 E0.0325
G1 X37.617 Y37.530 E0.0325
;PRINTING: bellows-split-bottom.stl
;PRINTING_ID: 0
G1 F1500 E-2.0000
G0 F4800 X45.380 Y45.380
;TYPE:WALL-OUTER
;WIDTH:0.440
G1 F1200 E1.7000
G1 F1080 X45.380 Y189.620 E5.8049
G1 X189.620 Y189.620 E5.8049
G1 X189.620 Y45.380 E5.8049
G1 X45.380 Y45.380 E5.8049
G0 F3000 X45.380 Y45.680
G1 F1500 E-2.0000
G0 F4800 X45.280 Y45.680
G0 X45.030 Y189.880
G0 X45.020 Y189.980
G1 F1200 E1.7000
G1 F1080 X45.020 Y45.020 E5.8339
G1 X189.980 Y45.020 E5.8339
G1 X189.980 Y189.980 E5.8339
G1 X45.020 Y189.980 E5.8339
G0 F3000 X45.020 Y189.680
;PRINTING_TIME: 213
;REMAINING_TIME: 21169
;LAYER:1
;Z:0.400
;HEIGHT:0.200
;PRINTING: bellows-split-bottom.stl
;PRINTING_ID: 0
G0 F720 Z0.400
G0 F4800 X45.020 Y189.980
;TYPE:WALL-OUTER
;WIDTH:0.440
G1 F1080 X45.020 Y45.020 E5.8339
G1 X189.980 Y45.020 E5.8339
G1 X189.980 Y189.980 E5.8339
G1 X45.020 Y189.980 E5.8339
G0 F3000 X45.020 Y189.680
G0 F4800 X45.380 Y189.620
G1 F1080 X189.620 Y189.620 E5.8049
G1 X189.620 Y45.380 E5.8049
G1 X45.380 Y45.380 E5.8049
G1 X45.380 Y189.620 E5.8049
G0 F3000 X45.680 Y189.620
;PRINTING_TIME: 277
;REMAINING_TIME: 21104
;LAYER:2
;Z:0.600
;HEIGHT:0.200
;PRINTING: bellows-split-bottom.stl
;PRINTING_ID: 0
G0 F720 Z0.600
G0 F4800 X45.380 Y189.620
;TYPE:WALL-OUTER
;WIDTH:0.440
G1 F1080 X189.620 Y189.620 E5.8049
G1 X189.620 Y45.380 E5.8049
G1 X45.380 Y45.380 E5.8049
G1 X45.380 Y189.620 E5.8049
G0 F3000 X45.680 Y189.620
G0 F4800 X45.020 Y189.980
G1 F1080 X45.020 Y45.020 E5.8339
G1 X189.980 Y45.020 E5.8339
G1 X189.980 Y189.980 E5.8339
G1 X45.020 Y189.980 E5.8339
G0 F3000 X45.020 Y189.680
;PRINTING_TIME: 342
;REMAINING_TIME: 21039
;LAYER:3
;Z:0.800
;HEIGHT:0.200
;PRINTING: bellows-split-bottom.stl
;PRINTING_ID: 0
G0 F720 Z0.800
G0 F4800 X45.020 Y189.980
;TYPE:WALL-OUTER
;WIDTH:0.440
G1 F1080 X45.020 Y45.020 E5.8339
G1 X189.980 Y45.020 E5.8339
G1 X189.980 Y189.980 E5.8339
G1 X45.020 Y189.980 E5.8339
G1 X45.020 Y45.020 Z0.850 E1.4585
G1 X189.980 Y45.020 Z0.900 E2.9169
G1 X189.980 Y189.980 Z0.950 E4.3754
G1 X45.020 Y189.980 Z1.000 E5.8339
;PRINTING_TIME: 407
;REMAINING_TIME: 20975
;LAYER:4
;Z:1.000
;HEIGHT:0.200
;PRINTING: bellows-split-bottom.stl
;PRINTING_ID: 0
;TYPE:WALL-OUTER
;WIDTH:0.440
G1 X45.020 Y45.020 Z1.050 E5.8339
G1 X189.980 Y45.020 Z1.100 E5.8339
G1 X189.980 Y189.980 Z1.150 E5.8339
G1 X45.020 Y189.980 Z1.200 E5.8339
;PRINTING_TIME: 439
;REMAINING_TIME: 20943
;LAYER:5
;Z:1.200
;HEIGHT:0.200
;PRINTING: bellows-split-bottom.stl
;PRINTING_ID: 0
;TYPE:WALL-OUTER
;WIDTH:0.440
G1 X45.020 Y45.020 Z1.250 E5.8339
G1 X189.980 Y45.020 Z1.300 E5.8339
G1 X189.980 Y189.980 Z1.350 E5.8339
G1 X45.020 Y189.980 Z1.400 E5.8339
;PRINTING_TIME: 471
;REMAINING_TIME: 20910
;LAYER:6
;Z:1.400
;HEIGHT:0.200
;PRINTING: bellows-split-bottom.stl
;PRINTING_ID: 0
;TYPE:WALL-OUTER
;WIDTH:0.440
G1 X45.020 Y45.020 Z1.450 E5.8339
G1 X189.980 Y45.020 Z1.500 E5.8339
G1 X189.980 Y189.980 Z1.550 E5.8339
G1 X45.020 Y189.980 Z1.600 E5.8339
;PRINTING_TIME: 503
;REMAINING_TIME: 20878
;LAYER:7
;Z:1.600
;HEIGHT:0.200
;PRINTING: bellows-split-bottom.stl
;PRINTING_ID: 0
;TYPE:WALL-OUTER
;WIDTH:0.440
G1 X45.020 Y45.020 Z1.650 E5.8339
G1 X189.980 Y45.020 Z1.700 E5.8339
G1 X189.980 Y189.980 Z1.750 E5.8339
G1 X45.020 Y189.980 Z1.800 E5.8339
;PRINTING_TIME: 536
;REMAINING_TIME: 20846
;LAYER:8
;Z:1.800
;HEIGHT:0.200
;PRINTING: bellows-split-bottom.stl
;PRINTING_ID: 0
;TYPE:WALL-OUTER
;WIDTH:0.440
G1 X45.020 Y45.020 Z1.850 E5.8339
G1 X189.980 Y45.020 Z1.900 E5.8339
G1 X189.980 Y189.980 Z1.950 E5.8339
G1 X45.020 Y189.980 Z2.000 E5.8339
;PRINTING_TIME: 568
;REMAINING_TIME: 20813
;LAYER:9
;Z:2.000
;HEIGHT:0.200
;PRINTING: bellows-split-bottom.stl
;PRINTING_ID: 0
;TYPE:WALL-OUTER
;WIDTH:0.440
G1 X45.020 Y45.020 Z2.050 E5.8339
G1 X189.980 Y45.020 Z2.100 E5.8339
G1 X189.980 Y189.980 Z2.150 E5.8339
G1 X45.020 Y189.980 Z2.200 E5.8339
;PRINTING_TIME: 600
;REMAINING_TIME: 20781
;LAYER:10
;Z:2.200
;HEIGHT:0.200
;PRINTING: bellows-split-bottom.stl
;PRINTING_ID: 0
;TYPE:WALL-OUTER
;WIDTH:0.440
G1 X45.020 Y45.020 Z2.250 E5.8339
G1 X189.980 Y45.020 Z2.300 E5.8339
G1 X189.980 Y189.980 Z2.350 E5.8339
G1 X45.020 Y189.980 Z2.400 E5.8339
;PRINTING_TIME: 632
;REMAINING_TIME: 20749
;LAYER:11
;Z:2.400
;HEIGHT:0.200
;PRINTING: bellows-split-bottom.stl
;PRINTING_ID: 0
;TYPE:WALL-OUTER
;WIDTH:0.440
