;FLAVOR:Marlin
;TIME:8172
;Filament used: 35.4409m
;Layer height: 0.424264
;MINX:82.015
;MINY:0.4
;MINZ:0.6
;MAXX:117.985
;MAXY:51.6
;MAXZ:135.432
;Setting summary:
;  CATEGORY: Crealitybelt
;    Belt Wall Speed: 10
;    Enable Secondary Print Fans: True
;    Secondary Print Fan Speed: 50
;  CATEGORY: Machine
;    Material GUID: 3ed31896-4698-404e-9960-8daebc05885a
;    Diameter: 1.75
;    Nozzle Diameter: 0.8
;    Gantry Angle: 45
;  CATEGORY: Quality
;    Layer Height: 0.3
;  CATEGORY: Shell
;  CATEGORY: Infill
;    Infill Density: 25
;    Infill Pattern: lines
;    Connect Infill Lines: True
;    Infill Line Multiplier: 2
;    Infill Before Walls: False
;  CATEGORY: Material
;    Default Printing Temperature: 200
;    Default Build Plate Temperature: 60
;    Flow: 100
;    Standby Temperature: 50
;  CATEGORY: Speed
;    Print Speed: 70
;    Top/Bottom Speed: 35
;  CATEGORY: Travel
;    Retraction Distance: 8
;    Retraction Speed: 65
;  CATEGORY: Cooling
;    Fan Speed: 100
;  CATEGORY: Support
;    Support Pattern: lines
;  CATEGORY: Build Plate Adhesion
;  CATEGORY: Dual Extrusion
;  CATEGORY: Mesh Fixes
;  CATEGORY: Special Modes
;  CATEGORY: Experimental
;    Slicing Tolerance: exclusive
;  CATEGORY: Command Line Settings
;  Copies: 1
;BLACKBELTPROCESSED
;Generated with Creality Slicer 4.8.2-254
M140 S60
M105
M190 S60
M104 S200
M105
M109 S200
M82 ;absolute extrusion mode
G90               ; Set to Absolute Positioning
M82               ; Set extruder to absolute mode
G21               ; Metric values
G28 X Y
G92 Z0 E0   ; Set all axis to 0
;home X
G1 Y2             ; Move Y axis off the bed
G28 X0 F2000      ; Home X axis
G1 X200 Z5 F4000  ; Move X to the center
;probe Y
M908 P5 S10       ; Setting the motor current of the Y1 motor off
M908 P1 S10       ; Setting the motor current of the Y2 motor off
G1 Y20 G3000      ; Move Y up
M400              ; Wait for current moves to finish
M908 P5 S25       ; Setting the motor current of the Y1 motor very low
M908 P1 S25       ; Setting the motor current of the Y2 motor off
G1 Y0 F500        ; Move Y down into the belt
M400              ; Wait for current moves to finish
M908 P5 S140      ; Setting the motor current of the Y1 motor to normal
M908 P1 S140      ; Setting the motor current of the Y2 motor to normal
G92 Y0.4
;purge
G1 Y2             ; Move Y axis off the bed
G1 F15000         ; Set high feedrate
G1 X200 Y 1 G1 E10; Extruder 10mm material and move to the side
G1 Z10 E12 F500;add
G1 X0 E32
G1 Z20 E34
G1 X200 E54

G1 Z30 E56 F500
G1 X0 E76
G1 Z40 E78
G1 X200 E98

G1 X0 Z40.2 E120
G92 E0 Z0   
G1 E-4 F3900      ; Retract 4mm at 65mm/s
G92 E0
G92 E0
G1 F3900 E-8
;LAYER_COUNT:321
;LAYER:0
M107
;MESH:square_tube.stl
G0 F12600 X82.015 Y0.4 Z0.6
;TYPE:WALL-OUTER
G1 F3900 E0
G1 F315 X117.985 Y0.4 E5.07576
G1 X117.985 Y0.448 E5.08253
G1 X82.015 Y0.448 E5.38707
G1 X82.015 Y0.4 E5.39385
G0 F12600 X82.415 Y0.4
G1 F3900 E-2.60615
;MESH:NONMESH
G0 F600 X82.415 Y0.4 Z1.024
G0 F12600 X82.015 Y0.4
;TIME_ELAPSED:16.861612
;LAYER:1
M106 P1 S18
M106 S36.4
;TYPE:WALL-OUTER
;MESH:square_tube.stl
G1 F3900 E5.39385
G1 F600 X117.985 Y0.4 E8.98071
G1 X117.985 Y1.048 E9.04533
G1 X82.015 Y1.048 E11.95069
G1 X82.015 Y0.4 E12.01531
G0 F13650 X82.415 Y0.4
G1 F3900 E4.01531
;MESH:NONMESH
G0 F600 X82.415 Y0.4 Z1.448
G0 F13650 X82.015 Y0.4
;TIME_ELAPSED:24.615065
;LAYER:2
M106 P1 S36
M106 S72.9
;TYPE:WALL-OUTER
;MESH:square_tube.stl
G1 F3900 E12.01531
G1 F600 X117.985 Y0.4 E15.60218
G1 X117.985 Y1.648 E15.72663
G1 X82.015 Y1.648 E19.3135
G1 X82.015 Y0.4 E19.43794
G0 F14700 X82.415 Y0.4
G1 F3900 E11.43794
;MESH:NONMESH
G0 F600 X82.415 Y0.4 Z1.872
G0 F14700 X82.815 Y1.2
;TIME_ELAPSED:32.507596
;LAYER:3
M106 P1 S54
M106 S109.3
;TYPE:WALL-INNER
;MESH:square_tube.stl
G1 F3900 E19.43794
G1 F1034.2 X117.185 Y1.2 E22.86526
G1 X117.185 Y1.447 E22.88989
G1 X82.815 Y1.447 E23.94808
G1 X82.815 Y1.2 E23.97271
G1 F3900 E15.97271
G0 F15750 X82.015 Y0.4
;TYPE:WALL-OUTER
G1 F3900 E23.97271
G1 F600 ; Belt wall speed
G1 X117.985 Y0.4 E27.55957
G1 F775 ; Restored speed
G1 X117.985 Y2.247 E27.74375
G1 X82.015 Y2.247 E31.33062
G1 X82.015 Y0.4 E31.5148
G0 F15750 X82.415 Y0.4
G1 F3900 E23.5148
;MESH:NONMESH
G0 F600 X82.415 Y0.4 Z2.296
G0 F15750 X82.815 Y1.2
;TIME_ELAPSED:43.157537
;LAYER:4
M106 P1 S72
M106 S145.7
;TYPE:WALL-INNER
;MESH:square_tube.stl
G1 F3900 E31.5148
G1 F1051.2 X117.185 Y1.2 E34.94212
G1 X117.185 Y2.047 E35.02658
G1 X82.815 Y2.047 E38.4539
G1 X82.815 Y1.2 E38.53836
G1 F3900 E30.53836
G0 F15750 X82.015 Y0.4
;TYPE:WALL-OUTER
G1 F3900 E38.53836
G1 F600 ; Belt wall speed
G1 X117.985 Y0.4 E42.12523
G1 F788 ; Restored speed
G1 X117.985 Y2.847 E42.36924
G1 X82.015 Y2.847 E45.9561
G1 X82.015 Y0.4 E46.20012
G0 F15750 X82.415 Y0.4
G1 F3900 E38.20012
;MESH:NONMESH
G0 F600 X82.415 Y0.4 Z2.72
G0 F15750 X82.815 Y1.2
;TIME_ELAPSED:53.808010
;LAYER:5
M106 P1 S91
M106 S182.1
;TYPE:WALL-INNER
;MESH:square_tube.stl
G1 F3900 E46.20012
G1 F1068.2 X117.185 Y1.2 E49.62743
G1 X117.185 Y2.646 E49.77163
G1 X82.815 Y2.646 E53.19894
G1 X82.815 Y1.2 E53.34314
G1 F3900 E45.34314
G0 F15750 X82.015 Y0.4
;TYPE:WALL-OUTER
G1 F3900 E53.34314
G1 F600 ; Belt wall speed
G1 X117.985 Y0.4 E56.93
G1 F801 ; Restored speed
G1 X117.985 Y3.446 E57.23375
G1 X82.015 Y3.446 E60.82061
G1 X82.015 Y0.4 E61.12436
G0 F15750 X82.415 Y0.4
G1 F3900 E53.12436
;MESH:NONMESH
G0 F600 X82.415 Y0.4 Z3.144
G0 F15750 X82.815 Y1.2
;TIME_ELAPSED:64.459034
;LAYER:6
M106 P1 S109
M106 S218.6
;TYPE:WALL-INNER
;MESH:square_tube.stl
G1 F3900 E61.12436
G1 F1708.2 X117.185 Y1.2 E64.55167
G1 X117.185 Y3.246 E64.7557
G1 X82.815 Y3.246 E68.18301
G1 X82.815 Y1.2 E68.38704
G1 F3900 E60.38704
G0 F15750 X82.015 Y0.4
;TYPE:WALL-OUTER
G1 F3900 E68.38704
G1 F600 ; Belt wall speed
G1 X117.985 Y0.4 E71.97391
G1 F1281 ; Restored speed
G1 X117.985 Y4.046 E72.33748
G1 X82.015 Y4.046 E75.92435
G1 X82.015 Y0.4 E76.28792
G0 F15750 X82.415 Y0.4
G1 F3900 E68.28792
G0 F15750 X83.715 Y2.1
;TYPE:FILL
G1 F3900 E76.28792
G1 F1281.2 X84.475 Y2.1 E76.38265
G1 X84.629 Y2.346 E76.41883
G1 X83.715 Y2.346 E76.53276
G1 X83.715 Y2.1 E76.56342
G1 F3900 E68.56342
G0 F15750 X85.654 Y2.1
G1 F3900 E76.56342
G1 F1281.2 X89.192 Y2.1 E77.00442
G1 X89.346 Y2.346 E77.0406
G1 X85.808 Y2.346 E77.4816
G1 X85.654 Y2.1 E77.51778
G1 F3900 E69.51778
G0 F15750 X90.371 Y2.1
G1 F3900 E77.51778
G1 F1281.2 X93.908 Y2.1 E77.95866
G1 X94.062 Y2.346 E77.99484
G1 X90.525 Y2.346 E78.43572
G1 X90.371 Y2.1 E78.47189
G1 F3900 E70.47189
G0 F15750 X95.087 Y2.1
G1 F3900 E78.47189
G1 F1281.2 X98.625 Y2.1 E78.9129
G1 X98.779 Y2.346 E78.94907
G1 X95.241 Y2.346 E79.39008
G1 X95.087 Y2.1 E79.42625
G1 F3900 E71.42625
G0 F15750 X99.804 Y2.1
G1 F3900 E79.42625
G1 F1281.2 X103.342 Y2.1 E79.86726
G1 X103.495 Y2.346 E79.90337
G1 X99.958 Y2.346 E80.34425
G1 X99.804 Y2.1 E80.38042
G1 F3900 E72.38042
G0 F15750 X104.521 Y2.1
G1 F3900 E80.38042
G1 F1281.2 X108.058 Y2.1 E80.8213
G1 X108.212 Y2.346 E80.85748
G1 X104.674 Y2.346 E81.29848
G1 X104.521 Y2.1 E81.33459
G1 F3900 E73.33459
G0 F15750 X109.238 Y2.1
G1 F3900 E81.33459
G1 F1281.2 X112.775 Y2.1 E81.77547
G1 X112.929 Y2.346 E81.81165
G1 X109.391 Y2.346 E82.25265
G1 X109.238 Y2.1 E82.28876
G1 F3900 E74.28876
G0 F15750 X113.954 Y2.1
G1 F3900 E82.28876
G1 F1281.2 X116.285 Y2.1 E82.57932
G1 X116.285 Y2.346 E82.60998
G1 X114.108 Y2.346 E82.88134
G1 X113.954 Y2.1 E82.91751
G1 F3900 E74.91751
;MESH:NONMESH
G0 F600 X113.954 Y2.1 Z3.568
G0 F15750 X82.815 Y1.2
;TIME_ELAPSED:77.500605
;LAYER:7
M106 P1 S127
M106 S255
;TYPE:WALL-INNER
;MESH:square_tube.stl
G1 F3900 E82.91751
G1 F1854.1 X117.185 Y1.2 E86.34483
G1 X117.185 Y3.846 E86.60869
G1 X82.815 Y3.846 E90.03601
G1 X82.815 Y1.2 E90.29986
G1 F3900 E82.29986
G0 F15750 X82.015 Y0.4
;TYPE:WALL-OUTER
G1 F3900 E90.29986
G1 F600 ; Belt wall speed
G1 X117.985 Y0.4 E93.88673
G1 F1390 ; Restored speed
G1 X117.985 Y4.646 E94.31013
G1 X82.015 Y4.646 E97.897
G1 X82.015 Y0.4 E98.3204
G0 F15750 X82.415 Y0.4
G1 F3900 E90.3204
G0 F15750 X83.715 Y2.1
;TYPE:FILL
G1 F3900 E98.3204
G1 F1390.6 X86.043 Y2.1 E98.61058
G1 X85.514 Y2.946 E98.73495
G1 X83.715 Y2.946 E98.95919
G1 X83.715 Y2.1 E99.06465
G1 F3900 E91.06465
G0 F15750 X86.693 Y2.946
G1 F3900 E99.06465
G1 F1390.6 X87.222 Y2.1 E99.18902
G1 X90.759 Y2.1 E99.6299
G1 X90.231 Y2.946 E99.7542
G1 X86.693 Y2.946 E100.19521
G1 F3900 E92.19521
G0 F15750 X91.41 Y2.946
G1 F3900 E100.19521
G1 F1390.6 X91.938 Y2.1 E100.31951
G1 X95.477 Y2.1 E100.76064
G1 X94.948 Y2.946 E100.88501
G1 X91.41 Y2.946 E101.32601
G1 F3900 E93.32601
G0 F15750 X96.127 Y2.946
G1 F3900 E101.32601
G1 F1390.6 X96.656 Y2.1 E101.45039
G1 X100.193 Y2.1 E101.89126
G1 X99.664 Y2.946 E102.01564
G1 X96.127 Y2.946 E102.45651
G1 F3900 E94.45651
G0 F15750 X100.843 Y2.946
G1 F3900 E102.45651
G1 F1390.6 X101.372 Y2.1 E102.58089
G1 X104.91 Y2.1 E103.02189
G1 X104.382 Y2.946 E103.14619
G1 X100.843 Y2.946 E103.58732
G1 F3900 E95.58732
G0 F15750 X105.561 Y2.946
G1 F3900 E103.58732
G1 F1390.6 X106.089 Y2.1 E103.71163
G1 X109.626 Y2.1 E104.15251
G1 X109.098 Y2.946 E104.27681
G1 X105.561 Y2.946 E104.71769
G1 F3900 E96.71769
G0 F15750 X110.277 Y2.946
G1 F3900 E104.71769
G1 F1390.6 X110.805 Y2.1 E104.842
G1 X114.343 Y2.1 E105.283
G1 X113.815 Y2.946 E105.4073
G1 X110.277 Y2.946 E105.84831
G1 F3900 E97.84831
G0 F15750 X114.994 Y2.946
G1 F3900 E105.84831
G1 F1390.6 X115.522 Y2.1 E105.97261
G1 X116.285 Y2.1 E106.06772
G1 X116.285 Y2.946 E106.17317
G1 X114.994 Y2.946 E106.33409
G1 F3900 E98.33409
;MESH:NONMESH
G0 F600 X114.994 Y2.946 Z3.992
G0 F15750 X82.815 Y1.2
;TIME_ELAPSED:90.492233
;LAYER:8
;TYPE:WALL-INNER
;MESH:square_tube.stl
G1 F3900 E106.33409
G1 F1976.1 X117.185 Y1.2 E109.76141
G1 X117.185 Y4.445 E110.085
G1 X82.815 Y4.445 E113.51231
G1 X82.815 Y1.2 E113.8359
G1 F3900 E105.8359
G0 F15750 X82.015 Y0.4
;TYPE:WALL-OUTER
G1 F3900 E113.8359
G1 F600 ; Belt wall speed
G1 X117.985 Y0.4 E117.42277
G1 F1482 ; Restored speed
G1 X117.985 Y5.245 E117.9059
G1 X82.015 Y5.245 E121.49277
G1 X82.015 Y0.4 E121.9759
G0 F15750 X82.415 Y0.4
G1 F3900 E113.9759
G0 F15750 X83.715 Y2.1
;TYPE:FILL
G1 F3900 E121.9759
G1 F1482.1 X84.475 Y2.1 E122.07064
G1 X85.378 Y3.545 E122.28303
G1 X83.715 Y3.545 E122.49032
G1 X83.715 Y2.1 E122.67044
G1 F3900 E114.67044
G0 F15750 X85.654 Y2.1
G1 F3900 E122.67044
G1 F1482.1 X89.192 Y2.1 E123.11144
G1 X90.095 Y3.545 E123.32383
G1 X86.557 Y3.545 E123.76484
G1 X85.654 Y2.1 E123.97723
G1 F3900 E115.97723
G0 F15750 X90.371 Y2.1
G1 F3900 E123.97723
G1 F1482.1 X93.908 Y2.1 E124.41811
G1 X94.811 Y3.545 E124.6305
G1 X91.274 Y3.545 E125.07138
G1 X90.371 Y2.1 E125.28378
G1 F3900 E117.28378
G0 F15750 X95.087 Y2.1
G1 F3900 E125.28378
G1 F1482.1 X98.625 Y2.1 E125.72478
G1 X99.528 Y3.545 E125.93717
G1 X95.99 Y3.545 E126.37818
G1 X95.087 Y2.1 E126.59057
G1 F3900 E118.59057
G0 F15750 X99.804 Y2.1
G1 F3900 E126.59057
G1 F1482.1 X103.342 Y2.1 E127.03158
G1 X104.245 Y3.545 E127.24397
G1 X100.707 Y3.545 E127.68497
G1 X99.804 Y2.1 E127.89737
G1 F3900 E119.89737
G0 F15750 X104.521 Y2.1
G1 F3900 E127.89737
G1 F1482.1 X108.058 Y2.1 E128.33825
G1 X108.962 Y3.545 E128.55071
G1 X105.424 Y3.545 E128.99171
G1 X104.521 Y2.1 E129.2041
G1 F3900 E121.2041
G0 F15750 X109.238 Y2.1
G1 F3900 E129.2041
G1 F1482.1 X112.775 Y2.1 E129.64498
G1 X113.678 Y3.545 E129.85738
G1 X110.141 Y3.545 E130.29826
G1 X109.238 Y2.1 E130.51065
G1 F3900 E122.51065
G0 F15750 X113.954 Y2.1
G1 F3900 E130.51065
G1 F1482.1 X116.285 Y2.1 E130.8012
G1 X116.285 Y3.545 E130.98132
G1 X114.857 Y3.545 E131.15932
G1 X113.954 Y2.1 E131.37171
G1 F3900 E123.37171
;MESH:NONMESH
G0 F600 X113.954 Y2.1 Z4.416
G0 F15750 X82.815 Y1.2
;TIME_ELAPSED:103.493929
;LAYER:9
;TYPE:WALL-INNER
;MESH:square_tube.stl
G1 F3900 E131.37171
G1 F2098.4 X117.185 Y1.2 E134.79903
G1 X117.185 Y5.045 E135.18244
G1 X82.815 Y5.045 E138.60976
G1 X82.815 Y1.2 E138.99318
G1 F3900 E130.99318
G0 F15750 X82.015 Y0.4
;TYPE:WALL-OUTER
G1 F3900 E138.99318
G1 F600 ; Belt wall speed
G1 X117.985 Y0.4 E142.58005
G1 F1573 ; Restored speed
G1 X117.985 Y5.845 E143.12301
G1 X82.015 Y5.845 E146.70988
G1 X82.015 Y0.4 E147.25285
G0 F15750 X82.415 Y0.4
G1 F3900 E139.25285
G0 F15750 X83.715 Y2.1
;TYPE:FILL
G1 F3900 E147.25285
G1 F1573.8 X86.043 Y2.1 E147.54303
G1 X84.765 Y4.145 E147.84361
G1 X83.715 Y4.145 E147.97449
G1 X83.715 Y2.1 E148.2294
G1 F3900 E140.2294
G0 F15750 X85.944 Y4.145
G1 F3900 E148.2294
G1 F1573.8 X87.222 Y2.1 E148.52999
G1 X90.759 Y2.1 E148.97087
G1 X89.482 Y4.145 E149.27139
G1 X85.944 Y4.145 E149.71239
G1 F3900 E141.71239
G0 F15750 X90.661 Y4.145
G1 F3900 E149.71239
G1 F1573.8 X91.938 Y2.1 E150.01291
G1 X95.477 Y2.1 E150.45404
G1 X94.198 Y4.145 E150.7547
G1 X90.661 Y4.145 E151.19558
G1 F3900 E143.19558
G0 F15750 X95.377 Y4.145
G1 F3900 E151.19558
G1 F1573.8 X96.656 Y2.1 E151.49623
G1 X100.193 Y2.1 E151.93711
G1 X98.915 Y4.145 E152.2377
G1 X95.377 Y4.145 E152.6787
G1 F3900 E144.6787
G0 F15750 X100.094 Y4.145
G1 F3900 E152.6787
G1 F1573.8 X101.372 Y2.1 E152.97929
G1 X104.91 Y2.1 E153.42029
G1 X103.632 Y4.145 E153.72088
G1 X100.094 Y4.145 E154.16189
G1 F3900 E146.16189
G0 F15750 X104.811 Y4.145
G1 F3900 E154.16189
G1 F1573.8 X106.089 Y2.1 E154.46247
G1 X109.626 Y2.1 E154.90335
G1 X108.348 Y4.145 E155.20394
G1 X104.811 Y4.145 E155.64482
G1 F3900 E147.64482
G0 F15750 X109.527 Y4.145
G1 F3900 E155.64482
G1 F1573.8 X110.805 Y2.1 E155.94541
G1 X114.343 Y2.1 E156.38641
G1 X113.065 Y4.145 E156.687
G1 X109.527 Y4.145 E157.128
G1 F3900 E149.128
G0 F15750 X114.244 Y4.145
G1 F3900 E157.128
G1 F1573.8 X115.522 Y2.1 E157.42859
G1 X116.285 Y2.1 E157.5237
G1 X116.285 Y4.145 E157.7786
G1 X114.244 Y4.145 E158.03301
G1 F3900 E150.03301
;MESH:NONMESH
G0 F600 X114.244 Y4.145 Z4.84
G0 F15750 X82.815 Y1.2
;TIME_ELAPSED:116.559847
;LAYER:10
;TYPE:WALL-INNER
;MESH:square_tube.stl
G1 F3900 E158.03301
G1 F2219.8 X117.185 Y1.2 E161.46033
G1 X117.185 Y5.644 E161.90348
G1 X82.815 Y5.644 E165.33079
G1 X82.815 Y1.2 E165.77394
G1 F3900 E157.77394
G0 F15750 X82.015 Y0.4
;TYPE:WALL-OUTER
G1 F3900 E165.77394
G1 F600 ; Belt wall speed
G1 X117.985 Y0.4 E169.36081
G1 F1664 ; Restored speed
G1 X117.985 Y6.444 E169.96351
G1 X82.015 Y6.444 E173.55037
G1 X82.015 Y0.4 E174.15307
G0 F15750 X82.415 Y0.4
G1 F3900 E166.15307
G0 F15750 X83.715 Y2.1
;TYPE:FILL
G1 F3900 E174.15307
G1 F1664.8 X84.475 Y2.1 E174.2478
G1 X86.127 Y4.744 E174.63641
G1 X83.715 Y4.744 E174.93706
G1 X83.715 Y2.1 E175.26663
G1 F3900 E167.26663
G0 F15750 X85.654 Y2.1
G1 F3900 E175.26663
G1 F1664.8 X89.192 Y2.1 E175.70764
G1 X90.844 Y4.744 E176.09625
G1 X87.307 Y4.744 E176.53713
G1 X85.654 Y2.1 E176.9258
G1 F3900 E168.9258
G0 F15750 X90.371 Y2.1
G1 F3900 E176.9258
G1 F1664.8 X93.908 Y2.1 E177.36668
G1 X95.56 Y4.744 E177.75529
G1 X92.023 Y4.744 E178.19617
G1 X90.371 Y2.1 E178.58478
G1 F3900 E170.58478
G0 F15750 X95.087 Y2.1
G1 F3900 E178.58478
G1 F1664.8 X98.625 Y2.1 E179.02579
G1 X100.277 Y4.744 E179.4144
G1 X96.74 Y4.744 E179.85528
G1 X95.087 Y2.1 E180.24395
G1 F3900 E172.24395
G0 F15750 X99.804 Y2.1
G1 F3900 E180.24395
G1 F1664.8 X103.342 Y2.1 E180.68496
G1 X104.994 Y4.744 E181.07357
G1 X101.456 Y4.744 E181.51457
G1 X99.804 Y2.1 E181.90318
G1 F3900 E173.90318
G0 F15750 X104.521 Y2.1
G1 F3900 E181.90318
G1 F1664.8 X108.058 Y2.1 E182.34406
G1 X109.71 Y4.744 E182.73267
G1 X106.173 Y4.744 E183.17355
G1 X104.521 Y2.1 E183.56216
G1 F3900 E175.56216
G0 F15750 X109.237 Y2.1
G1 F3900 E183.56216
G1 F1664.8 X112.775 Y2.1 E184.00317
G1 X114.427 Y4.744 E184.39178
G1 X110.89 Y4.744 E184.83266
G1 X109.237 Y2.1 E185.22133
