;FLAVOR:Marlin
;TIME:2902
;Filament used: 2.84459m
;Layer height: 0.16
;MINX:58.159
;MINY:40.824
;MINZ:0.2
;MAXX:176.841
;MAXY:159.509
;MAXZ:36.6
;Generated with Cura_SteamEngine 4.13.0
M140 S60
M105
M190 S60
M104 S200
M105
M109 S200
M82 ;absolute extrusion mode
; Script based on an original created by tjjfvi (https://github.com/tjjfvi)
; An up-to-date version of the tjjfvi's original script can be found
; here:  https://csi.t6.fyi/
; Note - This script will only work in Cura V4.2 and above!
; --- Global Settings
; layer_height = 0.16
; smooth_spiralized_contours = True
; magic_mesh_surface_mode = normal
; machine_extruder_count = 1
; --- Single Extruder Settings
; speed_z_hop = 5
; retraction_amount = 3
; retraction_hop = 0.2
; retraction_hop_enabled = False
; retraction_enable = True
; retraction_speed = 45
; retraction_retract_speed = 45
; retraction_prime_speed = 45
; speed_travel = 150.0
G92 E0
G92 E0
G1 F2700 E-3
;LAYER_COUNT:184
;LAYER:0
M107
G0 F6000 X61.611 Y69.789 Z0.2
;TYPE:SKIRT
G1 F2700 E0
G1 F1200 X86.993 Y44.408 E1.19387
G1 X87.474 Y43.94 E1.21619
G1 X88.174 Y43.315 E1.2474
G1 X88.924 Y42.752 E1.27859
G1 X89.719 Y42.255 E1.30978
G1 X90.554 Y41.828 E1.34097
G1 X91.422 Y41.473 E1.37216
G1 X92.317 Y41.194 E1.40334
G1 X93.233 Y40.991 E1.43455
G1 X94.163 Y40.868 E1.46575
G1 X95.1 Y40.824 E1.49695
G1 X96.037 Y40.86 E1.52813
G1 X96.968 Y40.976 E1.55934
G1 X97.885 Y41.171 E1.59052
G1 X98.783 Y41.443 E1.62173
G1 X99.654 Y41.79 E1.65291
G1 X100.492 Y42.211 E1.6841
G1 X101.291 Y42.701 E1.71528
G1 X102.046 Y43.258 E1.74648
G1 X102.7 Y43.829 E1.77536
G1 X102.936 Y44.052 E1.78616
G1 X103.159 Y44.269 E1.79651
G1 X173.205 Y114.317 E5.0913
G1 X173.716 Y114.841 E5.11565
G1 X174.342 Y115.54 E5.14686
G1 X174.906 Y116.289 E5.17804
G1 X175.403 Y117.084 E5.20923
G1 X175.832 Y117.919 E5.24045
G1 X176.188 Y118.786 E5.27162
G1 X176.468 Y119.681 E5.30281
G1 X176.671 Y120.597 E5.33402
G1 X176.796 Y121.526 E5.36519
G1 X176.841 Y122.463 E5.39639
G1 X176.806 Y123.4 E5.42758
G1 X176.691 Y124.331 E5.45878
G1 X176.497 Y125.249 E5.48999
G1 X176.226 Y126.147 E5.52119
G1 X175.88 Y127.018 E5.55236
G1 X175.46 Y127.857 E5.58357
G1 X174.971 Y128.657 E5.61475
G1 X174.415 Y129.412 E5.64594
G1 X173.861 Y130.05 E5.67404
G1 X173.631 Y130.295 E5.68522
G1 X173.389 Y130.544 E5.69677
G1 X148.017 Y155.915 E6.89016
G1 X147.528 Y156.391 E6.91286
G1 X146.828 Y157.016 E6.94407
G1 X146.078 Y157.579 E6.97526
G1 X145.283 Y158.076 E7.00645
G1 X144.448 Y158.504 E7.03766
G1 X143.58 Y158.859 E7.06885
G1 X142.685 Y159.139 E7.10004
G1 X141.769 Y159.341 E7.13124
G1 X140.84 Y159.465 E7.16241
G1 X139.903 Y159.509 E7.19361
G1 X138.966 Y159.473 E7.22479
G1 X138.035 Y159.357 E7.256
G1 X137.117 Y159.163 E7.28721
G1 X136.22 Y158.891 E7.31838
G1 X135.349 Y158.544 E7.34957
G1 X134.51 Y158.123 E7.38079
G1 X133.711 Y157.633 E7.41196
G1 X132.956 Y157.076 E7.44317
G1 X132.248 Y156.455 E7.47449
G1 X131.967 Y156.186 E7.48743
G1 X131.796 Y156.018 E7.4954
G1 X61.783 Y86.003 E10.78865
G1 X61.282 Y85.489 E10.81252
G1 X60.656 Y84.79 E10.84373
G1 X60.093 Y84.04 E10.87492
G1 X59.595 Y83.245 E10.90612
G1 X59.167 Y82.411 E10.9373
G1 X58.811 Y81.543 E10.9685
G1 X58.531 Y80.648 E10.99969
G1 X58.328 Y79.733 E11.03087
G1 X58.204 Y78.803 E11.06207
G1 X58.159 Y77.866 E11.09327
G1 X58.194 Y76.929 E11.12446
G1 X58.309 Y75.998 E11.15566
G1 X58.503 Y75.08 E11.18687
G1 X58.775 Y74.183 E11.21804
G1 X59.121 Y73.311 E11.24925
G1 X59.541 Y72.473 E11.28042
G1 X60.031 Y71.673 E11.31162
G1 X60.587 Y70.918 E11.34281
G1 X61.155 Y70.266 E11.37157
G1 X61.385 Y70.022 E11.38272
G1 X61.611 Y69.789 E11.39352
G0 F6000 X61.894 Y70.072
G1 F1200 X87.272 Y44.695 E12.5872
G1 X87.753 Y44.227 E12.60952
G1 X88.44 Y43.614 E12.64014
G1 X89.178 Y43.063 E12.67078
G1 X89.961 Y42.578 E12.70141
G1 X90.782 Y42.163 E12.73201
G1 X91.637 Y41.821 E12.76264
G1 X92.518 Y41.555 E12.79324
G1 X93.419 Y41.365 E12.82387
G1 X94.333 Y41.255 E12.85449
G1 X95.253 Y41.225 E12.88511
G1 X96.173 Y41.274 E12.91575
G1 X97.084 Y41.403 E12.94635
G1 X97.981 Y41.611 E12.97698
G1 X98.857 Y41.895 E13.0076
G1 X99.704 Y42.255 E13.03822
G1 X100.518 Y42.686 E13.06885
G1 X101.29 Y43.187 E13.09946
G1 X102.016 Y43.753 E13.13008
G1 X102.425 Y44.119 E13.14833
G1 X102.661 Y44.342 E13.15913
G1 X102.876 Y44.552 E13.16913
G1 X172.919 Y114.596 E16.46376
G1 X173.43 Y115.12 E16.4881
G1 X174.043 Y115.807 E16.51873
G1 X174.595 Y116.544 E16.54935
G1 X175.081 Y117.326 E16.57998
G1 X175.497 Y118.147 E16.61059
G1 X175.84 Y119.002 E16.64123
G1 X176.107 Y119.883 E16.67185
G1 X176.298 Y120.783 E16.70245
G1 X176.409 Y121.697 E16.73307
G1 X176.441 Y122.617 E16.76369
G1 X176.392 Y123.537 E16.79433
G1 X176.264 Y124.448 E16.82493
G1 X176.058 Y125.346 E16.85557
G1 X175.774 Y126.222 E16.8862
G1 X175.416 Y127.069 E16.91678
G1 X174.985 Y127.883 E16.94742
G1 X174.485 Y128.656 E16.97804
G1 X173.92 Y129.383 E17.00866
G1 X173.569 Y129.776 E17.02619
G1 X173.339 Y130.021 E17.03737
G1 X173.106 Y130.261 E17.04849
G1 X147.738 Y155.629 E18.24172
G1 X147.249 Y156.105 E18.26442
G1 X146.562 Y156.718 E18.29504
G1 X145.824 Y157.269 E18.32568
G1 X145.042 Y157.753 E18.35627
G1 X144.22 Y158.169 E18.38691
G1 X143.365 Y158.511 E18.41754
G1 X142.484 Y158.778 E18.44815
G1 X141.583 Y158.967 E18.47877
G1 X140.669 Y159.078 E18.5094
G1 X139.749 Y159.108 E18.54001
G1 X138.83 Y159.059 E18.57062
G1 X137.918 Y158.931 E18.60125
G1 X137.021 Y158.723 E18.63188
G1 X136.145 Y158.439 E18.66251
G1 X135.298 Y158.079 E18.69312
G1 X134.485 Y157.648 E18.72372
G1 X133.712 Y157.147 E18.75436
G1 X132.985 Y156.582 E18.78498
G1 X132.525 Y156.166 E18.80561
G1 X132.244 Y155.897 E18.81855
G1 X132.079 Y155.735 E18.82624
G1 X62.069 Y85.724 E22.11932
G1 X61.568 Y85.21 E22.14319
G1 X60.955 Y84.523 E22.17382
G1 X60.403 Y83.786 E22.20444
G1 X59.918 Y83.004 E22.23505
G1 X59.502 Y82.182 E22.26569
G1 X59.159 Y81.328 E22.2963
G1 X58.892 Y80.447 E22.32692
G1 X58.702 Y79.546 E22.35754
G1 X58.591 Y78.632 E22.38817
G1 X58.559 Y77.712 E22.41879
G1 X58.608 Y76.793 E22.44939
G1 X58.736 Y75.881 E22.48003
G1 X58.943 Y74.984 E22.51064
G1 X59.227 Y74.108 E22.54127
G1 X59.586 Y73.26 E22.5719
G1 X60.017 Y72.447 E22.60251
G1 X60.517 Y71.674 E22.63313
G1 X61.082 Y70.947 E22.66375
G1 X61.446 Y70.54 E22.68191
G1 X61.676 Y70.296 E22.69306
G1 X61.894 Y70.072 E22.70346
G0 F6000 X62.177 Y70.355
G1 F1200 X87.551 Y44.981 E23.89697
G1 X88.032 Y44.513 E23.9193
G1 X88.707 Y43.913 E23.94933
G1 X89.432 Y43.374 E23.97938
G1 X90.201 Y42.902 E24.00939
G1 X91.01 Y42.5 E24.03944
G1 X91.851 Y42.171 E24.06947
G1 X92.718 Y41.917 E24.09952
G1 X93.603 Y41.741 E24.12953
G1 X94.501 Y41.644 E24.15958
G1 X95.404 Y41.627 E24.18961
G1 X96.305 Y41.69 E24.21965
G1 X97.197 Y41.833 E24.2497
G1 X98.073 Y42.053 E24.27974
G1 X98.925 Y42.35 E24.30975
G1 X99.749 Y42.722 E24.33982
G1 X100.536 Y43.165 E24.36986
G1 X101.28 Y43.676 E24.39988
G1 X102.15 Y44.41 E24.43774
G1 X102.386 Y44.633 E24.44854
G1 X102.594 Y44.835 E24.45818
G1 X172.633 Y114.876 E27.75265
G1 X173.144 Y115.4 E27.77699
G1 X173.745 Y116.074 E27.80703
G1 X174.284 Y116.798 E27.83705
G1 X174.757 Y117.567 E27.86708
G1 X175.16 Y118.375 E27.89711
G1 X175.491 Y119.216 E27.92717
G1 X175.745 Y120.082 E27.95718
G1 X175.922 Y120.968 E27.98724
G1 X176.02 Y121.866 E28.01728
G1 X176.038 Y122.769 E28.04732
G1 X175.976 Y123.67 E28.07736
G1 X175.835 Y124.562 E28.10739
G1 X175.615 Y125.438 E28.13744
G1 X175.319 Y126.291 E28.16747
G1 X174.948 Y127.114 E28.19749
G1 X174.506 Y127.902 E28.22754
G1 X173.996 Y128.647 E28.25757
G1 X173.278 Y129.502 E28.29471
G1 X173.048 Y129.747 E28.30588
G1 X172.823 Y129.978 E28.31661
G1 X147.459 Y155.342 E29.50965
G1 X146.97 Y155.818 E29.53235
G1 X146.295 Y156.419 E29.56241
G1 X145.57 Y156.957 E29.59244
G1 X144.801 Y157.43 E29.62247
G1 X143.992 Y157.832 E29.65251
G1 X143.151 Y158.162 E29.68256
G1 X142.285 Y158.415 E29.71257
G1 X141.399 Y158.591 E29.74261
G1 X140.501 Y158.689 E29.77266
G1 X139.598 Y158.706 E29.8027
G1 X138.697 Y158.643 E29.83274
G1 X137.805 Y158.501 E29.86278
G1 X136.93 Y158.28 E29.89279
G1 X136.077 Y157.983 E29.92284
G1 X135.253 Y157.612 E29.95289
G1 X134.466 Y157.169 E29.98293
G1 X133.721 Y156.659 E30.01296
G1 X132.802 Y155.877 E30.05309
G1 X132.361 Y155.452 E30.07346
G1 X62.356 Y85.445 E33.36633
G1 X61.855 Y84.931 E33.3902
G1 X61.254 Y84.257 E33.42024
G1 X60.714 Y83.532 E33.45031
G1 X60.242 Y82.763 E33.48032
G1 X59.839 Y81.954 E33.51038
G1 X59.509 Y81.114 E33.5404
G1 X59.254 Y80.247 E33.57045
G1 X59.078 Y79.362 E33.60047
G1 X58.98 Y78.464 E33.63051
G1 X58.962 Y77.561 E33.66055
G1 X59.024 Y76.66 E33.69059
G1 X59.166 Y75.768 E33.72063
G1 X59.386 Y74.892 E33.75067
G1 X59.682 Y74.039 E33.7807
G1 X60.053 Y73.215 E33.81076
G1 X60.495 Y72.428 E33.84078
G1 X61.005 Y71.683 E33.87081
G1 X61.737 Y70.815 E33.90857
G1 X61.967 Y70.571 E33.91973
G1 X62.177 Y70.355 E33.92975
G1 F2700 E30.92975
;MESH:square_tube.stl
G0 F6000 X68.919 Y77.097
G0 X69.474 Y77.652
G0 X78.485 Y68.753
G1 F2700 E33.92975
G0 F6000 X78.4 Y68.667
;TYPE:FILL
G1 F1200 X78.417 Y68.685 E33.93057
G1 X79.128 Y69.89 E33.9771
G1 X79.469 Y71.095 E34.01876
G1 X79.534 Y72.3 E34.05889
G1 X79.356 Y73.505 E34.09941
G1 X78.897 Y74.71 E34.14229
G1 X78.071 Y75.915 E34.19088
G1 X76.92 Y77.12 E34.24631
G1 X75.824 Y78.325 E34.30048
G1 X75.113 Y79.53 E34.34702
G1 X74.772 Y80.735 E34.38867
G1 X74.707 Y81.94 E34.42881
G1 X74.885 Y83.145 E34.46932
G1 X75.067 Y83.622 E34.4863
G0 F6000 X75.153 Y83.537
G0 X87.468 Y95.852
G0 X87.382 Y95.937
G1 F1200 X88.057 Y95.195 E34.51967
G1 X88.768 Y93.99 E34.5662
G1 X89.109 Y92.785 E34.60785
G1 X89.174 Y91.58 E34.64799
G1 X88.996 Y90.375 E34.6885
G1 X88.537 Y89.17 E34.73139
G1 X87.711 Y87.965 E34.77998
G1 X86.56 Y86.76 E34.83541
G1 X85.464 Y85.555 E34.88958
G1 X84.753 Y84.35 E34.93612
G1 X84.412 Y83.145 E34.97777
G1 X84.347 Y81.94 E35.01791
G1 X84.525 Y80.735 E35.05842
G1 X84.984 Y79.53 E35.10131
G1 X85.81 Y78.325 E35.1499
G1 X86.961 Y77.12 E35.20532
G1 X88.057 Y75.915 E35.2595
G1 X88.768 Y74.71 E35.30603
G1 X89.109 Y73.505 E35.34769
G1 X89.174 Y72.3 E35.38782
G1 X88.996 Y71.095 E35.42834
G1 X88.537 Y69.89 E35.47122
G1 X87.711 Y68.685 E35.51981
G1 X86.56 Y67.48 E35.57524
G1 X85.464 Y66.275 E35.62942
G1 X84.753 Y65.07 E35.67595
G1 X84.412 Y63.865 E35.7176
G1 X84.35 Y62.717 E35.75584
G0 F6000 X84.435 Y62.803
G0 X98.222 Y55.17
G0 X98.308 Y55.085
G1 F1200 X98.177 Y55.43 E35.76811
G1 X97.351 Y56.635 E35.81671
G1 X96.2 Y57.84 E35.87213
G1 X95.104 Y59.045 E35.92631
G1 X94.393 Y60.25 E35.97284
G1 X94.052 Y61.455 E36.01449
G1 X93.987 Y62.66 E36.05463
G1 X94.165 Y63.865 E36.09514
G1 X94.624 Y65.07 E36.13803
G1 X95.45 Y66.275 E36.18662
G1 X96.601 Y67.48 E36.24205
G1 X97.697 Y68.685 E36.29622
G1 X98.408 Y69.89 E36.34276
G1 X98.749 Y71.095 E36.38441
G1 X98.814 Y72.3 E36.42455
G1 X98.636 Y73.505 E36.46506
G1 X98.177 Y74.71 E36.50795
G1 X97.351 Y75.915 E36.55654
G1 X96.2 Y77.12 E36.61196
G1 X95.104 Y78.325 E36.66614
G1 X94.393 Y79.53 E36.71267
G1 X94.052 Y80.735 E36.75433
G1 X93.987 Y81.94 E36.79446
G1 X94.165 Y83.145 E36.83498
G1 X94.624 Y84.35 E36.87786
G1 X95.45 Y85.555 E36.92645
G1 X96.601 Y86.76 E36.98188
G1 X97.697 Y87.965 E37.03606
G1 X98.408 Y89.17 E37.08259
G1 X98.749 Y90.375 E37.12424
G1 X98.814 Y91.58 E37.16438
G1 X98.636 Y92.785 E37.20489
G1 X98.177 Y93.99 E37.24778
G1 X97.351 Y95.195 E37.29637
G1 X96.2 Y96.4 E37.35179
G1 X95.104 Y97.605 E37.40597
G1 X94.393 Y98.81 E37.45251
G1 X94.052 Y100.015 E37.49416
G1 X93.987 Y101.22 E37.5343
G1 X94.165 Y102.425 E37.57481
G1 X94.347 Y102.902 E37.59179
G0 F6000 X94.433 Y102.817
G0 X106.748 Y115.132
G0 X106.662 Y115.217
G1 F1200 X107.337 Y114.475 E37.62515
G1 X108.048 Y113.27 E37.67169
G1 X108.389 Y112.065 E37.71334
G1 X108.454 Y110.86 E37.75348
G1 X108.276 Y109.655 E37.79399
G1 X107.817 Y108.45 E37.83688
G1 X106.991 Y107.245 E37.88547
G1 X105.84 Y106.04 E37.94089
G1 X104.744 Y104.835 E37.99507
G1 X104.033 Y103.63 E38.0416
G1 X103.692 Y102.425 E38.08326
G1 X103.627 Y101.22 E38.12339
G1 X103.805 Y100.015 E38.16391
G1 X104.264 Y98.81 E38.20679
G1 X105.09 Y97.605 E38.25538
G1 X106.241 Y96.4 E38.31081
G1 X107.337 Y95.195 E38.36499
G1 X108.048 Y93.99 E38.41152
G1 X108.389 Y92.785 E38.45317
G1 X108.454 Y91.58 E38.49331
G1 X108.276 Y90.375 E38.53382
G1 X107.817 Y89.17 E38.57671
G1 X106.991 Y87.965 E38.6253
G1 X105.84 Y86.76 E38.68073
G1 X104.744 Y85.555 E38.7349
G1 X104.033 Y84.35 E38.78144
G1 X103.692 Y83.145 E38.82309
G1 X103.627 Y81.94 E38.86323
G1 X103.805 Y80.735 E38.90374
G1 X104.264 Y79.53 E38.94663
G1 X105.09 Y78.325 E38.99522
G1 X106.241 Y77.12 E39.05064
G1 X107.337 Y75.915 E39.10482
G1 X108.048 Y74.71 E39.15135
G1 X108.389 Y73.505 E39.19301
G1 X108.454 Y72.3 E39.23314
G1 X108.276 Y71.095 E39.27366
G1 X107.817 Y69.89 E39.31654
G1 X106.991 Y68.685 E39.36513
G1 X105.84 Y67.48 E39.42056
G1 X104.744 Y66.275 E39.47473
G1 X104.033 Y65.07 E39.52127
G1 X103.692 Y63.865 E39.56292
G1 X103.627 Y62.66 E39.60306
G1 X103.805 Y61.455 E39.64357
G1 X104.046 Y60.823 E39.66607
G0 F6000 X103.96 Y60.908
G0 X117.502 Y74.451
G0 X117.588 Y74.366
G1 F1200 X117.457 Y74.71 E39.67831
G1 X116.631 Y75.915 E39.7269
G1 X115.48 Y77.12 E39.78233
G1 X114.384 Y78.325 E39.8365
G1 X113.673 Y79.53 E39.88304
G1 X113.332 Y80.735 E39.92469
G1 X113.267 Y81.94 E39.96483
G1 X113.445 Y83.145 E40.00534
G1 X113.904 Y84.35 E40.04823
G1 X114.73 Y85.555 E40.09682
G1 X115.881 Y86.76 E40.15224
G1 X116.977 Y87.965 E40.20642
G1 X117.688 Y89.17 E40.25295
G1 X118.029 Y90.375 E40.29461
G1 X118.094 Y91.58 E40.33474
G1 X117.916 Y92.785 E40.37526
G1 X117.457 Y93.99 E40.41814
G1 X116.631 Y95.195 E40.46674
G1 X115.48 Y96.4 E40.52216
G1 X114.384 Y97.605 E40.57634
G1 X113.673 Y98.81 E40.62287
G1 X113.332 Y100.015 E40.66452
G1 X113.267 Y101.22 E40.70466
G1 X113.445 Y102.425 E40.74517
G1 X113.904 Y103.63 E40.78806
G1 X114.73 Y104.835 E40.83665
G1 X115.881 Y106.04 E40.89208
G1 X116.977 Y107.245 E40.94625
G1 X117.688 Y108.45 E40.99279
G1 X118.029 Y109.655 E41.03444
G1 X118.094 Y110.86 E41.07458
G1 X117.916 Y112.065 E41.11509
G1 X117.457 Y113.27 E41.15798
G1 X116.631 Y114.475 E41.20657
G1 X115.48 Y115.68 E41.26199
G1 X114.384 Y116.885 E41.31617
G1 X113.673 Y118.09 E41.3627
G1 X113.332 Y119.295 E41.40436
G1 X113.267 Y120.5 E41.44449
G1 X113.445 Y121.705 E41.48501
G1 X113.627 Y122.183 E41.50202
G0 F6000 X113.713 Y122.098
G0 X126.028 Y134.412
G0 X125.942 Y134.497
G1 F1200 X126.617 Y133.755 E41.53538
G1 X127.328 Y132.55 E41.58192
G1 X127.669 Y131.345 E41.62357
G1 X127.734 Y130.14 E41.6637
G1 X127.556 Y128.935 E41.70422
G1 X127.097 Y127.73 E41.74711
G1 X126.271 Y126.525 E41.7957
G1 X125.12 Y125.32 E41.85112
G1 X124.024 Y124.115 E41.9053
G1 X123.313 Y122.91 E41.95183
G1 X122.972 Y121.705 E41.99348
G1 X122.907 Y120.5 E42.03362
G1 X123.085 Y119.295 E42.07413
G1 X123.544 Y118.09 E42.11702
G1 X124.37 Y116.885 E42.16561
G1 X125.521 Y115.68 E42.22104
G1 X126.617 Y114.475 E42.27521
G1 X127.328 Y113.27 E42.32175
G1 X127.669 Y112.065 E42.3634
G1 X127.734 Y110.86 E42.40354
G1 X127.556 Y109.655 E42.44405
G1 X127.097 Y108.45 E42.48694
G1 X126.271 Y107.245 E42.53553
G1 X125.12 Y106.04 E42.59095
G1 X124.024 Y104.835 E42.64513
G1 X123.313 Y103.63 E42.69166
G1 X122.972 Y102.425 E42.73332
G1 X122.907 Y101.22 E42.77345
G1 X123.085 Y100.015 E42.81397
G1 X123.544 Y98.81 E42.85685
G1 X124.37 Y97.605 E42.90545
G1 X125.521 Y96.4 E42.96087
G1 X126.617 Y95.195 E43.01505
G1 X127.328 Y93.99 E43.06158
G1 X127.669 Y92.785 E43.10323
G1 X127.734 Y91.58 E43.14337
G1 X127.556 Y90.375 E43.18388
G1 X127.097 Y89.17 E43.22677
G1 X126.271 Y87.965 E43.27536
G1 X125.12 Y86.76 E43.33079
G1 X124.024 Y85.555 E43.38496
G1 X123.313 Y84.35 E43.4315
G1 X122.972 Y83.145 E43.47315
G1 X122.907 Y81.94 E43.51329
G1 X123.085 Y80.735 E43.5538
G1 X123.326 Y80.103 E43.5763
G0 F6000 X123.24 Y80.188
G0 X136.782 Y93.731
G0 X136.868 Y93.646
G1 F1200 X136.737 Y93.99 E43.58854
G1 X135.911 Y95.195 E43.63713
G1 X134.76 Y96.4 E43.69255
G1 X133.664 Y97.605 E43.74673
G1 X132.953 Y98.81 E43.79327
G1 X132.612 Y100.015 E43.83492
G1 X132.547 Y101.22 E43.87506
G1 X132.725 Y102.425 E43.91557
G1 X133.184 Y103.63 E43.95846
G1 X134.01 Y104.835 E44.00705
G1 X135.161 Y106.04 E44.06247
G1 X136.257 Y107.245 E44.11665
