;FLAVOR:Marlin
;TIME:8475
;Filament used: 5.95586m
;Layer height: 0.16
;MINX:87.45
;MINY:51.903
;MINZ:0.2
;MAXX:147.55
;MAXY:151.628
;MAXZ:29.8
;Generated with Cura_SteamEngine 4.13.0
M140 S60
M105
M190 S60
M104 S200
M105
M109 S200
M82 ;absolute extrusion mode
; Script based on an original created by tjjfvi (https://github.com/tjjfvi)
; An up-to-date version of the tjjfvi's original script can be found
; here:  https://csi.t6.fyi/
; Note - This script will only work in Cura V4.2 and above!
; --- Global Settings
; layer_height = 0.16
; smooth_spiralized_contours = True
; magic_mesh_surface_mode = normal
; machine_extruder_count = 1
; --- Single Extruder Settings
; speed_z_hop = 5
; retraction_amount = 3
; retraction_hop = 0.2
; retraction_hop_enabled = False
; retraction_enable = True
; retraction_speed = 45
; retraction_retract_speed = 45
; retraction_prime_speed = 45
; speed_travel = 150.0
G92 E0
G92 E0
G1 F2700 E-3
;LAYER_COUNT:150
;LAYER:0
M107
G0 F6000 X89.446 Y56.606 Z0.2
;TYPE:SKIRT
G1 F2700 E0
G1 F1200 X90.016 Y55.861 E0.0312
G1 X90.648 Y55.167 E0.06242
G1 X91.336 Y54.53 E0.0936
G1 X92.076 Y53.954 E0.12479
G1 X92.862 Y53.442 E0.15599
G1 X93.689 Y53 E0.18718
G1 X94.551 Y52.63 E0.21838
G1 X95.441 Y52.334 E0.24958
G1 X96.353 Y52.116 E0.28077
G1 X97.28 Y51.975 E0.31195
G1 X98.151 Y51.916 E0.34099
G1 X98.472 Y51.907 E0.35167
G1 X98.78 Y51.903 E0.36191
G1 X135.843 Y51.903 E1.59463
G1 X136.699 Y51.914 E1.62311
G1 X137.635 Y51.968 E1.65429
G1 X138.563 Y52.1 E1.68547
G1 X139.477 Y52.312 E1.71667
G1 X140.369 Y52.601 E1.74786
G1 X141.234 Y52.964 E1.77906
G1 X142.064 Y53.4 E1.81024
G1 X142.855 Y53.905 E1.84146
G1 X143.599 Y54.476 E1.87265
G1 X144.292 Y55.108 E1.90384
G1 X144.929 Y55.796 E1.93503
G1 X145.504 Y56.537 E1.96623
G1 X146.015 Y57.323 E1.99741
G1 X146.457 Y58.151 E2.02862
G1 X146.826 Y59.013 E2.05981
G1 X147.121 Y59.903 E2.091
G1 X147.339 Y60.815 E2.12218
G1 X147.479 Y61.743 E2.1534
G1 X147.537 Y62.604 E2.1821
G1 X147.546 Y62.924 E2.19275
G1 X147.55 Y63.233 E2.20303
G1 X147.549 Y81.38 E2.8066
G1 X147.539 Y82.1 E2.83055
G1 X147.486 Y83.036 E2.86173
G1 X147.354 Y83.96 E2.89277
G1 X147.103 Y85.302 E2.93818
G1 X147.076 Y85.438 E2.94279
G1 X146.647 Y87.934 E3.02703
G1 X146.29 Y90.429 E3.11086
G1 X146.004 Y92.926 E3.19445
G1 X145.787 Y95.456 E3.27891
G1 X145.644 Y97.959 E3.36229
G1 X145.572 Y100.456 E3.44538
G1 X145.57 Y102.981 E3.52936
G1 X145.64 Y105.503 E3.61328
G1 X145.781 Y108.021 E3.69716
G1 X145.993 Y110.532 E3.78097
G1 X146.274 Y113.02 E3.86425
G1 X146.627 Y115.509 E3.94786
G1 X147.06 Y118.051 E4.03362
G1 X147.339 Y119.491 E4.08241
G1 X147.478 Y120.419 E4.11362
G1 X147.535 Y121.245 E4.14116
G1 X147.545 Y121.57 E4.15197
G1 X147.55 Y121.908 E4.16322
G1 X147.549 Y140.028 E4.76589
G1 X147.54 Y140.755 E4.79007
G1 X147.489 Y141.692 E4.82128
G1 X147.357 Y142.62 E4.85246
G1 X147.148 Y143.534 E4.88364
G1 X146.861 Y144.427 E4.91484
G1 X146.499 Y145.293 E4.94606
G1 X146.065 Y146.124 E4.97724
G1 X145.561 Y146.915 E5.00844
G1 X144.992 Y147.66 E5.03961
G1 X144.361 Y148.355 E5.07084
G1 X143.674 Y148.993 E5.10202
G1 X142.935 Y149.57 E5.1332
G1 X142.149 Y150.082 E5.1644
G1 X141.323 Y150.525 E5.19558
G1 X140.461 Y150.897 E5.2268
G1 X139.572 Y151.193 E5.25797
G1 X138.66 Y151.413 E5.28917
G1 X137.733 Y151.554 E5.32036
G1 X136.849 Y151.615 E5.34983
G1 X136.528 Y151.624 E5.36051
G1 X136.22 Y151.628 E5.37076
G1 X99.015 Y151.627 E6.6082
G1 X98.317 Y151.618 E6.63142
G1 X97.381 Y151.566 E6.6626
G1 X96.452 Y151.434 E6.69381
G1 X95.538 Y151.224 E6.725
G1 X94.645 Y150.937 E6.75619
G1 X93.78 Y150.574 E6.7874
G1 X92.949 Y150.14 E6.81858
G1 X92.158 Y149.636 E6.84977
G1 X91.413 Y149.066 E6.88097
G1 X90.719 Y148.435 E6.91217
G1 X90.082 Y147.748 E6.94333
G1 X89.505 Y147.008 E6.97454
G1 X88.993 Y146.222 E7.00574
G1 X88.55 Y145.395 E7.03694
G1 X88.179 Y144.534 E7.06813
G1 X87.883 Y143.644 E7.09932
G1 X87.664 Y142.732 E7.13052
G1 X87.523 Y141.805 E7.1617
G1 X87.463 Y140.916 E7.19134
G1 X87.454 Y140.583 E7.20242
G1 X87.45 Y140.286 E7.2123
G1 X87.451 Y122.114 E7.8167
G1 X87.462 Y121.408 E7.84019
G1 X87.517 Y120.471 E7.8714
G1 X87.647 Y119.567 E7.90178
G1 X87.897 Y118.229 E7.94705
G1 X87.924 Y118.093 E7.95166
G1 X88.353 Y115.597 E8.0359
G1 X88.71 Y113.102 E8.11973
G1 X88.996 Y110.605 E8.20332
G1 X89.213 Y108.075 E8.28778
G1 X89.356 Y105.572 E8.37116
G1 X89.428 Y103.075 E8.45425
G1 X89.43 Y100.55 E8.53823
G1 X89.36 Y98.028 E8.62215
G1 X89.219 Y95.507 E8.70613
G1 X89.008 Y93.001 E8.78977
G1 X88.726 Y90.511 E8.87312
G1 X88.374 Y88.027 E8.95656
G1 X87.939 Y85.473 E9.04273
G1 X87.66 Y84.035 E9.09145
G1 X87.521 Y83.107 E9.12266
G1 X87.463 Y82.252 E9.15116
G1 X87.454 Y81.932 E9.16181
G1 X87.45 Y81.623 E9.17209
G1 X87.451 Y63.428 E9.77726
G1 X87.46 Y62.763 E9.79938
G1 X87.513 Y61.827 E9.83056
G1 X87.645 Y60.898 E9.86177
G1 X87.856 Y59.984 E9.89297
G1 X88.144 Y59.092 E9.92414
G1 X88.507 Y58.227 E9.95534
G1 X88.942 Y57.396 E9.98654
G1 X89.446 Y56.606 E10.01771
G0 F6000 X89.842 Y56.738
G1 F1200 X90.411 Y56.014 E10.04834
G1 X91.039 Y55.342 E10.07893
G1 X91.724 Y54.726 E10.10957
G1 X92.46 Y54.173 E10.14019
G1 X93.241 Y53.685 E10.17082
G1 X94.061 Y53.267 E10.20143
G1 X94.915 Y52.922 E10.23206
G1 X95.795 Y52.652 E10.26268
G1 X96.695 Y52.46 E10.29329
G1 X97.609 Y52.346 E10.32392
G1 X98.162 Y52.316 E10.34234
G1 X98.483 Y52.307 E10.35302
G1 X98.78 Y52.303 E10.3629
G1 X135.843 Y52.303 E11.59562
G1 X136.693 Y52.314 E11.6239
G1 X137.612 Y52.367 E11.65451
G1 X138.523 Y52.5 E11.68513
G1 X139.419 Y52.711 E11.71575
G1 X140.293 Y52.999 E11.74636
G1 X141.14 Y53.362 E11.77701
G1 X141.951 Y53.797 E11.80762
G1 X142.721 Y54.301 E11.83822
G1 X143.445 Y54.87 E11.86885
G1 X144.117 Y55.5 E11.89949
G1 X144.732 Y56.185 E11.93011
G1 X145.285 Y56.921 E11.96073
G1 X145.772 Y57.702 E11.99134
G1 X146.189 Y58.523 E12.02197
G1 X146.534 Y59.377 E12.0526
G1 X146.803 Y60.257 E12.08321
G1 X146.995 Y61.158 E12.11385
G1 X147.108 Y62.071 E12.14444
G1 X147.137 Y62.615 E12.16256
G1 X147.146 Y62.935 E12.17321
G1 X147.15 Y63.233 E12.18312
G1 X147.149 Y81.374 E12.7865
G1 X147.139 Y82.094 E12.81045
G1 X147.086 Y83.013 E12.84106
G1 X146.961 Y83.887 E12.87043
G1 X146.711 Y85.224 E12.91567
G1 X146.682 Y85.37 E12.92062
G1 X146.25 Y87.881 E13.00536
G1 X145.89 Y90.397 E13.0899
G1 X145.606 Y92.879 E13.17299
G1 X145.39 Y95.4 E13.25714
G1 X145.246 Y97.924 E13.34123
G1 X145.172 Y100.479 E13.42624
G1 X145.17 Y102.992 E13.50982
G1 X145.24 Y105.537 E13.5945
G1 X145.38 Y108.042 E13.67795
G1 X145.591 Y110.54 E13.76133
G1 X145.879 Y113.085 E13.84652
G1 X146.235 Y115.596 E13.93087
G1 X146.657 Y118.072 E14.01441
G1 X146.947 Y119.568 E14.06509
G1 X147.082 Y120.478 E14.09569
G1 X147.135 Y121.257 E14.12166
G1 X147.145 Y121.582 E14.13247
G1 X147.15 Y121.908 E14.14332
G1 X147.149 Y140.023 E14.74583
G1 X147.14 Y140.75 E14.77001
G1 X147.089 Y141.669 E14.80062
G1 X146.958 Y142.581 E14.83127
G1 X146.748 Y143.477 E14.86187
G1 X146.462 Y144.352 E14.89249
G1 X146.101 Y145.199 E14.92311
G1 X145.667 Y146.011 E14.95374
G1 X145.165 Y146.783 E14.98437
G1 X144.597 Y147.508 E15.015
G1 X143.969 Y148.181 E15.04561
G1 X143.285 Y148.797 E15.07623
G1 X142.55 Y149.351 E15.10684
G1 X141.77 Y149.84 E15.13746
G1 X140.95 Y150.259 E15.16809
G1 X140.097 Y150.605 E15.19871
G1 X139.217 Y150.876 E15.22933
G1 X138.317 Y151.069 E15.25995
G1 X137.403 Y151.184 E15.29059
G1 X136.838 Y151.215 E15.30941
G1 X136.517 Y151.224 E15.32009
G1 X136.22 Y151.228 E15.32997
G1 X99.02 Y151.227 E16.56724
G1 X98.322 Y151.218 E16.59046
G1 X97.403 Y151.166 E16.62108
G1 X96.492 Y151.035 E16.65169
G1 X95.596 Y150.825 E16.6823
G1 X94.721 Y150.538 E16.71292
G1 X93.874 Y150.176 E16.74356
G1 X93.062 Y149.742 E16.77418
G1 X92.291 Y149.24 E16.80478
G1 X91.566 Y148.672 E16.83542
G1 X90.893 Y148.043 E16.86605
G1 X90.278 Y147.359 E16.89665
G1 X89.724 Y146.624 E16.92726
G1 X89.236 Y145.843 E16.95789
G1 X88.817 Y145.023 E16.98852
G1 X88.471 Y144.17 E17.01913
G1 X88.201 Y143.29 E17.04975
G1 X88.008 Y142.389 E17.0804
G1 X87.894 Y141.476 E17.111
G1 X87.863 Y140.905 E17.13002
G1 X87.854 Y140.572 E17.1411
G1 X87.85 Y140.286 E17.15061
G1 X87.851 Y122.12 E17.75482
G1 X87.862 Y121.414 E17.7783
G1 X87.917 Y120.495 E17.80892
G1 X88.04 Y119.64 E17.83765
G1 X88.289 Y118.307 E17.88275
G1 X88.318 Y118.161 E17.8877
G1 X88.75 Y115.65 E17.97245
G1 X89.11 Y113.134 E18.05698
G1 X89.394 Y110.652 E18.14007
G1 X89.61 Y108.131 E18.22423
G1 X89.754 Y105.607 E18.30831
G1 X89.828 Y103.052 E18.39333
G1 X89.83 Y100.539 E18.47691
G1 X89.76 Y97.994 E18.56159
G1 X89.62 Y95.489 E18.64504
G1 X89.409 Y92.99 E18.72845
G1 X89.121 Y90.446 E18.8136
G1 X88.765 Y87.94 E18.89779
G1 X88.343 Y85.46 E18.98146
G1 X88.052 Y83.959 E19.03231
G1 X87.917 Y83.048 E19.06295
G1 X87.863 Y82.241 E19.08985
G1 X87.854 Y81.921 E19.10049
G1 X87.85 Y81.623 E19.11041
G1 X87.851 Y63.434 E19.71538
G1 X87.86 Y62.769 E19.7375
G1 X87.912 Y61.849 E19.76814
G1 X88.044 Y60.938 E19.79876
G1 X88.255 Y60.042 E19.82938
G1 X88.542 Y59.167 E19.86
G1 X88.905 Y58.321 E19.89062
G1 X89.339 Y57.509 E19.92125
G1 X89.842 Y56.738 E19.95186
G0 F6000 X90.238 Y56.874
G1 F1200 X90.805 Y56.17 E19.98193
G1 X91.431 Y55.52 E20.01194
G1 X92.112 Y54.927 E20.04198
G1 X92.844 Y54.397 E20.07204
G1 X93.619 Y53.934 E20.10206
G1 X94.432 Y53.541 E20.1321
G1 X95.277 Y53.221 E20.16215
G1 X96.146 Y52.978 E20.19216
G1 X97.034 Y52.812 E20.22221
G1 X98.173 Y52.716 E20.26023
G1 X98.494 Y52.707 E20.27091
G1 X98.78 Y52.703 E20.28042
G1 X135.843 Y52.703 E21.51314
G1 X136.687 Y52.714 E21.54121
G1 X137.589 Y52.767 E21.57127
G1 X138.482 Y52.899 E21.60129
G1 X139.36 Y53.11 E21.63132
G1 X140.216 Y53.398 E21.66136
G1 X141.043 Y53.76 E21.69139
G1 X141.835 Y54.195 E21.72144
G1 X142.586 Y54.697 E21.75149
G1 X143.289 Y55.264 E21.78153
G1 X143.939 Y55.891 E21.81156
G1 X144.531 Y56.573 E21.8416
G1 X145.061 Y57.304 E21.87163
G1 X145.523 Y58.08 E21.90167
G1 X145.916 Y58.893 E21.9317
G1 X146.234 Y59.738 E21.96173
G1 X146.477 Y60.608 E21.99178
G1 X146.642 Y61.496 E22.02182
G1 X146.737 Y62.626 E22.05953
G1 X146.746 Y62.946 E22.07018
G1 X146.75 Y63.233 E22.07973
G1 X146.749 Y81.369 E22.68293
G1 X146.739 Y82.089 E22.70688
G1 X146.687 Y82.99 E22.7369
G1 X146.568 Y83.814 E22.76459
G1 X146.319 Y85.145 E22.80963
G1 X146.29 Y85.289 E22.81451
G1 X145.854 Y87.829 E22.90023
G1 X145.495 Y90.332 E22.98433
G1 X145.209 Y92.836 E23.06816
G1 X144.988 Y95.412 E23.15415
G1 X144.847 Y97.891 E23.23674
G1 X144.772 Y100.468 E23.32248
G1 X144.77 Y103.003 E23.4068
G1 X144.84 Y105.535 E23.49105
G1 X144.982 Y108.064 E23.57529
G1 X145.197 Y110.617 E23.66051
G1 X145.48 Y113.114 E23.74409
G1 X145.839 Y115.647 E23.82918
G1 X146.269 Y118.171 E23.91434
G1 X146.554 Y119.644 E23.96424
G1 X146.686 Y120.537 E23.99426
G1 X146.735 Y121.269 E24.01866
G1 X146.745 Y121.594 E24.02948
G1 X146.75 Y121.908 E24.03992
G1 X146.749 Y140.018 E24.64226
G1 X146.74 Y140.745 E24.66644
G1 X146.689 Y141.647 E24.69649
G1 X146.558 Y142.541 E24.72655
G1 X146.349 Y143.419 E24.75656
G1 X146.063 Y144.276 E24.78661
G1 X145.702 Y145.104 E24.81666
G1 X145.27 Y145.896 E24.84666
G1 X144.769 Y146.648 E24.87672
G1 X144.203 Y147.352 E24.90676
G1 X143.578 Y148.003 E24.93678
G1 X142.897 Y148.597 E24.96683
G1 X142.166 Y149.128 E24.99688
G1 X141.392 Y149.592 E25.0269
G1 X140.579 Y149.986 E25.05695
G1 X139.735 Y150.306 E25.08697
G1 X138.865 Y150.551 E25.11703
G1 X137.978 Y150.717 E25.14704
G1 X136.827 Y150.815 E25.18546
G1 X136.506 Y150.824 E25.19614
G1 X136.22 Y150.828 E25.20566
G1 X99.025 Y150.827 E26.44277
G1 X98.327 Y150.818 E26.46599
G1 X97.426 Y150.767 E26.496
G1 X96.532 Y150.635 E26.52606
G1 X95.654 Y150.426 E26.55608
G1 X94.797 Y150.139 E26.58614
G1 X93.97 Y149.778 E26.61615
G1 X93.177 Y149.345 E26.6462
G1 X92.426 Y148.844 E26.67623
G1 X91.722 Y148.278 E26.70627
G1 X91.071 Y147.652 E26.73631
G1 X90.478 Y146.971 E26.76634
G1 X89.948 Y146.24 E26.79638
G1 X89.484 Y145.465 E26.82642
G1 X89.09 Y144.652 E26.85647
G1 X88.77 Y143.808 E26.88649
G1 X88.526 Y142.938 E26.91654
G1 X88.36 Y142.05 E26.94659
G1 X88.263 Y140.895 E26.98514
G1 X88.254 Y140.562 E26.99622
G1 X88.25 Y140.286 E27.0054
G1 X88.251 Y122.126 E27.6094
G1 X88.262 Y121.42 E27.63289
G1 X88.316 Y120.519 E27.66291
G1 X88.433 Y119.713 E27.69
G1 X88.681 Y118.386 E27.7349
G1 X88.71 Y118.242 E27.73978
G1 X89.146 Y115.702 E27.8255
G1 X89.505 Y113.199 E27.9096
G1 X89.791 Y110.695 E27.99343
G1 X90.012 Y108.119 E28.07942
G1 X90.153 Y105.64 E28.162
G1 X90.228 Y103.063 E28.24775
G1 X90.23 Y100.528 E28.33207
G1 X90.16 Y97.996 E28.41631
G1 X90.018 Y95.467 E28.50056
G1 X89.803 Y92.913 E28.58581
G1 X89.52 Y90.412 E28.66952
G1 X89.163 Y87.893 E28.75414
G1 X88.731 Y85.361 E28.83957
G1 X88.445 Y83.883 E28.88964
G1 X88.313 Y82.989 E28.9197
G1 X88.263 Y82.23 E28.945
G1 X88.254 Y81.91 E28.95565
G1 X88.25 Y81.623 E28.96519
G1 X88.251 Y63.439 E29.57
G1 X88.26 Y62.774 E29.59212
G1 X88.312 Y61.872 E29.62217
G1 X88.444 Y60.979 E29.65219
G1 X88.654 Y60.101 E29.68222
G1 X88.941 Y59.244 E29.71228
G1 X89.303 Y58.417 E29.7423
G1 X89.736 Y57.625 E29.77232
G1 X90.238 Y56.874 E29.80237
G1 F2700 E26.80237
;MESH:vagina104.stl
G0 F6000 X97.785 Y63.317
G0 X98.864 Y63.317
G0 X135.368 Y64.085
G0 X136.05 Y81.483
G1 F2700 E29.80237
G0 F6000 X136.35 Y81.753
;TYPE:WALL-OUTER
G1 F1200 X98.65 Y81.753 E31.05628
G1 X98.65 Y63.103 E31.67658
G1 X136.35 Y63.103 E32.93048
G1 X136.35 Y81.753 E33.55079
G0 F6000 X135.95 Y81.353
;TYPE:WALL-INNER
G1 F1200 X99.05 Y81.353 E34.77809
G1 X99.05 Y63.503 E35.37178
G1 X135.95 Y63.503 E36.59908
G1 X135.95 Y81.353 E37.19277
G0 F6000 X135.55 Y80.953
G1 F1200 X99.45 Y80.953 E38.39346
G1 X99.45 Y63.903 E38.96055
G1 X135.55 Y63.903 E40.16124
G1 X135.55 Y80.953 E40.72832
G0 F6000 X135.44 Y64.678
G0 X135.389 Y64.678
;TYPE:SKIN
G1 F1200 X134.773 Y64.063 E40.75727
G0 F6000 X134.208 Y64.063
G1 F1200 X135.389 Y65.244 E40.81283
G0 F6000 X135.389 Y65.809
G1 F1200 X133.642 Y64.063 E40.89498
G0 F6000 X133.076 Y64.063
G1 F1200 X135.389 Y66.375 E41.00375
G0 F6000 X135.389 Y66.941
G1 F1200 X132.511 Y64.063 E41.13912
G0 F6000 X131.945 Y64.063
G1 F1200 X135.389 Y67.506 E41.30109
G0 F6000 X135.389 Y68.072
G1 F1200 X131.379 Y64.063 E41.48969
G0 F6000 X130.814 Y64.063
G1 F1200 X135.389 Y68.638 E41.70488
G0 F6000 X135.389 Y69.203
G1 F1200 X130.248 Y64.063 E41.94667
G0 F6000 X129.682 Y64.063
G1 F1200 X135.389 Y69.769 E42.21509
G0 F6000 X135.389 Y70.335
G1 F1200 X129.116 Y64.063 E42.51013
G0 F6000 X128.551 Y64.063
G1 F1200 X135.389 Y70.9 E42.83174
G0 F6000 X135.389 Y71.466
G1 F1200 X127.985 Y64.063 E43.17998
G0 F6000 X127.419 Y64.063
G1 F1200 X135.389 Y72.032 E43.55484
G0 F6000 X135.389 Y72.597
G1 F1200 X126.854 Y64.063 E43.95628
G0 F6000 X126.288 Y64.063
G1 F1200 X135.389 Y73.163 E44.38434
G0 F6000 X135.389 Y73.729
G1 F1200 X125.722 Y64.063 E44.83902
G0 F6000 X125.157 Y64.063
G1 F1200 X135.389 Y74.295 E45.3203
G0 F6000 X135.389 Y74.86
G1 F1200 X124.591 Y64.063 E45.82819
G0 F6000 X124.025 Y64.063
G1 F1200 X135.389 Y75.426 E46.36269
G0 F6000 X135.389 Y75.992
G1 F1200 X123.46 Y64.063 E46.92379
G0 F6000 X122.894 Y64.063
G1 F1200 X135.389 Y76.557 E47.5115
G0 F6000 X135.389 Y77.123
G1 F1200 X122.328 Y64.063 E48.12582
G0 F6000 X121.763 Y64.063
G1 F1200 X135.389 Y77.689 E48.76675
G0 F6000 X135.389 Y78.254
G1 F1200 X121.197 Y64.063 E49.43427
G0 F6000 X120.631 Y64.063
G1 F1200 X135.389 Y78.82 E50.12842
G0 F6000 X135.389 Y79.386
G1 F1200 X120.066 Y64.063 E50.84917
G0 F6000 X119.5 Y64.063
G1 F1200 X135.389 Y79.951 E51.59651
G0 F6000 X135.389 Y80.517
G1 F1200 X118.934 Y64.063 E52.37048
G0 F6000 X118.368 Y64.063
G1 F1200 X135.099 Y80.793 E53.15743
G0 F6000 X134.533 Y80.793
G1 F1200 X117.803 Y64.063 E53.94436
G0 F6000 X117.237 Y64.063
G1 F1200 X133.967 Y80.793 E54.73129
G0 F6000 X133.402 Y80.793
G1 F1200 X116.671 Y64.063 E55.51824
G0 F6000 X116.106 Y64.063
G1 F1200 X132.836 Y80.793 E56.30517
G0 F6000 X132.27 Y80.793
G1 F1200 X115.54 Y64.063 E57.0921
G0 F6000 X114.974 Y64.063
G1 F1200 X131.705 Y80.793 E57.87905
G0 F6000 X131.139 Y80.793
G1 F1200 X114.409 Y64.063 E58.66598
G0 F6000 X113.843 Y64.063
G1 F1200 X130.573 Y80.793 E59.4529
G0 F6000 X130.007 Y80.793
G1 F1200 X113.277 Y64.063 E60.23983
G0 F6000 X112.712 Y64.063
G1 F1200 X129.442 Y80.793 E61.02676
