;Sliced by ideaMaker 4.3.2.6470, 2023-04-30 01:15:26 UTC-0500
;Dimension: 200.000 9999.000 170.000 0.800
;Plate Shape: 0
;Origin Center: 0
;Belt Printer: 1
;Belt Base Y: 5105.500
;Belt Base Z: 0.000
;Belt Offset Y: 0.000
;Belt Offset Z: 3610.133
;Belt Gantry Angle: 45
;Belt Remove Z: 1.366
;Belt Repetition: 1
;Extruder Offset #1: 25.000 0.000
;Filament Diameter #1: 1.750
;Filament Diameter #2: 1.750
;Filament Compensation #1: 100.00
;Filament Compensation #2: 90.00
;Filament Density #1: 1240.00
;Filament Density #2: 1240.00
;Filament Type #1: PLA
;Filament Type #2: 
;Filament Name #1: [Raise3D] PLA 1.75mm
;Filament Name #2: 
;Firmware: Marlin
;Bounding Box: 81.515 118.485 -0.100 52.000 1.200 95.366
;Model Gap: 0.000
;
;
M92 E203.00000
M221 T0 S100.00
M140 S60.00
M104 T0 S200.00
M109 T0 S200.00
T0
M190 S60.00
G90 ; Set to Absolute Positioning
M82 ; Set extruder to absolute mode
G21 ; Metric values
;M808 L ; This is your looping code, any number after the L is the number of repeats, leave blank for infinite loops
M104 T0 S200 ; For some reason ideamaker forces the nozzle to cooldown when the command isnt even in the endgcode, this turns it straight back on after the loop, 245 is the degrees in this case
G28; Home
G92 X0 Y0 Z0 E0 ; zero out all axes (include extruder)
M83 ; set extruder to relative coordinates
G0 Z80 E25 ; extrude short Z line
G92 E0 Z0 ; Set all axis to 0
G0 X215 E40 F800 ; Primeline placed after the loop code so every looped print will get a primeline for better adhesion
G92 E0 Z0
M82
M117 Please stick...
;end of Start GCode
;TOTAL_NUM: 1
;PRINTING_TIME: 0
;REMAINING_TIME: 985
M83
;LAYER:0
;Z:0.800
;HEIGHT:0.800
;HEIGHT-BELT:0.566
;BELT-FIRST-Z:0.800
M106 S255
;PRINTING: square_tube.stl
;PRINTING_ID: 0
M204 S2000.00
M205 X5.00 Y5.00
G0 F7200 X91.822 Y2.332
G0 F1200 Z0.800
;TYPE:FILL
;WIDTH:0.800
;HEIGHT:0.800
;HEIGHT-BELT:0.566
G1 F3075 X92.873 Y1.785 E0.1576
G1 X92.772 Y1.131 E0.0880
G1 X92.691 Y0.800 E0.0453
G1 X102.400 Y0.800 E1.2917
G1 X102.219 Y1.131 E0.0502
G1 X101.767 Y1.785 E0.1058
G1 X98.549 Y2.332 E0.4343
G1 X112.764 Y2.332 E1.8912
G1 X113.815 Y1.785 E0.1576
G1 X113.723 Y1.190 E0.0801
G0 F3075 X113.714 Y1.131
G0 F3075 X113.633 Y0.800
;PRINTING_TIME: 2
;REMAINING_TIME: 983
;LAYER:1
;Z:1.366
;HEIGHT:0.566
;HEIGHT-BELT:0.400
;PRINTING: square_tube.stl
;PRINTING_ID: 0
G0 F1200 Z1.366
G0 F7200 X117.585 Y2.915
;TYPE:FILL
;WIDTH:0.800
G1 F3600 X117.442 Y3.094 E0.0305
G1 X117.422 Y3.132 E0.0057
G1 X112.244 Y3.132 E0.6889
G1 X113.348 Y2.440 E0.1733
G1 X114.148 Y1.785 E0.1376
G1 X113.972 Y1.131 E0.0901
G1 X113.857 Y0.800 E0.0466
G1 X102.441 Y0.800 E1.5188
G1 X102.227 Y1.131 E0.0524
G1 X101.702 Y1.785 E0.1116
G1 X97.122 Y2.440 E0.6155
G1 X96.761 Y2.767 E0.0648
G1 X96.500 Y3.094 E0.0557
G1 X96.480 Y3.132 E0.0057
G1 X91.302 Y3.132 E0.6889
G1 X92.406 Y2.440 E0.1733
G1 X93.206 Y1.785 E0.1376
G1 X93.042 Y1.179 E0.0835
G0 F3600 X93.030 Y1.131
G0 F3600 X92.915 Y0.800
;PRINTING_TIME: 3
;REMAINING_TIME: 982
;LAYER:2
;Z:1.932
;HEIGHT:0.566
;HEIGHT-BELT:0.400
;PRINTING: square_tube.stl
;PRINTING_ID: 0
G0 F1200 Z1.932
G0 F7200 X93.155 Y0.800
;TYPE:FILL
;WIDTH:0.800
G1 F3600 X93.938 Y2.440 E0.2418
G1 X92.517 Y3.094 E0.2081
G1 X90.934 Y3.748 E0.2279
G1 X90.282 Y3.932 E0.0901
G1 X95.415 Y3.932 E0.6829
G1 X95.329 Y3.748 E0.0270
G1 X95.268 Y3.421 E0.0443
G1 X95.243 Y3.094 E0.0436
G1 X95.305 Y2.767 E0.0443
G1 X95.590 Y2.440 E0.0577
G1 X101.662 Y1.785 E0.8125
G1 X102.267 Y1.131 E0.1185
G1 X102.514 Y0.800 E0.0549
G1 X114.097 Y0.800 E1.5410
G1 X114.879 Y2.440 E0.2417
G1 X113.458 Y3.094 E0.2081
G1 X111.876 Y3.748 E0.2277
G1 X111.224 Y3.932 E0.0901
G1 X116.357 Y3.932 E0.6829
G1 X116.271 Y3.748 E0.0270
G1 X116.210 Y3.421 E0.0443
G1 X116.185 Y3.094 E0.0436
G1 X116.247 Y2.767 E0.0443
G1 X116.532 Y2.440 E0.0577
G1 X117.198 Y2.267 E0.0915
G0 F3600 X117.585 Y2.167
;PRINTING_TIME: 4
;REMAINING_TIME: 981
;LAYER:3
;Z:2.498
;HEIGHT:0.566
;HEIGHT-BELT:0.400
;PRINTING: square_tube.stl
;PRINTING_ID: 0
G0 F1200 Z2.498
G0 F7200 X117.585 Y3.821
;TYPE:FILL
;WIDTH:0.800
G1 F3600 X117.015 Y3.801 E0.0759
G1 X116.687 Y3.723 E0.0449
G1 X116.360 Y3.575 E0.0478
G1 X116.033 Y3.330 E0.0544
G1 X115.706 Y2.970 E0.0647
G1 X115.379 Y2.494 E0.0768
G1 X115.051 Y1.935 E0.0862
G1 X114.425 Y0.800 E0.1724
G1 X102.636 Y0.800 E1.5684
G1 X102.617 Y0.825 E0.0042
G1 X102.290 Y1.188 E0.0650
G1 X101.963 Y1.511 E0.0611
G1 X101.308 Y2.057 E0.1134
G1 X100.654 Y2.497 E0.1049
G1 X99.999 Y2.856 E0.0994
G1 X98.690 Y3.396 E0.1884
G1 X97.382 Y3.741 E0.1800
G1 X96.727 Y3.824 E0.0878
G1 X96.073 Y3.801 E0.0871
G1 X95.746 Y3.723 E0.0447
G1 X95.418 Y3.575 E0.0479
G1 X95.091 Y3.330 E0.0544
G1 X94.764 Y2.970 E0.0647
G1 X94.437 Y2.494 E0.0768
G1 X94.109 Y1.935 E0.0862
G1 X93.676 Y1.150 E0.1193
G0 F3600 X93.483 Y0.800
;PRINTING_TIME: 5
;REMAINING_TIME: 980
;LAYER:4
;Z:3.064
;HEIGHT:0.566
;HEIGHT-BELT:0.400
;PRINTING: square_tube.stl
;PRINTING_ID: 0
G0 F1200 Z3.064
G0 F7200 X93.824 Y0.800
;TYPE:FILL
;WIDTH:0.800
G1 F3600 X94.109 Y1.214 E0.0669
G1 X94.437 Y1.671 E0.0748
G1 X94.764 Y2.086 E0.0703
G1 X95.091 Y2.439 E0.0640
G1 X95.418 Y2.723 E0.0576
G1 X95.746 Y2.939 E0.0522
G1 X96.073 Y3.094 E0.0481
G1 X96.727 Y3.264 E0.0899
G1 X97.382 Y3.301 E0.0873
G1 X98.036 Y3.248 E0.0873
G1 X98.690 Y3.128 E0.0885
G1 X99.345 Y2.951 E0.0903
G1 X99.999 Y2.716 E0.0925
G1 X100.654 Y2.416 E0.0958
G1 X101.308 Y2.041 E0.1003
G1 X101.963 Y1.570 E0.1073
G1 X102.617 Y0.981 E0.1171
G1 X102.765 Y0.800 E0.0311
G1 X114.766 Y0.800 E1.5966
G1 X115.051 Y1.214 E0.0669
G1 X115.379 Y1.671 E0.0748
G1 X115.706 Y2.086 E0.0703
G1 X116.033 Y2.439 E0.0640
G1 X116.360 Y2.723 E0.0576
G1 X116.687 Y2.939 E0.0521
G1 X117.015 Y3.094 E0.0483
G1 X117.198 Y3.142 E0.0252
G0 F3600 X117.585 Y3.242
;PRINTING_TIME: 6
;REMAINING_TIME: 979
;LAYER:5
;Z:3.630
;HEIGHT:0.566
;HEIGHT-BELT:0.400
;PRINTING: square_tube.stl
;PRINTING_ID: 0
G0 F1200 Z3.630
G0 F7200 X117.585 Y2.760
;TYPE:FILL
;WIDTH:0.800
G1 F3600 X117.015 Y2.533 E0.0816
G1 X116.687 Y2.338 E0.0508
G1 X116.360 Y2.095 E0.0542
G1 X115.706 Y1.460 E0.1213
G1 X115.379 Y1.081 E0.0666
G1 X115.150 Y0.800 E0.0482
G1 X102.949 Y0.800 E1.6232
G1 X102.617 Y1.147 E0.0639
G1 X101.963 Y1.652 E0.1099
G1 X101.308 Y2.053 E0.1022
G1 X100.654 Y2.367 E0.0965
G1 X99.999 Y2.607 E0.0928
G1 X99.345 Y2.783 E0.0901
G1 X98.690 Y2.897 E0.0885
G1 X98.036 Y2.947 E0.0873
G1 X97.382 Y2.920 E0.0871
G1 X97.054 Y2.871 E0.0441
G1 X96.727 Y2.794 E0.0447
G1 X96.073 Y2.533 E0.0937
G1 X95.746 Y2.338 E0.0507
G1 X95.418 Y2.095 E0.0543
G1 X94.764 Y1.460 E0.1213
G1 X94.461 Y1.109 E0.0617
G0 F3600 X94.437 Y1.081
G0 F3600 X94.208 Y0.800
;PRINTING_TIME: 7
;REMAINING_TIME: 979
;LAYER:6
;Z:4.196
;HEIGHT:0.566
;HEIGHT-BELT:0.400
;PRINTING: square_tube.stl
;PRINTING_ID: 0
G0 F1200 Z4.196
G0 F7200 X94.627 Y0.800
;TYPE:FILL
;WIDTH:0.800
G1 F3600 X94.764 Y0.951 E0.0271
G1 X95.418 Y1.581 E0.1208
G1 X96.073 Y2.062 E0.1081
G1 X96.727 Y2.390 E0.0973
G1 X97.054 Y2.503 E0.0460
G1 X97.382 Y2.588 E0.0451
G1 X98.036 Y2.684 E0.0879
G1 X98.690 Y2.699 E0.0870
G1 X99.345 Y2.645 E0.0874
G1 X99.999 Y2.527 E0.0884
G1 X100.654 Y2.344 E0.0905
G1 X101.308 Y2.091 E0.0933
G1 X101.963 Y1.756 E0.0979
G1 X102.617 Y1.324 E0.1043
G1 X103.195 Y0.800 E0.1038
G1 X115.569 Y0.800 E1.6462
G1 X115.706 Y0.951 E0.0271
G1 X116.360 Y1.581 E0.1208
G1 X117.015 Y2.062 E0.1081
G1 X117.228 Y2.169 E0.0317
G0 F3600 X117.585 Y2.348
;PRINTING_TIME: 7
;REMAINING_TIME: 978
;LAYER:7
;Z:4.762
;HEIGHT:0.566
;HEIGHT-BELT:0.400
;PRINTING: square_tube.stl
;PRINTING_ID: 0
G0 F1200 Z4.762
G0 F7200 X117.585 Y1.985
;TYPE:FILL
;WIDTH:0.800
G1 F3600 X117.015 Y1.650 E0.0880
G1 X116.360 Y1.134 E0.1109
G1 X116.013 Y0.800 E0.0641
G1 X103.556 Y0.800 E1.6573
G1 X103.272 Y1.048 E0.0502
G1 X102.617 Y1.515 E0.1070
G1 X101.963 Y1.879 E0.0996
G1 X101.308 Y2.153 E0.0945
G1 X100.654 Y2.348 E0.0908
G1 X99.999 Y2.473 E0.0887
G1 X99.345 Y2.535 E0.0874
G1 X98.690 Y2.531 E0.0871
G1 X98.036 Y2.455 E0.0876
G1 X97.382 Y2.295 E0.0896
G1 X97.054 Y2.179 E0.0463
G1 X96.727 Y2.034 E0.0476
G1 X96.073 Y1.650 E0.1009
G1 X95.418 Y1.134 E0.1109
G1 X95.071 Y0.800 E0.0641
G1 X82.415 Y0.800 E1.6838
G1 X82.415 Y7.932 E0.9488
G1 X88.321 Y7.932 E0.7857
G1 X88.874 Y7.767 E0.0768
G1 X89.201 Y7.696 E0.0445
G1 X89.528 Y7.641 E0.0441
G1 X90.183 Y7.580 E0.0875
G1 X90.837 Y7.584 E0.0870
G1 X91.492 Y7.660 E0.0877
G1 X91.819 Y7.728 E0.0444
G1 X92.146 Y7.819 E0.0452
G1 X92.428 Y7.932 E0.0404
G1 X109.262 Y7.932 E2.2396
G1 X109.816 Y7.767 E0.0769
G1 X110.143 Y7.696 E0.0445
G1 X110.470 Y7.641 E0.0441
G1 X111.125 Y7.580 E0.0875
G1 X111.779 Y7.584 E0.0870
G1 X112.434 Y7.660 E0.0877
G1 X112.761 Y7.728 E0.0444
G1 X112.995 Y7.793 E0.0323
G0 F3600 X113.088 Y7.819
G0 F3600 X113.370 Y7.932
;PRINTING_TIME: 9
;REMAINING_TIME: 976
;LAYER:8
;Z:5.328
;HEIGHT:0.566
;HEIGHT-BELT:0.400
;PRINTING: square_tube.stl
;PRINTING_ID: 0
G0 F1200 Z5.328
G0 F7200 X114.238 Y8.732
;TYPE:FILL
;WIDTH:0.800
G1 F3600 X113.742 Y8.402 E0.0793
G1 X113.088 Y8.080 E0.0970
G1 X112.761 Y7.959 E0.0464
G1 X112.434 Y7.860 E0.0455
G1 X111.779 Y7.726 E0.0889
G1 X111.125 Y7.664 E0.0874
G1 X110.470 Y7.670 E0.0871
G1 X110.143 Y7.696 E0.0436
G1 X109.816 Y7.740 E0.0439
G1 X109.161 Y7.877 E0.0890
G1 X108.507 Y8.091 E0.0915
G1 X107.853 Y8.392 E0.0958
G1 X107.299 Y8.732 E0.0865
G1 X93.296 Y8.732 E1.8630
G1 X92.801 Y8.402 E0.0791
G1 X92.146 Y8.080 E0.0971
G1 X91.819 Y7.959 E0.0464
G1 X91.492 Y7.860 E0.0455
G1 X90.837 Y7.726 E0.0889
G1 X90.183 Y7.664 E0.0874
G1 X89.528 Y7.670 E0.0871
G1 X89.201 Y7.696 E0.0436
G1 X88.874 Y7.740 E0.0439
G1 X88.220 Y7.877 E0.0889
G1 X87.565 Y8.091 E0.0917
G1 X86.911 Y8.392 E0.0958
G1 X86.357 Y8.732 E0.0865
G1 X82.415 Y8.732 E0.5244
G1 X82.415 Y1.254 E0.9949
G1 X82.984 Y0.811 E0.0959
G1 X82.996 Y0.800 E0.0022
G1 X95.506 Y0.800 E1.6643
G1 X96.073 Y1.277 E0.0986
G1 X96.727 Y1.713 E0.1046
G1 X97.054 Y1.887 E0.0493
G1 X97.382 Y2.034 E0.0478
G1 X98.036 Y2.254 E0.0918
G1 X98.690 Y2.389 E0.0888
G1 X99.345 Y2.450 E0.0875
G1 X99.999 Y2.445 E0.0870
G1 X100.654 Y2.375 E0.0876
G1 X101.308 Y2.237 E0.0889
G1 X101.963 Y2.024 E0.0916
G1 X102.617 Y1.723 E0.0958
G1 X103.272 Y1.320 E0.1023
G1 X103.926 Y0.811 E0.1103
G1 X103.938 Y0.800 E0.0022
G1 X116.448 Y0.800 E1.6643
G1 X117.015 Y1.277 E0.0986
G1 X117.253 Y1.436 E0.0381
G0 F3600 X117.585 Y1.657
;PRINTING_TIME: 11
;REMAINING_TIME: 975
;LAYER:9
;Z:5.894
;HEIGHT:0.566
;HEIGHT-BELT:0.400
;PRINTING: square_tube.stl
;PRINTING_ID: 0
G0 F1200 Z5.894
G0 F7200 X117.585 Y1.355
;TYPE:FILL
;WIDTH:0.800
G1 F3600 X117.015 Y0.928 E0.0948
G1 X116.873 Y0.800 E0.0254
G1 X104.336 Y0.800 E1.6679
G1 X103.926 Y1.154 E0.0721
G1 X103.272 Y1.608 E0.1059
G1 X102.617 Y1.950 E0.0983
G1 X101.963 Y2.191 E0.0927
G1 X101.308 Y2.346 E0.0895
G1 X100.654 Y2.427 E0.0877
G1 X99.999 Y2.441 E0.0872
G1 X99.345 Y2.390 E0.0873
G1 X98.690 Y2.272 E0.0885
G1 X98.036 Y2.079 E0.0907
G1 X97.382 Y1.799 E0.0946
G1 X96.727 Y1.418 E0.1008
G1 X96.073 Y0.928 E0.1087
G1 X95.931 Y0.800 E0.0254
G1 X83.395 Y0.800 E1.6678
G1 X82.984 Y1.154 E0.0722
G1 X82.415 Y1.549 E0.0922
G1 X82.415 Y9.532 E1.0621
G1 X84.939 Y9.532 E0.3358
G1 X84.947 Y9.524 E0.0015
G1 X85.602 Y8.961 E0.1149
G1 X86.256 Y8.507 E0.1059
G1 X86.911 Y8.165 E0.0983
G1 X87.565 Y7.924 E0.0927
G1 X88.220 Y7.769 E0.0895
G1 X88.874 Y7.688 E0.0877
G1 X89.201 Y7.673 E0.0436
G1 X89.528 Y7.674 E0.0435
G1 X90.183 Y7.724 E0.0874
G1 X90.837 Y7.842 E0.0884
G1 X91.492 Y8.035 E0.0908
G1 X91.819 Y8.164 E0.0468
G1 X92.146 Y8.316 E0.0480
G1 X92.801 Y8.696 E0.1007
G1 X93.455 Y9.186 E0.1087
G1 X93.839 Y9.532 E0.0688
G1 X105.881 Y9.532 E1.6021
G1 X105.889 Y9.524 E0.0015
G1 X106.544 Y8.961 E0.1149
G1 X107.198 Y8.507 E0.1059
G1 X107.853 Y8.165 E0.0983
G1 X108.507 Y7.924 E0.0927
G1 X109.161 Y7.769 E0.0894
G1 X109.816 Y7.688 E0.0878
G1 X110.143 Y7.673 E0.0436
G1 X110.470 Y7.674 E0.0435
G1 X111.125 Y7.724 E0.0874
G1 X111.779 Y7.842 E0.0884
G1 X112.434 Y8.035 E0.0908
G1 X112.761 Y8.164 E0.0468
G1 X113.088 Y8.316 E0.0480
G1 X113.742 Y8.696 E0.1006
G1 X114.397 Y9.186 E0.1088
G1 X114.484 Y9.264 E0.0155
G0 F3600 X114.781 Y9.532
;PRINTING_TIME: 12
;REMAINING_TIME: 973
;LAYER:10
;Z:6.460
;HEIGHT:0.566
;HEIGHT-BELT:0.400
;PRINTING: square_tube.stl
;PRINTING_ID: 0
G0 F1200 Z6.460
G0 F7200 X115.219 Y10.332
;TYPE:FILL
;WIDTH:0.800
G1 F3600 X115.051 Y10.160 E0.0320
G1 X114.397 Y9.523 E0.1215
G1 X113.742 Y8.973 E0.1138
G1 X113.088 Y8.529 E0.1052
G1 X112.761 Y8.346 E0.0499
G1 X112.434 Y8.188 E0.0483
G1 X111.779 Y7.935 E0.0934
G1 X111.125 Y7.760 E0.0901
G1 X110.470 Y7.654 E0.0883
G1 X110.143 Y7.625 E0.0437
G1 X109.816 Y7.612 E0.0435
G1 X109.161 Y7.636 E0.0872
G1 X108.507 Y7.733 E0.0880
G1 X107.853 Y7.913 E0.0902
G1 X107.525 Y8.041 E0.0468
G1 X107.198 Y8.196 E0.0481
G1 X106.544 Y8.598 E0.1021
G1 X105.889 Y9.126 E0.1119
G1 X105.235 Y9.755 E0.1207
G1 X104.908 Y10.090 E0.0623
G1 X104.672 Y10.332 E0.0450
G1 X94.277 Y10.332 E1.3830
G1 X94.109 Y10.160 E0.0320
G1 X93.455 Y9.523 E0.1215
G1 X92.801 Y8.973 E0.1137
G1 X92.146 Y8.529 E0.1053
G1 X91.819 Y8.346 E0.0499
G1 X91.492 Y8.188 E0.0483
G1 X90.837 Y7.935 E0.0934
G1 X90.183 Y7.760 E0.0901
G1 X89.528 Y7.654 E0.0883
G1 X89.201 Y7.625 E0.0437
G1 X88.874 Y7.612 E0.0435
G1 X88.220 Y7.636 E0.0871
G1 X87.565 Y7.733 E0.0881
G1 X86.911 Y7.913 E0.0902
G1 X86.583 Y8.041 E0.0468
G1 X86.256 Y8.196 E0.0481
G1 X85.602 Y8.598 E0.1021
G1 X84.947 Y9.126 E0.1119
G1 X84.293 Y9.755 E0.1207
G1 X83.966 Y10.090 E0.0623
G1 X83.730 Y10.332 E0.0450
G1 X82.415 Y10.332 E0.1749
G1 X82.415 Y1.867 E1.1262
G1 X82.984 Y1.517 E0.0889
G1 X83.639 Y0.989 E0.1119
G1 X83.835 Y0.800 E0.0362
G1 X96.320 Y0.800 E1.6610
G1 X96.727 Y1.142 E0.0707
G1 X97.382 Y1.585 E0.1052
G1 X98.036 Y1.927 E0.0982
G1 X98.690 Y2.179 E0.0932
G1 X99.345 Y2.354 E0.0902
G1 X99.999 Y2.461 E0.0882
G1 X100.654 Y2.503 E0.0873
G1 X101.308 Y2.479 E0.0871
G1 X101.963 Y2.382 E0.0881
G1 X102.617 Y2.201 E0.0903
G1 X103.272 Y1.919 E0.0949
G1 X103.926 Y1.517 E0.1021
G1 X104.482 Y1.068 E0.0951
G0 F3600 X104.580 Y0.989
G0 F3600 X104.777 Y0.800
;PRINTING_TIME: 14
;REMAINING_TIME: 971
;LAYER:11
;Z:7.026
;HEIGHT:0.566
;HEIGHT-BELT:0.400
;PRINTING: square_tube.stl
;PRINTING_ID: 0
G0 F1200 Z7.026
G0 F7200 X105.226 Y0.800
;TYPE:FILL
;WIDTH:0.800
G1 F3600 X104.580 Y1.420 E0.1191
G1 X103.926 Y1.913 E0.1090
G1 X103.599 Y2.105 E0.0504
G1 X103.272 Y2.261 E0.0482
G1 X102.617 Y2.482 E0.0920
G1 X102.290 Y2.553 E0.0445
G1 X101.963 Y2.601 E0.0440
G1 X101.308 Y2.637 E0.0873
G1 X100.654 Y2.604 E0.0871
G1 X99.999 Y2.505 E0.0881
G1 X98.690 Y2.110 E0.1819
G1 X98.036 Y1.796 E0.0965
G1 X97.382 Y1.389 E0.1025
G1 X96.727 Y0.876 E0.1107
G1 X96.647 Y0.800 E0.0147
G1 X84.284 Y0.800 E1.6448
G1 X83.639 Y1.420 E0.1190
G1 X82.984 Y1.913 E0.1091
G1 X82.657 Y2.105 E0.0504
G1 X82.415 Y2.220 E0.0356
G1 X82.415 Y11.132 E1.1857
G1 X82.516 Y11.132 E0.0134
G1 X82.984 Y10.727 E0.0823
G1 X83.639 Y10.030 E0.1272
G1 X84.293 Y9.324 E0.1280
G1 X84.947 Y8.695 E0.1207
G1 X85.602 Y8.201 E0.1091
G1 X86.256 Y7.853 E0.0986
G1 X86.583 Y7.729 E0.0465
G1 X86.911 Y7.632 E0.0455
G1 X87.565 Y7.514 E0.0884
G1 X88.220 Y7.477 E0.0873
G1 X88.874 Y7.511 E0.0871
G1 X89.201 Y7.552 E0.0438
G1 X89.528 Y7.609 E0.0442
G1 X90.183 Y7.772 E0.0898
G1 X90.837 Y8.005 E0.0924
G1 X91.492 Y8.318 E0.0966
G1 X91.819 Y8.509 E0.0504
G1 X92.146 Y8.726 E0.0522
G1 X93.455 Y9.859 E0.2303
G1 X94.109 Y10.556 E0.1272
G1 X94.643 Y11.132 E0.1045
G1 X103.458 Y11.132 E1.1728
G1 X103.926 Y10.727 E0.0823
G1 X104.580 Y10.030 E0.1272
G1 X105.235 Y9.324 E0.1281
G1 X105.889 Y8.695 E0.1207
G1 X106.544 Y8.201 E0.1091
G1 X107.198 Y7.853 E0.0986
G1 X107.525 Y7.729 E0.0465
G1 X107.853 Y7.632 E0.0455
G1 X108.507 Y7.514 E0.0884
G1 X109.161 Y7.477 E0.0871
G1 X109.816 Y7.511 E0.0873
G1 X110.143 Y7.552 E0.0438
G1 X110.470 Y7.609 E0.0442
G1 X111.125 Y7.772 E0.0898
G1 X111.779 Y8.005 E0.0924
G1 X112.434 Y8.318 E0.0966
G1 X112.761 Y8.509 E0.0504
G1 X113.088 Y8.726 E0.0522
G1 X114.397 Y9.859 E0.2303
G1 X115.051 Y10.556 E0.1272
G1 X115.313 Y10.839 E0.0513
G0 F3600 X115.585 Y11.132
;PRINTING_TIME: 16
;REMAINING_TIME: 970
;LAYER:12
;Z:7.592
;HEIGHT:0.566
;HEIGHT-BELT:0.400
;PRINTING: square_tube.stl
;PRINTING_ID: 0
G0 F1200 Z7.592
G0 F7200 X115.900 Y11.932
;TYPE:FILL
;WIDTH:0.800
