;Sliced by ideaMaker 4.3.2.6470, 2023-04-18 10:34:55 UTC-0500
;Dimension: 200.000 9999.000 170.000 0.800
;Plate Shape: 0
;Origin Center: 0
;Belt Printer: 1
;Belt Base Y: 5754.760
;Belt Base Z: 0.000
;Belt Offset Y: 0.000
;Belt Offset Z: 4069.229
;Belt Gantry Angle: 45
;Belt Remove Z: 0.000
;Belt Repetition: 1
;Extruder Offset #1: 25.000 0.000
;Filament Diameter #1: 1.750
;Filament Diameter #2: 1.750
;Filament Compensation #1: 100.00
;Filament Compensation #2: 90.00
;Filament Density #1: 1240.00
;Filament Density #2: 1240.00
;Filament Type #1: PLA
;Filament Type #2: 
;Filament Name #1: [Raise3D] PLA 1.75mm
;Filament Name #2: 
;Firmware: Marlin
;Bounding Box: 80.950 119.050 -0.100 28.284 0.000 473.766
;Model Gap: 0.000
;
;
M92 E203.00000
M221 T0 S100.00
M140 S60.00
M104 T0 S200.00
M109 T0 S200.00
T0
M190 S60.00
G90 ; Set to Absolute Positioning
M82 ; Set extruder to absolute mode
G21 ; Metric values
;M808 L ; This is your looping code, any number after the L is the number of repeats, leave blank for infinite loops
M104 T0 S200 ; For some reason ideamaker forces the nozzle to cooldown when the command isnt even in the endgcode, this turns it straight back on after the loop, 245 is the degrees in this case
G28; Home
G92 X0 Y0 Z0 E0 ; zero out all axes (include extruder)
M83 ; set extruder to relative coordinates
G0 Z80 E25 ; extrude short Z line
G92 E0 Z0 ; Set all axis to 0
G0 X215 E40 F800 ; Primeline placed after the loop code so every looped print will get a primeline for better adhesion
G92 E0 Z0
M82
M117 Please stick...
;end of Start GCode
;TOTAL_NUM: 9
;PRINTING_TIME: 0
;REMAINING_TIME: 6490
M83
;LAYER:0
;Z:0.800
;HEIGHT:0.800
;HEIGHT-BELT:0.566
;BELT-FIRST-Z:0.800
M106 S255
;PRINTING: default-box.3mf
;PRINTING_ID: 0
M204 S2000.00
M205 X5.00 Y5.00
G0 F7200 X90.300 Y0.300
G0 F1200 Z0.800
M204 S1500.00
;TYPE:WALL-OUTER
;WIDTH:0.800
G1 F1800 X109.700 Y0.300 E3.6521
G1 X109.700 Y0.432 E0.0248
G1 X90.568 Y0.432 E3.6016
G0 F1800 X90.300 Y0.432
G0 F1800 X90.300 Y0.300
;PRINTING_TIME: 2
;REMAINING_TIME: 6488
;LAYER:1
;Z:1.366
;HEIGHT:0.566
;HEIGHT-BELT:0.400
;PRINTING: default-box.3mf
;PRINTING_ID: 0
M204 S2000.00
G0 F1200 Z1.366
G0 F7200 X90.400 Y0.400
M204 S1500.00
;TYPE:WALL-OUTER
;WIDTH:0.800
G1 F1800 X109.600 Y0.400 E2.5544
;TYPE:WALL-OUTER
;WIDTH:0.800
G1 X109.600 Y1.132 E0.0974
G1 X90.400 Y1.132 E2.5544
G1 X90.400 Y0.800 E0.0442
G0 F1800 X90.400 Y0.662
G0 F1800 X90.400 Y0.400
;PRINTING_TIME: 4
;REMAINING_TIME: 6487
;LAYER:2
;Z:1.932
;HEIGHT:0.566
;HEIGHT-BELT:0.400
;PRINTING: default-box.3mf
;PRINTING_ID: 0
M204 S2000.00
G0 F1200 Z1.932
G0 F7200 X90.400 Y0.400
M204 S1500.00
;TYPE:WALL-OUTER
;WIDTH:0.800
G1 F1800 X109.600 Y0.400 E2.5544
G1 X109.600 Y1.362 E0.1280
;TYPE:WALL-OUTER
;WIDTH:0.800
G1 X109.600 Y1.932 E0.0758
G1 X90.400 Y1.932 E2.5544
G1 X90.400 Y1.362 E0.0758
;TYPE:WALL-OUTER
;WIDTH:0.800
G1 X90.400 Y0.800 E0.0748
G0 F1800 X90.400 Y0.400
;PRINTING_TIME: 6
;REMAINING_TIME: 6485
;LAYER:3
;Z:2.498
;HEIGHT:0.566
;HEIGHT-BELT:0.400
;PRINTING: default-box.3mf
;PRINTING_ID: 0
M204 S2000.00
G0 F1200 Z2.498
G0 F7200 X90.400 Y0.400
M204 S1500.00
;TYPE:WALL-OUTER
;WIDTH:0.800
G1 F1800 X109.600 Y0.400 E2.5544
G1 X109.600 Y2.162 E0.2344
;TYPE:WALL-OUTER
;WIDTH:0.800
G1 X109.600 Y2.732 E0.0758
G1 X90.400 Y2.732 E2.5544
G1 X90.400 Y2.162 E0.0758
;TYPE:WALL-OUTER
;WIDTH:0.800
G1 X90.400 Y0.800 E0.1812
G0 F1800 X90.400 Y0.400
;PRINTING_TIME: 7
;REMAINING_TIME: 6483
;LAYER:4
;Z:3.064
;HEIGHT:0.566
;HEIGHT-BELT:0.400
;PRINTING: default-box.3mf
;PRINTING_ID: 0
M204 S2000.00
G0 F1200 Z3.064
G0 F7200 X90.400 Y0.400
M204 S1500.00
;TYPE:WALL-OUTER
;WIDTH:0.800
G1 F1800 X109.600 Y0.400 E2.5544
G1 X109.600 Y2.962 E0.3408
;TYPE:WALL-OUTER
;WIDTH:0.800
G1 X109.600 Y3.532 E0.0758
G1 X90.400 Y3.532 E2.5544
G1 X90.400 Y2.962 E0.0758
;TYPE:WALL-OUTER
;WIDTH:0.800
G1 X90.400 Y0.800 E0.2876
G0 F1800 X90.400 Y0.400
M204 S2000.00
G0 F7200 X91.200 Y1.200
;TYPE:WALL-INNER
;WIDTH:0.800
G1 F3600 X108.800 Y1.200 E2.3415
G1 X108.800 Y2.732 E0.2038
G1 X91.200 Y2.732 E2.3415
G1 X91.200 Y1.600 E0.1506
G0 F3600 X91.200 Y1.200
;PRINTING_TIME: 10
;REMAINING_TIME: 6481
;LAYER:5
;Z:3.630
;HEIGHT:0.566
;HEIGHT-BELT:0.400
;PRINTING: default-box.3mf
;PRINTING_ID: 0
G0 F1200 Z3.630
G0 F7200 X90.400 Y0.400
M204 S1500.00
;TYPE:WALL-OUTER
;WIDTH:0.800
G1 F1800 X109.600 Y0.400 E2.5544
G1 X109.600 Y3.762 E0.4473
;TYPE:WALL-OUTER
;WIDTH:0.800
G1 X109.600 Y4.332 E0.0758
G1 X90.400 Y4.332 E2.5544
G1 X90.400 Y3.762 E0.0758
;TYPE:WALL-OUTER
;WIDTH:0.800
G1 X90.400 Y0.800 E0.3941
G0 F1800 X90.400 Y0.400
M204 S2000.00
G0 F7200 X91.200 Y1.200
;TYPE:WALL-INNER
;WIDTH:0.800
G1 F3600 X108.800 Y1.200 E2.3415
G1 X108.800 Y3.532 E0.3103
G1 X91.200 Y3.532 E2.3415
G1 X91.200 Y1.600 E0.2570
G0 F3600 X91.200 Y1.200
;PRINTING_TIME: 12
;REMAINING_TIME: 6478
;LAYER:6
;Z:4.196
;HEIGHT:0.566
;HEIGHT-BELT:0.400
;PRINTING: default-box.3mf
;PRINTING_ID: 0
G0 F1200 Z4.196
G0 F7200 X90.400 Y0.400
M204 S1500.00
;TYPE:WALL-OUTER
;WIDTH:0.800
G1 F1800 X109.600 Y0.400 E2.5544
G1 X109.600 Y4.562 E0.5537
;TYPE:WALL-OUTER
;WIDTH:0.800
G1 X109.600 Y5.132 E0.0758
G1 X90.400 Y5.132 E2.5544
G1 X90.400 Y4.562 E0.0758
;TYPE:WALL-OUTER
;WIDTH:0.800
G1 X90.400 Y0.800 E0.5005
G0 F1800 X90.400 Y0.400
M204 S2000.00
G0 F7200 X91.200 Y1.200
;TYPE:WALL-INNER
;WIDTH:0.800
G1 F3600 X108.800 Y1.200 E2.3415
G1 X108.800 Y4.332 E0.4167
G1 X91.200 Y4.332 E2.3415
G1 X91.200 Y1.600 E0.3635
G0 F3600 X91.200 Y1.200
G0 F7200 X92.000 Y2.000
G1 F3600 X108.000 Y2.000 E2.1286
G1 X108.000 Y3.532 E0.2038
G1 X92.000 Y3.532 E2.1286
G1 X92.000 Y2.400 E0.1506
G0 F3600 X92.000 Y2.000
;PRINTING_TIME: 16
;REMAINING_TIME: 6475
;LAYER:7
;Z:4.762
;HEIGHT:0.566
;HEIGHT-BELT:0.400
;PRINTING: default-box.3mf
;PRINTING_ID: 0
G0 F1200 Z4.762
G0 F7200 X90.400 Y0.400
M204 S1500.00
;TYPE:WALL-OUTER
;WIDTH:0.800
G1 F1800 X109.600 Y0.400 E2.5544
G1 X109.600 Y5.362 E0.6601
;TYPE:WALL-OUTER
;WIDTH:0.800
G1 X109.600 Y5.932 E0.0758
G1 X90.400 Y5.932 E2.5544
G1 X90.400 Y5.362 E0.0758
;TYPE:WALL-OUTER
;WIDTH:0.800
G1 X90.400 Y0.800 E0.6069
G0 F1800 X90.400 Y0.400
M204 S2000.00
G0 F7200 X91.200 Y1.200
;TYPE:WALL-INNER
;WIDTH:0.800
G1 F3600 X108.800 Y1.200 E2.3415
G1 X108.800 Y5.132 E0.5231
G1 X91.200 Y5.132 E2.3415
G1 X91.200 Y1.600 E0.4699
G0 F3600 X91.200 Y1.200
G0 F7200 X92.000 Y2.000
G1 F3600 X108.000 Y2.000 E2.1286
G1 X108.000 Y4.332 E0.3103
G1 X92.000 Y4.332 E2.1286
G1 X92.000 Y2.400 E0.2570
G0 F3600 X92.000 Y2.000
;PRINTING_TIME: 19
;REMAINING_TIME: 6471
;LAYER:8
;Z:5.328
;HEIGHT:0.566
;HEIGHT-BELT:0.400
;PRINTING: default-box.3mf
;PRINTING_ID: 0
G0 F1200 Z5.328
G0 F7200 X90.400 Y0.400
M204 S1500.00
;TYPE:WALL-OUTER
;WIDTH:0.800
G1 F1800 X109.600 Y0.400 E2.5544
G1 X109.600 Y6.162 E0.7666
;TYPE:WALL-OUTER
;WIDTH:0.800
G1 X109.600 Y6.732 E0.0758
G1 X90.400 Y6.732 E2.5544
G1 X90.400 Y6.162 E0.0758
;TYPE:WALL-OUTER
;WIDTH:0.800
G1 X90.400 Y0.800 E0.7134
G0 F1800 X90.400 Y0.400
M204 S2000.00
G0 F7200 X91.200 Y1.200
;TYPE:WALL-INNER
;WIDTH:0.800
G1 F3600 X108.800 Y1.200 E2.3415
G1 X108.800 Y5.932 E0.6295
G1 X91.200 Y5.932 E2.3415
G1 X91.200 Y1.600 E0.5763
G0 F3600 X91.200 Y1.200
G0 F7200 X92.000 Y2.000
G1 F3600 X108.000 Y2.000 E2.1286
G1 X108.000 Y5.132 E0.4167
G1 X92.000 Y5.132 E2.1286
G1 X92.000 Y2.400 E0.3635
G0 F3600 X92.000 Y2.000
G0 F7200 X97.862 Y2.400
;TYPE:FILL
;WIDTH:0.800
G1 F3600 X97.862 Y4.732 E0.3103
G0 F7200 X101.372 Y4.732
G1 F3600 X105.413 Y2.399 E0.6208
G0 F7200 X107.462 Y2.400
G1 F3600 X107.462 Y4.732 E0.3103
G0 F7200 X107.176 Y4.732
G1 F3600 X103.137 Y2.400 E0.6205
;PRINTING_TIME: 24
;REMAINING_TIME: 6467
;LAYER:9
;Z:5.894
;HEIGHT:0.566
;HEIGHT-BELT:0.400
;PRINTING: default-box.3mf
;PRINTING_ID: 0
G0 F1200 Z5.894
G0 F7200 X90.400 Y0.400
M204 S1500.00
;TYPE:WALL-OUTER
;WIDTH:0.800
G1 F1800 X109.600 Y0.400 E2.5544
G1 X109.600 Y6.962 E0.8730
;TYPE:WALL-OUTER
;WIDTH:0.800
G1 X109.600 Y7.532 E0.0758
G1 X90.400 Y7.532 E2.5544
G1 X90.400 Y6.962 E0.0758
;TYPE:WALL-OUTER
;WIDTH:0.800
G1 X90.400 Y0.800 E0.8198
G0 F1800 X90.400 Y0.400
M204 S2000.00
G0 F7200 X91.200 Y1.200
;TYPE:WALL-INNER
;WIDTH:0.800
G1 F3600 X108.800 Y1.200 E2.3415
G1 X108.800 Y6.732 E0.7360
G1 X91.200 Y6.732 E2.3415
G1 X91.200 Y1.600 E0.6828
G0 F3600 X91.200 Y1.200
G0 F7200 X92.000 Y2.000
G1 F3600 X108.000 Y2.000 E2.1286
G1 X108.000 Y5.932 E0.5231
G1 X92.000 Y5.932 E2.1286
G1 X92.000 Y2.400 E0.4699
G0 F3600 X92.000 Y2.000
G0 F7200 X98.145 Y2.400
;TYPE:FILL
;WIDTH:0.800
G1 F3600 X98.145 Y5.532 E0.4167
G0 F7200 X99.422 Y5.531
G1 F3600 X104.847 Y2.399 E0.8334
G0 F7200 X102.571 Y2.400
G1 F3600 X107.599 Y5.303 E0.7724
;PRINTING_TIME: 28
;REMAINING_TIME: 6462
;LAYER:10
;Z:6.460
;HEIGHT:0.566
;HEIGHT-BELT:0.400
;PRINTING: default-box.3mf
;PRINTING_ID: 0
G0 F1200 Z6.460
G0 F7200 X90.400 Y0.400
M204 S1500.00
;TYPE:WALL-OUTER
;WIDTH:0.800
G1 F1800 X109.600 Y0.400 E2.5544
G1 X109.600 Y7.762 E0.9794
;TYPE:WALL-OUTER
;WIDTH:0.800
G1 X109.600 Y8.332 E0.0758
G1 X90.400 Y8.332 E2.5544
G1 X90.400 Y7.762 E0.0758
;TYPE:WALL-OUTER
;WIDTH:0.800
G1 X90.400 Y0.800 E0.9262
G0 F1800 X90.400 Y0.400
M204 S2000.00
G0 F7200 X91.200 Y1.200
;TYPE:WALL-INNER
;WIDTH:0.800
G1 F3600 X108.800 Y1.200 E2.3415
G1 X108.800 Y7.532 E0.8424
G1 X91.200 Y7.532 E2.3415
G1 X91.200 Y1.600 E0.7892
G0 F3600 X91.200 Y1.200
G0 F7200 X92.000 Y2.000
G1 F3600 X108.000 Y2.000 E2.1286
G1 X108.000 Y6.732 E0.6295
G1 X92.000 Y6.732 E2.1286
G1 X92.000 Y2.400 E0.5763
G0 F3600 X92.000 Y2.000
G0 F7200 X98.428 Y2.400
;TYPE:FILL
;WIDTH:0.800
G1 F3600 X98.428 Y6.332 E0.5231
G0 F7200 X97.470 Y6.332
G1 F3600 X104.281 Y2.399 E1.0464
G0 F7200 X102.005 Y2.400
G1 F3600 X107.599 Y5.630 E0.8594
;PRINTING_TIME: 33
;REMAINING_TIME: 6458
;LAYER:11
;Z:7.026
;HEIGHT:0.566
;HEIGHT-BELT:0.400
;PRINTING: default-box.3mf
;PRINTING_ID: 0
G0 F1200 Z7.026
G0 F7200 X90.400 Y0.400
M204 S1500.00
;TYPE:WALL-OUTER
;WIDTH:0.800
G1 F1800 X109.600 Y0.400 E2.5544
G1 X109.600 Y8.562 E1.0859
;TYPE:WALL-OUTER
;WIDTH:0.800
G1 X109.600 Y9.132 E0.0758
G1 X90.400 Y9.132 E2.5544
G1 X90.400 Y8.562 E0.0758
;TYPE:WALL-OUTER
;WIDTH:0.800
G1 X90.400 Y0.800 E1.0327
G0 F1800 X90.400 Y0.400
M204 S2000.00
G0 F7200 X91.200 Y1.200
;TYPE:WALL-INNER
;WIDTH:0.800
G1 F3600 X108.800 Y1.200 E2.3415
G1 X108.800 Y8.332 E0.9488
G1 X91.200 Y8.332 E2.3415
G1 X91.200 Y1.600 E0.8956
G0 F3600 X91.200 Y1.200
G0 F7200 X92.000 Y2.000
G1 F3600 X108.000 Y2.000 E2.1286
G1 X108.000 Y7.532 E0.7360
G1 X92.000 Y7.532 E2.1286
G1 X92.000 Y2.400 E0.6828
G0 F3600 X92.000 Y2.000
G0 F7200 X95.519 Y7.131
;TYPE:FILL
;WIDTH:0.800
G1 F3600 X103.716 Y2.399 E1.2592
G0 F7200 X101.440 Y2.400
G1 F3600 X107.600 Y5.957 E0.9463
G0 F7200 X98.711 Y7.132
G1 F3600 X98.711 Y2.400 E0.6295
;PRINTING_TIME: 38
;REMAINING_TIME: 6453
;LAYER:12
;Z:7.592
;HEIGHT:0.566
;HEIGHT-BELT:0.400
;PRINTING: default-box.3mf
;PRINTING_ID: 0
G0 F1200 Z7.592
G0 F7200 X90.400 Y0.400
M204 S1500.00
;TYPE:WALL-OUTER
;WIDTH:0.800
G1 F1800 X109.600 Y0.400 E2.5544
G1 X109.600 Y9.362 E1.1923
;TYPE:WALL-OUTER
;WIDTH:0.800
G1 X109.600 Y9.932 E0.0758
G1 X90.400 Y9.932 E2.5544
G1 X90.400 Y9.362 E0.0758
;TYPE:WALL-OUTER
;WIDTH:0.800
G1 X90.400 Y0.800 E1.1391
G0 F1800 X90.400 Y0.400
M204 S2000.00
G0 F7200 X91.200 Y1.200
;TYPE:WALL-INNER
;WIDTH:0.800
G1 F3600 X108.800 Y1.200 E2.3415
G1 X108.800 Y9.132 E1.0553
G1 X91.200 Y9.132 E2.3415
G1 X91.200 Y1.600 E1.0021
G0 F3600 X91.200 Y1.200
G0 F7200 X92.000 Y2.000
G1 F3600 X108.000 Y2.000 E2.1286
G1 X108.000 Y8.332 E0.8424
G1 X92.000 Y8.332 E2.1286
G1 X92.000 Y2.400 E0.7892
G0 F3600 X92.000 Y2.000
G0 F7200 X93.566 Y7.932
;TYPE:FILL
;WIDTH:0.800
G1 F3600 X103.150 Y2.399 E1.4723
G0 F7200 X100.873 Y2.400
G1 F3600 X107.599 Y6.283 E1.0332
G0 F7200 X98.994 Y7.932
G1 F3600 X98.994 Y2.400 E0.7360
;PRINTING_TIME: 42
;REMAINING_TIME: 6448
;LAYER:13
;Z:8.158
;HEIGHT:0.566
;HEIGHT-BELT:0.400
;PRINTING: default-box.3mf
;PRINTING_ID: 0
G0 F1200 Z8.158
G0 F7200 X90.400 Y0.400
M204 S1500.00
;TYPE:WALL-OUTER
;WIDTH:0.800
G1 F1800 X109.600 Y0.400 E2.5544
G1 X109.600 Y10.162 E1.2987
;TYPE:WALL-OUTER
;WIDTH:0.800
G1 X109.600 Y10.732 E0.0758
G1 X90.400 Y10.732 E2.5544
G1 X90.400 Y10.162 E0.0758
;TYPE:WALL-OUTER
;WIDTH:0.800
G1 X90.400 Y0.800 E1.2455
G0 F1800 X90.400 Y0.400
M204 S2000.00
G0 F7200 X91.200 Y1.200
;TYPE:WALL-INNER
;WIDTH:0.800
G1 F3600 X108.800 Y1.200 E2.3415
G1 X108.800 Y9.932 E1.1617
G1 X91.200 Y9.932 E2.3415
G1 X91.200 Y1.600 E1.1085
G0 F3600 X91.200 Y1.200
G0 F7200 X92.000 Y2.000
G1 F3600 X108.000 Y2.000 E2.1286
G1 X108.000 Y9.132 E0.9488
G1 X92.000 Y9.132 E2.1286
G1 X92.000 Y2.400 E0.8956
G0 F3600 X92.000 Y2.000
G0 F7200 X92.399 Y8.279
;TYPE:FILL
;WIDTH:0.800
G1 F3600 X102.583 Y2.399 E1.5645
G0 F7200 X100.307 Y2.400
G1 F3600 X107.599 Y6.610 E1.1202
G0 F7200 X99.277 Y8.732
G1 F3600 X99.277 Y2.400 E0.8424
;PRINTING_TIME: 48
;REMAINING_TIME: 6443
;LAYER:14
;Z:8.724
;HEIGHT:0.566
;HEIGHT-BELT:0.400
;PRINTING: default-box.3mf
;PRINTING_ID: 0
G0 F1200 Z8.724
G0 F7200 X90.400 Y0.400
M204 S1500.00
;TYPE:WALL-OUTER
;WIDTH:0.800
G1 F1800 X109.600 Y0.400 E2.5544
G1 X109.600 Y10.962 E1.4052
;TYPE:WALL-OUTER
;WIDTH:0.800
G1 X109.600 Y11.532 E0.0758
G1 X90.400 Y11.532 E2.5544
G1 X90.400 Y10.962 E0.0758
;TYPE:WALL-OUTER
;WIDTH:0.800
G1 X90.400 Y0.800 E1.3520
G0 F1800 X90.400 Y0.400
M204 S2000.00
G0 F7200 X91.200 Y1.200
;TYPE:WALL-INNER
;WIDTH:0.800
G1 F3600 X108.800 Y1.200 E2.3415
G1 X108.800 Y10.732 E1.2681
G1 X91.200 Y10.732 E2.3415
G1 X91.200 Y1.600 E1.2149
G0 F3600 X91.200 Y1.200
G0 F7200 X92.000 Y2.000
G1 F3600 X108.000 Y2.000 E2.1286
G1 X108.000 Y9.932 E1.0553
G1 X92.000 Y9.932 E2.1286
G1 X92.000 Y2.400 E1.0021
G0 F3600 X92.000 Y2.000
G0 F7200 X92.399 Y7.952
;TYPE:FILL
;WIDTH:0.800
G1 F3600 X102.017 Y2.399 E1.4775
G0 F7200 X99.741 Y2.400
G1 F3600 X107.599 Y6.937 E1.2072
G0 F7200 X99.560 Y9.532
G1 F3600 X99.560 Y2.400 E0.9488
G0 F7200 X92.892 Y9.531
G1 F3600 X92.398 Y9.246 E0.0759
;PRINTING_TIME: 53
;REMAINING_TIME: 6437
;LAYER:15
;Z:9.290
;HEIGHT:0.566
;HEIGHT-BELT:0.400
;PRINTING: default-box.3mf
;PRINTING_ID: 0
G0 F1200 Z9.290
G0 F7200 X90.400 Y0.400
M204 S1500.00
;TYPE:WALL-OUTER
;WIDTH:0.800
G1 F1800 X109.600 Y0.400 E2.5544
G1 X109.600 Y11.762 E1.5116
;TYPE:WALL-OUTER
;WIDTH:0.800
G1 X109.600 Y12.332 E0.0758
G1 X90.400 Y12.332 E2.5544
G1 X90.400 Y11.762 E0.0758
;TYPE:WALL-OUTER
;WIDTH:0.800
G1 X90.400 Y0.800 E1.4584
G0 F1800 X90.400 Y0.400
M204 S2000.00
G0 F7200 X91.200 Y1.200
;TYPE:WALL-INNER
;WIDTH:0.800
G1 F3600 X108.800 Y1.200 E2.3415
G1 X108.800 Y11.532 E1.3746
G1 X91.200 Y11.532 E2.3415
G1 X91.200 Y1.600 E1.3214
G0 F3600 X91.200 Y1.200
G0 F7200 X92.000 Y2.000
G1 F3600 X108.000 Y2.000 E2.1286
G1 X108.000 Y10.732 E1.1617
G1 X92.000 Y10.732 E2.1286
G1 X92.000 Y2.400 E1.1085
G0 F3600 X92.000 Y2.000
G0 F7200 X92.399 Y7.626
;TYPE:FILL
;WIDTH:0.800
G1 F3600 X101.453 Y2.399 E1.3909
G0 F7200 X99.842 Y2.400
G1 F3600 X99.842 Y10.332 E1.0553
G0 F7200 X93.714 Y10.331
G1 F3600 X92.399 Y9.571 E0.2021
G0 F7200 X99.178 Y2.400
G1 F3600 X107.600 Y7.263 E1.2938
G0 F7200 X107.598 Y9.936
G1 F3600 X106.914 Y10.331 E0.1051
;PRINTING_TIME: 59
;REMAINING_TIME: 6432
;LAYER:16
;Z:9.856
;HEIGHT:0.566
;HEIGHT-BELT:0.400
;PRINTING: default-box.3mf
;PRINTING_ID: 0
G0 F1200 Z9.856
G0 F7200 X90.400 Y0.400
M204 S1500.00
;TYPE:WALL-OUTER
;WIDTH:0.800
G1 F1800 X109.600 Y0.400 E2.5544
G1 X109.600 Y12.562 E1.6180
;TYPE:WALL-OUTER
;WIDTH:0.800
G1 X109.600 Y13.132 E0.0758
G1 X90.400 Y13.132 E2.5544
G1 X90.400 Y12.562 E0.0758
;TYPE:WALL-OUTER
;WIDTH:0.800
G1 X90.400 Y0.800 E1.5648
G0 F1800 X90.400 Y0.400
M204 S2000.00
G0 F7200 X91.200 Y1.200
;TYPE:WALL-INNER
;WIDTH:0.800
G1 F3600 X108.800 Y1.200 E2.3415
G1 X108.800 Y12.332 E1.4810
G1 X91.200 Y12.332 E2.3415
G1 X91.200 Y1.600 E1.4278
G0 F3600 X91.200 Y1.200
G0 F7200 X92.000 Y2.000
G1 F3600 X108.000 Y2.000 E2.1286
G1 X108.000 Y11.532 E1.2681
G1 X92.000 Y11.532 E2.1286
G1 X92.000 Y2.400 E1.2149
G0 F3600 X92.000 Y2.000
G0 F7200 X92.399 Y7.300
;TYPE:FILL
;WIDTH:0.800
G1 F3600 X100.888 Y2.399 E1.3041
G0 F7200 X100.125 Y2.400
G1 F3600 X100.125 Y11.132 E1.1617
G0 F7200 X104.963 Y11.131
G1 F3600 X107.598 Y9.610 E0.4048
G0 F7200 X107.599 Y7.589
G1 F3600 X98.611 Y2.400 E1.3807
G0 F7200 X94.534 Y11.131
