;Sliced by ideaMaker 4.3.2.6470, 2023-04-18 22:42:58 UTC-0500
;Dimension: 200.000 9999.000 170.000 0.800
;Plate Shape: 0
;Origin Center: 0
;Belt Printer: 1
;Belt Base Y: 5612.178
;Belt Base Z: 0.000
;Belt Offset Y: 0.000
;Belt Offset Z: 3968.409
;Belt Gantry Angle: 45
;Belt Remove Z: 0.000
;Belt Repetition: 1
;Extruder Offset #1: 25.000 0.000
;Filament Diameter #1: 1.750
;Filament Diameter #2: 1.750
;Filament Compensation #1: 100.00
;Filament Compensation #2: 90.00
;Filament Density #1: 1240.00
;Filament Density #2: 1240.00
;Filament Type #1: PLA
;Filament Type #2: 
;Filament Name #1: [Raise3D] PLA 1.75mm
;Filament Name #2: 
;Firmware: Marlin
;Bounding Box: 77.560 109.625 -0.100 40.934 0.000 434.166
;Model Gap: 0.000
;
;
M92 E202.50000
M221 T0 S100.00
M140 S60.00
M104 T0 S200.00
M109 T0 S200.00
T0
M190 S60.00
G90 ; Set to Absolute Positioning
M82 ; Set extruder to absolute mode
G21 ; Metric values
;M808 L ; This is your looping code, any number after the L is the number of repeats, leave blank for infinite loops
M104 T0 S200 ; For some reason ideamaker forces the nozzle to cooldown when the command isnt even in the endgcode, this turns it straight back on after the loop, 245 is the degrees in this case
G28; Home
G92 X0 Y0 Z0 E0 ; zero out all axes (include extruder)
M83 ; set extruder to relative coordinates
G0 Z80 E25 ; extrude short Z line
G92 E0 Z0 ; Set all axis to 0
G0 X215 E40 F800 ; Primeline placed after the loop code so every looped print will get a primeline for better adhesion
G92 E0 Z0
M82
M117 Please stick...
;end of Start GCode
;TOTAL_NUM: 8
;PRINTING_TIME: 0
;REMAINING_TIME: 7584
M83
;LAYER:0
;Z:0.800
;HEIGHT:0.800
;HEIGHT-BELT:0.566
;BELT-FIRST-Z:0.800
M106 S255
;PRINTING: vagina65.stl
;PRINTING_ID: 7
M204 S2000.00
M205 X5.00 Y5.00
G0 F7200 X90.775 Y0.300
G0 F1200 Z0.800
M204 S1500.00
;TYPE:WALL-OUTER
;WIDTH:0.800
G1 F1800 X109.225 Y0.300 E3.4733
G1 X109.225 Y0.432 E0.0248
G1 X91.043 Y0.432 E3.4228
G0 F1800 X90.775 Y0.432
G0 F1800 X90.775 Y0.300
;PRINTING_TIME: 2
;REMAINING_TIME: 7582
;LAYER:1
;Z:1.366
;HEIGHT:0.566
;HEIGHT-BELT:0.400
;PRINTING: vagina65.stl
;PRINTING_ID: 7
M204 S2000.00
G0 F1200 Z1.366
G0 F7200 X90.875 Y0.400
M204 S1500.00
;TYPE:WALL-OUTER
;WIDTH:0.800
G1 F1800 X109.125 Y0.400 E2.4280
;TYPE:WALL-OUTER
;WIDTH:0.800
G1 X109.125 Y1.132 E0.0974
G1 X90.875 Y1.132 E2.4280
G1 X90.875 Y0.800 E0.0442
G0 F1800 X90.875 Y0.662
G0 F1800 X90.875 Y0.400
;PRINTING_TIME: 4
;REMAINING_TIME: 7581
;LAYER:2
;Z:1.932
;HEIGHT:0.566
;HEIGHT-BELT:0.400
;PRINTING: vagina65.stl
;PRINTING_ID: 7
M204 S2000.00
G0 F1200 Z1.932
G0 F7200 X90.875 Y0.400
M204 S1500.00
;TYPE:WALL-OUTER
;WIDTH:0.800
G1 F1800 X109.125 Y0.400 E2.4280
G1 X109.125 Y1.362 E0.1280
;TYPE:WALL-OUTER
;WIDTH:0.800
G1 X109.125 Y1.932 E0.0758
G1 X90.875 Y1.932 E2.4280
G1 X90.875 Y1.362 E0.0758
;TYPE:WALL-OUTER
;WIDTH:0.800
G1 X90.875 Y0.800 E0.0748
G0 F1800 X90.875 Y0.400
M204 S2000.00
G0 F7200 X91.275 Y1.166
M204 S1500.00
;TYPE:SOLID-FILL
;WIDTH:0.732
G1 F1950 X108.725 Y1.166 E2.1242
;PRINTING_TIME: 6
;REMAINING_TIME: 7578
;LAYER:3
;Z:2.498
;HEIGHT:0.566
;HEIGHT-BELT:0.400
;PRINTING: vagina65.stl
;PRINTING_ID: 7
M204 S2000.00
G0 F1200 Z2.498
G0 F7200 X90.875 Y0.400
M204 S1500.00
;TYPE:WALL-OUTER
;WIDTH:0.800
G1 F1800 X109.125 Y0.400 E2.4280
G1 X109.125 Y2.162 E0.2344
;TYPE:WALL-OUTER
;WIDTH:0.800
G1 X109.125 Y2.732 E0.0758
G1 X90.875 Y2.732 E2.4280
G1 X90.875 Y2.162 E0.0758
;TYPE:WALL-OUTER
;WIDTH:0.800
G1 X90.875 Y0.800 E0.1812
G0 F1800 X90.875 Y0.400
M204 S2000.00
G0 F7200 X91.275 Y1.566
M204 S1500.00
;TYPE:SOLID-FILL
;WIDTH:1.532
G1 F2025 X108.725 Y1.566 E4.4458
;PRINTING_TIME: 8
;REMAINING_TIME: 7576
;LAYER:4
;Z:3.064
;HEIGHT:0.566
;HEIGHT-BELT:0.400
;PRINTING: vagina65.stl
;PRINTING_ID: 7
M204 S2000.00
G0 F1200 Z3.064
G0 F7200 X90.875 Y0.400
M204 S1500.00
;TYPE:WALL-OUTER
;WIDTH:0.800
G1 F1800 X109.125 Y0.400 E2.4280
G1 X109.125 Y2.962 E0.3408
;TYPE:WALL-OUTER
;WIDTH:0.800
G1 X109.125 Y3.532 E0.0758
G1 X90.875 Y3.532 E2.4280
G1 X90.875 Y2.962 E0.0758
;TYPE:WALL-OUTER
;WIDTH:0.800
G1 X90.875 Y0.800 E0.2876
G0 F1800 X90.875 Y0.400
M204 S2000.00
G0 F7200 X91.675 Y1.200
;TYPE:WALL-INNER
;WIDTH:0.800
G1 F3600 X108.325 Y1.200 E2.2151
G1 X108.325 Y2.732 E0.2038
G1 X91.675 Y2.732 E2.2151
G1 X91.675 Y1.600 E0.1506
G0 F3600 X91.675 Y1.200
G0 F7200 X92.075 Y1.966
M204 S1500.00
;TYPE:SOLID-FILL
;WIDTH:0.732
G1 F2100 X107.925 Y1.966 E1.9295
;PRINTING_TIME: 11
;REMAINING_TIME: 7573
;LAYER:5
;Z:3.630
;HEIGHT:0.566
;HEIGHT-BELT:0.400
;PRINTING: vagina65.stl
;PRINTING_ID: 7
M204 S2000.00
G0 F1200 Z3.630
G0 F7200 X90.875 Y0.400
M204 S1500.00
;TYPE:WALL-OUTER
;WIDTH:0.800
G1 F1800 X109.125 Y0.400 E2.4280
G1 X109.125 Y3.762 E0.4473
;TYPE:WALL-OUTER
;WIDTH:0.800
G1 X109.125 Y4.332 E0.0758
G1 X90.875 Y4.332 E2.4280
G1 X90.875 Y3.762 E0.0758
;TYPE:WALL-OUTER
;WIDTH:0.800
G1 X90.875 Y0.800 E0.3941
G0 F1800 X90.875 Y0.400
M204 S2000.00
G0 F7200 X91.675 Y1.200
;TYPE:WALL-INNER
;WIDTH:0.800
G1 F3600 X108.325 Y1.200 E2.2151
G1 X108.325 Y3.532 E0.3103
G1 X91.675 Y3.532 E2.2151
G1 X91.675 Y1.600 E0.2570
G0 F3600 X91.675 Y1.200
G0 F7200 X92.075 Y2.366
M204 S1500.00
;TYPE:SOLID-FILL
;WIDTH:1.532
G1 F2100 X107.925 Y2.366 E4.0381
;PRINTING_TIME: 15
;REMAINING_TIME: 7570
;LAYER:6
;Z:4.196
;HEIGHT:0.566
;HEIGHT-BELT:0.400
;PRINTING: vagina65.stl
;PRINTING_ID: 7
M204 S2000.00
G0 F1200 Z4.196
G0 F7200 X90.875 Y0.400
M204 S1500.00
;TYPE:WALL-OUTER
;WIDTH:0.800
G1 F1800 X109.125 Y0.400 E2.4280
G1 X109.125 Y4.562 E0.5537
;TYPE:WALL-OUTER
;WIDTH:0.800
G1 X109.125 Y5.132 E0.0758
G1 X90.875 Y5.132 E2.4280
G1 X90.875 Y4.562 E0.0758
;TYPE:WALL-OUTER
;WIDTH:0.800
G1 X90.875 Y0.800 E0.5005
G0 F1800 X90.875 Y0.400
M204 S2000.00
G0 F7200 X91.675 Y1.200
;TYPE:WALL-INNER
;WIDTH:0.800
G1 F3600 X108.325 Y1.200 E2.2151
G1 X108.325 Y4.332 E0.4167
G1 X91.675 Y4.332 E2.2151
G1 X91.675 Y1.600 E0.3635
G0 F3600 X91.675 Y1.200
G0 F7200 X92.475 Y2.000
G1 F3600 X107.525 Y2.000 E2.0023
G1 X107.525 Y3.532 E0.2038
G1 X92.475 Y3.532 E2.0023
G1 X92.475 Y2.400 E0.1506
G0 F3600 X92.475 Y2.000
G0 F7200 X92.875 Y2.766
M204 S1500.00
;TYPE:SOLID-FILL
;WIDTH:0.732
G1 F2100 X107.125 Y2.766 E1.7347
;PRINTING_TIME: 19
;REMAINING_TIME: 7566
;LAYER:7
;Z:4.762
;HEIGHT:0.566
;HEIGHT-BELT:0.400
;PRINTING: vagina65.stl
;PRINTING_ID: 7
M204 S2000.00
G0 F1200 Z4.762
G0 F7200 X90.875 Y0.400
M204 S1500.00
;TYPE:WALL-OUTER
;WIDTH:0.800
G1 F1800 X109.125 Y0.400 E2.4280
G1 X109.125 Y5.362 E0.6601
;TYPE:WALL-OUTER
;WIDTH:0.800
G1 X109.125 Y5.932 E0.0758
G1 X90.875 Y5.932 E2.4280
G1 X90.875 Y5.362 E0.0758
;TYPE:WALL-OUTER
;WIDTH:0.800
G1 X90.875 Y0.800 E0.6069
G0 F1800 X90.875 Y0.400
M204 S2000.00
G0 F7200 X91.675 Y1.200
;TYPE:WALL-INNER
;WIDTH:0.800
G1 F3600 X108.325 Y1.200 E2.2151
G1 X108.325 Y5.132 E0.5231
G1 X91.675 Y5.132 E2.2151
G1 X91.675 Y1.600 E0.4699
G0 F3600 X91.675 Y1.200
G0 F7200 X92.475 Y2.000
G1 F3600 X107.525 Y2.000 E2.0023
G1 X107.525 Y4.332 E0.3103
G1 X92.475 Y4.332 E2.0023
G1 X92.475 Y2.400 E0.2570
G0 F3600 X92.475 Y2.000
G0 F7200 X92.875 Y3.166
M204 S1500.00
;TYPE:SOLID-FILL
;WIDTH:1.532
G1 F2100 X107.125 Y3.166 E3.6305
;PRINTING_TIME: 23
;REMAINING_TIME: 7562
;LAYER:8
;Z:5.328
;HEIGHT:0.566
;HEIGHT-BELT:0.400
;PRINTING: vagina65.stl
;PRINTING_ID: 7
M204 S2000.00
G0 F1200 Z5.328
G0 F7200 X90.875 Y0.400
M204 S1500.00
;TYPE:WALL-OUTER
;WIDTH:0.800
G1 F1800 X109.125 Y0.400 E2.4280
G1 X109.125 Y6.162 E0.7666
;TYPE:WALL-OUTER
;WIDTH:0.800
G1 X109.125 Y6.732 E0.0758
G1 X90.875 Y6.732 E2.4280
G1 X90.875 Y6.162 E0.0758
;TYPE:WALL-OUTER
;WIDTH:0.800
G1 X90.875 Y0.800 E0.7134
G0 F1800 X90.875 Y0.400
M204 S2000.00
G0 F7200 X91.675 Y1.200
;TYPE:WALL-INNER
;WIDTH:0.800
G1 F3600 X108.325 Y1.200 E2.2151
G1 X108.325 Y5.932 E0.6295
G1 X91.675 Y5.932 E2.2151
G1 X91.675 Y1.600 E0.5763
G0 F3600 X91.675 Y1.200
G0 F7200 X92.475 Y2.000
G1 F3600 X107.525 Y2.000 E2.0023
G1 X107.525 Y5.132 E0.4167
G1 X92.475 Y5.132 E2.0023
G1 X92.475 Y2.400 E0.3635
G0 F3600 X92.475 Y2.000
G0 F7200 X93.841 Y2.399
;TYPE:FILL
;WIDTH:0.800
G1 F3600 X96.173 Y4.731 E0.4388
G0 F7200 X98.367 Y2.399
G1 F3600 X100.699 Y4.731 E0.4388
G0 F7200 X102.892 Y2.399
G1 F3600 X105.224 Y4.731 E0.4388
;PRINTING_TIME: 27
;REMAINING_TIME: 7558
;LAYER:9
;Z:5.894
;HEIGHT:0.566
;HEIGHT-BELT:0.400
;PRINTING: vagina65.stl
;PRINTING_ID: 7
G0 F1200 Z5.894
G0 F7200 X90.875 Y0.400
M204 S1500.00
;TYPE:WALL-OUTER
;WIDTH:0.800
G1 F1800 X109.125 Y0.400 E2.4280
G1 X109.125 Y6.962 E0.8730
;TYPE:WALL-OUTER
;WIDTH:0.800
G1 X109.125 Y7.532 E0.0758
G1 X90.875 Y7.532 E2.4280
G1 X90.875 Y6.962 E0.0758
;TYPE:WALL-OUTER
;WIDTH:0.800
G1 X90.875 Y0.800 E0.8198
G0 F1800 X90.875 Y0.400
M204 S2000.00
G0 F7200 X91.675 Y1.200
;TYPE:WALL-INNER
;WIDTH:0.800
G1 F3600 X108.325 Y1.200 E2.2151
G1 X108.325 Y6.732 E0.7360
G1 X91.675 Y6.732 E2.2151
G1 X91.675 Y1.600 E0.6828
G0 F3600 X91.675 Y1.200
G0 F7200 X92.475 Y2.000
G1 F3600 X107.525 Y2.000 E2.0023
G1 X107.525 Y5.932 E0.5231
G1 X92.475 Y5.932 E2.0023
G1 X92.475 Y2.400 E0.4699
G0 F3600 X92.475 Y2.000
G0 F7200 X93.973 Y5.532
;TYPE:FILL
;WIDTH:0.800
G1 F3600 X97.105 Y2.399 E0.5894
G0 F7200 X98.498 Y5.532
G1 F3600 X101.631 Y2.399 E0.5895
G0 F7200 X103.024 Y5.532
G1 F3600 X106.156 Y2.399 E0.5894
;PRINTING_TIME: 31
;REMAINING_TIME: 7553
;LAYER:10
;Z:6.460
;HEIGHT:0.566
;HEIGHT-BELT:0.400
;PRINTING: vagina65.stl
;PRINTING_ID: 7
G0 F1200 Z6.460
G0 F7200 X90.875 Y0.400
M204 S1500.00
;TYPE:WALL-OUTER
;WIDTH:0.800
G1 F1800 X109.125 Y0.400 E2.4280
G1 X109.125 Y7.762 E0.9794
;TYPE:WALL-OUTER
;WIDTH:0.800
G1 X109.125 Y8.332 E0.0758
G1 X90.875 Y8.332 E2.4280
G1 X90.875 Y7.762 E0.0758
;TYPE:WALL-OUTER
;WIDTH:0.800
G1 X90.875 Y0.800 E0.9262
G0 F1800 X90.875 Y0.400
M204 S2000.00
G0 F7200 X91.675 Y1.200
;TYPE:WALL-INNER
;WIDTH:0.800
G1 F3600 X108.325 Y1.200 E2.2151
G1 X108.325 Y7.532 E0.8424
G1 X91.675 Y7.532 E2.2151
G1 X91.675 Y1.600 E0.7892
G0 F3600 X91.675 Y1.200
G0 F7200 X92.475 Y2.000
G1 F3600 X107.525 Y2.000 E2.0023
G1 X107.525 Y6.732 E0.6295
G1 X92.475 Y6.732 E2.0023
G1 X92.475 Y2.400 E0.5763
G0 F3600 X92.475 Y2.000
G0 F7200 X93.841 Y2.399
;TYPE:FILL
;WIDTH:0.800
G1 F3600 X97.773 Y6.331 E0.7398
G0 F7200 X98.367 Y2.399
G1 F3600 X102.298 Y6.331 E0.7397
G0 F7200 X102.892 Y2.399
G1 F3600 X106.824 Y6.331 E0.7398
G0 F7200 X93.247 Y6.331
G1 F3600 X92.874 Y5.958 E0.0702
;PRINTING_TIME: 36
;REMAINING_TIME: 7549
;LAYER:11
;Z:7.026
;HEIGHT:0.566
;HEIGHT-BELT:0.400
;PRINTING: vagina65.stl
;PRINTING_ID: 7
G0 F1200 Z7.026
G0 F7200 X90.875 Y0.400
M204 S1500.00
;TYPE:WALL-OUTER
;WIDTH:0.800
G1 F1800 X109.125 Y0.400 E2.4280
G1 X109.125 Y8.562 E1.0859
;TYPE:WALL-OUTER
;WIDTH:0.800
G1 X109.125 Y9.132 E0.0758
G1 X90.875 Y9.132 E2.4280
G1 X90.875 Y8.562 E0.0758
;TYPE:WALL-OUTER
;WIDTH:0.800
G1 X90.875 Y0.800 E1.0327
G0 F1800 X90.875 Y0.400
M204 S2000.00
G0 F7200 X91.675 Y1.200
;TYPE:WALL-INNER
;WIDTH:0.800
G1 F3600 X108.325 Y1.200 E2.2151
G1 X108.325 Y8.332 E0.9488
G1 X91.675 Y8.332 E2.2151
G1 X91.675 Y1.600 E0.8956
G0 F3600 X91.675 Y1.200
G0 F7200 X92.475 Y2.000
G1 F3600 X107.525 Y2.000 E2.0023
G1 X107.525 Y7.532 E0.7360
G1 X92.475 Y7.532 E2.0023
G1 X92.475 Y2.400 E0.6828
G0 F3600 X92.475 Y2.000
G0 F7200 X97.105 Y2.399
;TYPE:FILL
;WIDTH:0.800
G1 F3600 X92.874 Y6.631 E0.7961
G0 F7200 X96.899 Y7.131
G1 F3600 X101.631 Y2.399 E0.8903
G0 F7200 X106.156 Y2.399
G1 F3600 X101.424 Y7.131 E0.8903
G0 F7200 X105.950 Y7.131
G1 F3600 X107.123 Y5.958 E0.2207
;PRINTING_TIME: 40
;REMAINING_TIME: 7544
;LAYER:12
;Z:7.592
;HEIGHT:0.566
;HEIGHT-BELT:0.400
;PRINTING: vagina65.stl
;PRINTING_ID: 7
G0 F1200 Z7.592
G0 F7200 X90.875 Y0.400
M204 S1500.00
;TYPE:WALL-OUTER
;WIDTH:0.800
G1 F1800 X109.125 Y0.400 E2.4280
G1 X109.125 Y9.362 E1.1923
;TYPE:WALL-OUTER
;WIDTH:0.800
G1 X109.125 Y9.932 E0.0758
G1 X90.875 Y9.932 E2.4280
G1 X90.875 Y9.362 E0.0758
;TYPE:WALL-OUTER
;WIDTH:0.800
G1 X90.875 Y0.800 E1.1391
G0 F1800 X90.875 Y0.400
M204 S2000.00
G0 F7200 X91.675 Y1.200
;TYPE:WALL-INNER
;WIDTH:0.800
G1 F3600 X108.325 Y1.200 E2.2151
G1 X108.325 Y9.132 E1.0553
G1 X91.675 Y9.132 E2.2151
G1 X91.675 Y1.600 E1.0021
G0 F3600 X91.675 Y1.200
G0 F7200 X92.475 Y2.000
G1 F3600 X107.525 Y2.000 E2.0023
G1 X107.525 Y8.332 E0.8424
G1 X92.475 Y8.332 E2.0023
G1 X92.475 Y2.400 E0.7892
G0 F3600 X92.475 Y2.000
G0 F7200 X93.841 Y2.399
;TYPE:FILL
;WIDTH:0.800
G1 F3600 X99.373 Y7.931 E1.0408
G0 F7200 X103.898 Y7.931
G1 F3600 X98.367 Y2.399 E1.0407
G0 F7200 X102.892 Y2.399
G1 F3600 X107.124 Y6.631 E0.7962
G0 F7200 X94.847 Y7.931
G1 F3600 X92.874 Y5.958 E0.3712
;PRINTING_TIME: 45
;REMAINING_TIME: 7539
;LAYER:13
;Z:8.158
;HEIGHT:0.566
;HEIGHT-BELT:0.400
;PRINTING: vagina65.stl
;PRINTING_ID: 7
G0 F1200 Z8.158
G0 F7200 X90.875 Y0.400
M204 S1500.00
;TYPE:WALL-OUTER
;WIDTH:0.800
G1 F1800 X109.125 Y0.400 E2.4280
G1 X109.125 Y10.162 E1.2987
;TYPE:WALL-OUTER
;WIDTH:0.800
G1 X109.125 Y10.732 E0.0758
G1 X90.875 Y10.732 E2.4280
G1 X90.875 Y10.162 E0.0758
;TYPE:WALL-OUTER
;WIDTH:0.800
G1 X90.875 Y0.800 E1.2455
G0 F1800 X90.875 Y0.400
M204 S2000.00
G0 F7200 X91.675 Y1.200
;TYPE:WALL-INNER
;WIDTH:0.800
G1 F3600 X108.325 Y1.200 E2.2151
G1 X108.325 Y9.932 E1.1617
G1 X91.675 Y9.932 E2.2151
G1 X91.675 Y1.600 E1.1085
G0 F3600 X91.675 Y1.200
G0 F7200 X92.475 Y2.000
G1 F3600 X107.525 Y2.000 E2.0023
G1 X107.525 Y9.132 E0.9488
G1 X92.475 Y9.132 E2.0023
G1 X92.475 Y2.400 E0.8956
G0 F3600 X92.475 Y2.000
G0 F7200 X97.105 Y2.399
;TYPE:FILL
;WIDTH:0.800
G1 F3600 X92.874 Y6.631 E0.7961
G0 F7200 X95.298 Y8.732
G1 F3600 X101.631 Y2.399 E1.1915
G0 F7200 X106.156 Y2.399
G1 F3600 X99.824 Y8.732 E1.1914
G0 F7200 X104.349 Y8.732
G1 F3600 X107.123 Y5.958 E0.5219
;PRINTING_TIME: 51
;REMAINING_TIME: 7534
;LAYER:14
;Z:8.724
;HEIGHT:0.566
;HEIGHT-BELT:0.400
;PRINTING: vagina65.stl
;PRINTING_ID: 7
G0 F1200 Z8.724
G0 F7200 X90.875 Y0.400
M204 S1500.00
;TYPE:WALL-OUTER
;WIDTH:0.800
G1 F1800 X109.125 Y0.400 E2.4280
G1 X109.125 Y10.962 E1.4052
;TYPE:WALL-OUTER
;WIDTH:0.800
G1 X109.125 Y11.532 E0.0758
G1 X90.875 Y11.532 E2.4280
G1 X90.875 Y10.962 E0.0758
;TYPE:WALL-OUTER
;WIDTH:0.800
G1 X90.875 Y0.800 E1.3520
G0 F1800 X90.875 Y0.400
M204 S2000.00
G0 F7200 X91.675 Y1.200
;TYPE:WALL-INNER
;WIDTH:0.800
G1 F3600 X108.325 Y1.200 E2.2151
G1 X108.325 Y10.732 E1.2681
G1 X91.675 Y10.732 E2.2151
G1 X91.675 Y1.600 E1.2149
G0 F3600 X91.675 Y1.200
G0 F7200 X92.475 Y2.000
G1 F3600 X107.525 Y2.000 E2.0023
G1 X107.525 Y9.932 E1.0553
G1 X92.475 Y9.932 E2.0023
G1 X92.475 Y2.400 E1.0021
G0 F3600 X92.475 Y2.000
G0 F7200 X93.841 Y2.399
;TYPE:FILL
;WIDTH:0.800
G1 F3600 X100.973 Y9.531 E1.3419
G0 F7200 X105.498 Y9.531
G1 F3600 X98.367 Y2.399 E1.3418
G0 F7200 X102.892 Y2.399
G1 F3600 X107.123 Y6.631 E0.7961
G0 F7200 X96.447 Y9.531
G1 F3600 X92.874 Y5.958 E0.6723
;PRINTING_TIME: 56
;REMAINING_TIME: 7529
;LAYER:15
;Z:9.290
;HEIGHT:0.566
;HEIGHT-BELT:0.400
;PRINTING: vagina65.stl
;PRINTING_ID: 7
G0 F1200 Z9.290
G0 F7200 X90.875 Y0.400
M204 S1500.00
;TYPE:WALL-OUTER
;WIDTH:0.800
G1 F1800 X109.125 Y0.400 E2.4280
G1 X109.125 Y11.762 E1.5116
;TYPE:WALL-OUTER
;WIDTH:0.800
G1 X109.125 Y12.332 E0.0758
G1 X90.875 Y12.332 E2.4280
G1 X90.875 Y11.762 E0.0758
;TYPE:WALL-OUTER
;WIDTH:0.800
G1 X90.875 Y0.800 E1.4584
G0 F1800 X90.875 Y0.400
M204 S2000.00
G0 F7200 X91.675 Y1.200
;TYPE:WALL-INNER
;WIDTH:0.800
G1 F3600 X108.325 Y1.200 E2.2151
G1 X108.325 Y11.532 E1.3746
G1 X91.675 Y11.532 E2.2151
G1 X91.675 Y1.600 E1.3214
G0 F3600 X91.675 Y1.200
G0 F7200 X92.475 Y2.000
G1 F3600 X107.525 Y2.000 E2.0023
G1 X107.525 Y10.732 E1.1617
G1 X92.475 Y10.732 E2.0023
G1 X92.475 Y2.400 E1.1085
G0 F3600 X92.475 Y2.000
G0 F7200 X97.105 Y2.399
;TYPE:FILL
;WIDTH:0.800
G1 F3600 X92.874 Y6.631 E0.7961
G0 F7200 X93.698 Y10.332
G1 F3600 X101.631 Y2.399 E1.4926
G0 F7200 X106.156 Y2.399
G1 F3600 X98.224 Y10.332 E1.4925
G0 F7200 X102.749 Y10.332
G1 F3600 X107.123 Y5.958 E0.8230
;PRINTING_TIME: 61
;REMAINING_TIME: 7523
;LAYER:16
;Z:9.856
;HEIGHT:0.566
;HEIGHT-BELT:0.400
;PRINTING: vagina65.stl
;PRINTING_ID: 7
G0 F1200 Z9.856
G0 F7200 X90.875 Y0.400
M204 S1500.00
;TYPE:WALL-OUTER
;WIDTH:0.800
G1 F1800 X109.125 Y0.400 E2.4280
G1 X109.125 Y12.562 E1.6180
;TYPE:WALL-OUTER
;WIDTH:0.800
G1 X109.125 Y13.132 E0.0758
G1 X106.161 Y13.131 E0.3943
