;FLAVOR:Marlin
;TIME:8465
;Filament used: 40.346m
;Layer height: 0.565685
;Setting summary:
;  CATEGORY: BlackBelt
;    Belt Wall Speed: 10
;    Enable Secondary Print Fans: True
;    Secondary Print Fan Speed: 5
;  CATEGORY: Machine
;    Material GUID: 13ea3fda-52ef-4364-93ad-b23c0d1c6b29
;    Diameter: 1.75
;    Machine Width: 200
;    Machine Height: 170
;    Number of Extruders that are enabled: 1
;    Nozzle Diameter: 1.0
;    Gantry Angle: 45
;  CATEGORY: Quality
;    Layer Height: 0.4
;  CATEGORY: Shell
;  CATEGORY: Infill
;    Infill Density: 20
;  CATEGORY: Material
;    Default Printing Temperature: 230
;    Default Build Plate Temperature: 80
;    Retraction Distance: 4
;    Retraction Speed: 65
;    Standby Temperature: 180
;  CATEGORY: Speed
;  CATEGORY: Travel
;  CATEGORY: Cooling
;    Fan Speed: 30
;  CATEGORY: Support
;  CATEGORY: Build Plate Adhesion
;  CATEGORY: Dual Extrusion
;  CATEGORY: Mesh Fixes
;  CATEGORY: Special Modes
;  CATEGORY: Experimental
;  CATEGORY: Command Line Settings
;BLACKBELTPROCESSED
;Generated with Cura_SteamEngine 3.6.0
M140 S80
M105
M190 S80
M104 S230
M105
M109 S230
M82 ;absolute extrusion mode
G90               ; Set to Absolute Positioning
M82               ; Set extruder to absolute mode
G21               ; Metric values
G92 X0 Y0 Z0 E0   ; Set all axis to 0
;home X
G1 Y2             ; Move Y axis off the bed
G28 X0 F2000      ; Home X axis
G1 X170 Z5 F4000  ; Move X to the center
;probe Y
M908 P5 S10       ; Setting the motor current of the Y1 motor off
M908 P1 S10       ; Setting the motor current of the Y2 motor off
G1 Y20 G3000      ; Move Y up
M400              ; Wait for current moves to finish
M908 P5 S25       ; Setting the motor current of the Y1 motor very low
M908 P1 S25       ; Setting the motor current of the Y2 motor off
G1 Y0 F500        ; Move Y down into the belt
M400              ; Wait for current moves to finish
M908 P5 S140      ; Setting the motor current of the Y1 motor to normal
M908 P1 S140      ; Setting the motor current of the Y2 motor to normal
G92 Y0.1464
;purge
G1 Y2             ; Move Y axis off the bed
G1 F15000         ; Set high feedrate
G1 X170 F10000    ; Move the print head to the center and break the melt
G1 X335 Y 1 G1 E10; Extruder 10mm material and move to the side
G1 E15            ; Extrude 5mm more
G1 Z10 E18 F500   ; Move belt 5mm and keep extruding
G1 Z30            ; Move the belt a bit further without extruding
G92 Z0            ; Zero Belt
G92 E0            ; Zero the extruded length
G1 E-4 F3900      ; Retract 4mm at 65mm/s
;prepare printing
G1 E0             ; Move extruder back to 0
G92 E-1.5         ; Add 1.5mm start distance
M117 BLACKBELT Printing...

;˅˅˅˅˅˅˅˅˅˅˅˅˅˅˅˅ - copy from here / paste codes just under here - ˅˅˅˅˅˅˅˅˅˅˅˅˅˅˅˅

M107              ; Start with the fan off
G92 E0
G1 F3900 E-4
;LAYER_COUNT:379
;LAYER:0
M107
M203 Z30
;MESH:table_test-femalevagina.stl(1)
G0 F7200 X104.857 Y4.193 Z0.8
;TYPE:WALL-OUTER
G1 F3900 E0
G1 F180 X122.907 Y4.192 E3.0034
G1 X122.907 Y4.233 E3.01022
G1 X104.857 Y4.233 E3.13035
G1 X104.857 Y4.193 E3.13701
G0 F7200 X105.357 Y4.193
;MESH:NONMESH
G0 X104.857 Y4.119
;TIME_ELAPSED:18.279330
;LAYER:1
M140 S80
M106 P1 S0
M106 S10.9
;MESH:table_test-femalevagina.stl(1)
G0 F7800 X104.857 Y4.119 Z1.366
;TYPE:WALL-OUTER
G1 F600 X122.907 Y4.118 E6.14041
G1 X122.907 Y5.033 E6.29266
G1 X104.857 Y5.033 E9.03776
G1 X104.857 Y4.119 E9.18984
G0 F7800 X105.357 Y4.119
;MESH:NONMESH
G0 X104.857 Y4.044
;TIME_ELAPSED:22.290318
;LAYER:2
M106 P1 S1
M106 S21.9
;MESH:table_test-femalevagina.stl(1)
G0 F8400 X104.857 Y4.044 Z1.932
;TYPE:WALL-OUTER
G1 F600 X122.407 Y4.043 E12.11004
G1 X122.907 Y4.043 E12.19324
G1 X122.907 Y4.543 E12.24703
G1 X122.907 Y5.834 E12.46184
G1 X104.857 Y5.834 E15.46524
G1 X104.857 Y4.044 E15.76308
G0 F8400 X105.357 Y4.044
G1 F3900 E11.76308
;MESH:NONMESH
G0 F8400 X105.857 Y4.97
;TIME_ELAPSED:26.569518
;LAYER:3
M106 P1 S1
M106 S32.8
;MESH:table_test-femalevagina.stl(1)
G0 F9000 X105.857 Y4.97 Z2.498
;TYPE:WALL-INNER
G1 F3900 E15.76308
G1 F800 X121.907 Y4.969 E18.43369
G1 X121.907 Y5.634 E18.54434
G1 X105.857 Y5.634 E20.31763
G1 X105.857 Y4.97 E20.42811
G1 F3900 E16.42811
G0 F9000 X104.857 Y3.97
;TYPE:WALL-OUTER
G1 F3900 E20.42811
G1 F600 X122.407 Y3.969 E23.34831
G1 X122.907 Y3.969 E23.43151
G1 X122.907 Y4.469 E23.4853
G1 X122.907 Y6.634 E23.84554
G1 X104.857 Y6.634 E26.84893
G1 X104.857 Y3.97 E27.2922
G0 F9000 X105.357 Y3.97
G1 F3900 E23.2922
;MESH:NONMESH
G0 F9000 X105.857 Y4.896
;TIME_ELAPSED:33.817482
;LAYER:4
M106 P1 S2
M106 S43.7
;MESH:table_test-femalevagina.stl(1)
G0 X105.857 Y4.896 Z3.064
;TYPE:WALL-INNER
G1 F3900 E27.2922
G1 F800 X121.407 Y4.895 E29.87962
G1 X121.907 Y4.895 E29.96281
G1 X121.907 Y5.395 E30.0166
G1 X121.907 Y6.435 E30.18965
G1 X105.857 Y6.435 E32.86026
G1 X105.857 Y4.896 E33.11634
G1 F3900 E29.11634
G0 F9000 X104.857 Y3.896
;TYPE:WALL-OUTER
G1 F3900 E33.11634
G1 F600 X122.407 Y3.895 E36.03654
G1 X122.907 Y3.895 E36.11974
G1 X122.907 Y4.395 E36.17352
G1 X122.907 Y7.435 E36.67936
G1 X104.857 Y7.435 E39.68275
G1 X104.857 Y3.896 E40.27162
G0 F9000 X105.357 Y3.896
G1 F3900 E36.27162
;MESH:NONMESH
G0 F9000 X109.298 Y6.245
;TIME_ELAPSED:41.442284
;LAYER:5
M106 P1 S2
M106 S54.6
;MESH:table_test-femalevagina.stl(1)
G0 X109.298 Y6.245 Z3.63
;TYPE:FILL
G1 F3900 E40.27162
G1 F600 X109.733 Y5.811 E40.39431
G1 X118.218 Y5.811 E42.08853
G1 X117.784 Y6.245 E42.21108
G1 F3900 E38.21108
G0 F9000 X121.407 Y4.821
;TYPE:WALL-INNER
G1 F3900 E42.21108
G1 F800 X121.907 Y4.821 E42.29428
G1 X121.907 Y5.321 E42.34806
G1 X121.907 Y7.235 E42.66654
G1 X105.857 Y7.235 E45.33715
G1 X105.857 Y4.822 E45.73866
G1 X121.407 Y4.821 E48.32607
G1 F3900 E44.32607
G0 F9000 X122.407 Y3.821
;TYPE:WALL-OUTER
G1 F3900 E48.32607
G1 F600 X122.907 Y3.821 E48.40927
G1 X122.907 Y4.321 E48.46305
G1 X122.907 Y8.235 E49.11432
G1 X104.857 Y8.235 E52.11771
G1 X104.857 Y3.822 E52.85201
G1 X122.407 Y3.821 E55.77221
G0 F9000 X122.907 Y3.821
G1 F3900 E51.77221
;MESH:NONMESH
G0 F9000 X110.777 Y7.044
;TIME_ELAPSED:50.696547
;LAYER:6
M106 P1 S3
M106 S65.6
;MESH:table_test-femalevagina.stl(1)
G0 X110.777 Y7.044 Z4.196
;TYPE:FILL
G1 F3900 E55.77221
G1 F600 X109.47 Y5.738 E56.14113
G1 X117.955 Y5.737 E57.83535
G1 X119.262 Y7.044 E58.20442
G1 F3900 E54.20442
G0 F9000 X121.907 Y8.035
;TYPE:WALL-INNER
G1 F3900 E58.20442
G1 F800 X105.857 Y8.035 E60.87503
G1 X105.857 Y4.748 E61.42196
G1 X121.407 Y4.747 E64.00937
G1 X121.907 Y4.747 E64.09257
G1 X121.907 Y5.247 E64.14636
G1 X121.907 Y8.035 E64.61026
G1 F3900 E60.61026
G0 F9000 X122.907 Y9.035
;TYPE:WALL-OUTER
G1 F3900 E64.61026
G1 F600 X104.857 Y9.035 E67.61366
G1 X104.857 Y3.748 E68.49338
G1 X122.407 Y3.747 E71.41358
G1 X122.907 Y3.747 E71.49678
G1 X122.907 Y4.247 E71.55056
G1 X122.907 Y9.035 E72.34725
G0 F9000 X122.407 Y9.035
G1 F3900 E68.34725
;MESH:NONMESH
G0 F9000 X107.698 Y7.846
;TIME_ELAPSED:60.503929
;LAYER:7
M106 P1 S3
M106 S76.5
;MESH:table_test-femalevagina.stl(1)
G0 X107.698 Y7.846 Z4.762
;TYPE:FILL
G1 F3900 E72.34725
G1 F600 X109.88 Y5.663 E72.96354
G1 X118.366 Y5.663 E74.65796
G1 X116.183 Y7.846 E75.27439
G1 F3900 E71.27439
G0 F9000 X121.907 Y8.836
;TYPE:WALL-INNER
G1 F3900 E75.27439
G1 F800 X105.857 Y8.836 E77.945
G1 X105.857 Y4.674 E78.63753
G1 X121.407 Y4.673 E81.22494
G1 X121.907 Y4.673 E81.30814
G1 X121.907 Y5.173 E81.36193
G1 X121.907 Y8.836 E81.97142
G1 F3900 E77.97142
G0 F9000 X122.907 Y9.836
;TYPE:WALL-OUTER
G1 F3900 E81.97142
G1 F600 X104.857 Y9.836 E84.97482
G1 X104.857 Y3.674 E86.00014
G1 X122.407 Y3.673 E88.92034
G1 X122.907 Y3.673 E89.00353
G1 X122.907 Y4.173 E89.05732
G1 X122.907 Y9.836 E89.9996
G0 F9000 X122.407 Y9.836
G1 F3900 E85.9996
;MESH:NONMESH
G0 F9000 X112.378 Y8.645
;TIME_ELAPSED:70.869536
;LAYER:8
;MESH:table_test-femalevagina.stl(1)
G0 X112.378 Y8.645 Z5.328
;TYPE:FILL
G1 F3900 E89.9996
G1 F606.5 X109.321 Y5.588 E90.86283
G1 X117.806 Y5.588 E92.55705
G1 X120.863 Y8.645 E93.42028
G1 F3900 E89.42028
G0 F9000 X121.907 Y9.636
;TYPE:WALL-INNER
G1 F3900 E93.42028
G1 F808.7 X105.857 Y9.636 E96.09089
G1 X105.857 Y4.599 E96.92901
G1 X121.407 Y4.598 E99.51643
G1 X121.907 Y4.598 E99.59962
G1 X121.907 Y5.098 E99.65341
G1 X121.907 Y9.636 E100.4085
G1 F3900 E96.4085
G0 F9000 X122.907 Y10.636
;TYPE:WALL-OUTER
G1 F3900 E100.4085
G1 F606.5 X104.857 Y10.636 E103.4119
G1 X104.857 Y3.599 E104.58281
G1 X122.407 Y3.598 E107.50301
G1 X122.907 Y3.598 E107.5862
G1 X122.907 Y4.098 E107.63999
G1 X122.907 Y10.636 E108.72787
G0 F9000 X122.407 Y10.636
G1 F3900 E104.72787
;MESH:NONMESH
G0 F9000 X106.846 Y8.697
;TIME_ELAPSED:81.655285
;LAYER:9
;MESH:table_test-femalevagina.stl(1)
G0 X106.846 Y8.697 Z5.894
;TYPE:FILL
G1 F3900 E108.72787
G1 F639 X110.03 Y5.514 E109.62682
G1 X118.515 Y5.514 E111.32104
G1 X114.582 Y9.446 E112.43149
G1 F3900 E108.43149
G0 F9000 X121.907 Y10.437
;TYPE:WALL-INNER
G1 F3900 E112.43149
G1 F852 X105.857 Y10.437 E115.1021
G1 X105.857 Y4.525 E116.08582
G1 X121.407 Y4.524 E118.67323
G1 X121.907 Y4.524 E118.75643
G1 X121.907 Y5.024 E118.81021
G1 X121.907 Y10.437 E119.7109
G1 F3900 E115.7109
G0 F9000 X122.907 Y11.437
;TYPE:WALL-OUTER
G1 F3900 E119.7109
G1 F639 X104.857 Y11.437 E122.71429
G1 X104.857 Y3.525 E124.0308
G1 X122.407 Y3.524 E126.951
G1 X122.907 Y3.524 E127.03419
G1 X122.907 Y4.024 E127.08798
G1 X122.907 Y11.437 E128.32145
G0 F9000 X122.407 Y11.437
G1 F3900 E124.32145
;MESH:NONMESH
G0 F9000 X113.979 Y10.246
;TIME_ELAPSED:92.395035
;LAYER:10
;MESH:table_test-femalevagina.stl(1)
G0 X113.979 Y10.246 Z6.46
;TYPE:FILL
G1 F3900 E128.32145
G1 F660.8 X109.173 Y5.441 E129.67842
G1 X117.658 Y5.44 E131.37264
G1 X120.915 Y8.698 E132.29249
G1 F3900 E128.29249
G0 F9000 X121.907 Y11.237
;TYPE:WALL-INNER
G1 F3900 E132.29249
G1 F881.1 X105.857 Y11.237 E134.9631
G1 X105.857 Y4.451 E136.09224
G1 X121.407 Y4.45 E138.67965
G1 X121.907 Y4.45 E138.76285
G1 X121.907 Y4.95 E138.81664
G1 X121.907 Y11.237 E139.86275
G1 F3900 E135.86275
G0 F9000 X122.907 Y12.237
;TYPE:WALL-OUTER
G1 F3900 E139.86275
G1 F660.8 X104.857 Y12.237 E142.86615
G1 X104.857 Y3.451 E144.32808
G1 X122.407 Y3.45 E147.24828
G1 X122.907 Y3.45 E147.33147
G1 X122.907 Y3.95 E147.38526
G1 X122.907 Y12.237 E148.76416
G0 F9000 X122.407 Y12.237
G1 F3900 E144.76416
;MESH:NONMESH
G0 F9000 X106.846 Y8.697
;TIME_ELAPSED:103.215094
;LAYER:11
;MESH:table_test-femalevagina.stl(1)
G0 X106.846 Y8.697 Z7.026
;TYPE:FILL
G1 F3900 E148.76416
G1 F693.5 X110.177 Y5.366 E149.70476
G1 X118.663 Y5.366 E151.39918
G1 X112.981 Y11.047 E153.00351
G1 F3900 E149.00351
G0 F9000 X105.857 Y12.038
;TYPE:WALL-INNER
G1 F3900 E153.00351
G1 F924.6 X105.857 Y4.377 E154.27825
G1 X121.407 Y4.376 E156.86566
G1 X121.907 Y4.376 E156.94886
G1 X121.907 Y4.876 E157.00265
G1 X121.907 Y12.038 E158.19435
G1 X105.857 Y12.038 E160.86496
G1 F3900 E156.86496
G0 F9000 X104.857 Y13.038
;TYPE:WALL-OUTER
G1 F3900 E160.86496
G1 F693.5 X104.857 Y3.377 E162.47249
G1 X122.407 Y3.376 E165.39269
G1 X122.907 Y3.376 E165.47589
G1 X122.907 Y3.876 E165.52967
G1 X122.907 Y13.038 E167.05417
G1 X104.857 Y13.038 E170.05756
G0 F9000 X104.857 Y12.538
G1 F3900 E166.05756
;MESH:NONMESH
G0 F9000 X106.845 Y11.598
;TIME_ELAPSED:113.863245
;LAYER:12
;MESH:table_test-femalevagina.stl(1)
G0 X106.845 Y11.598 Z7.592
;TYPE:FILL
G1 F3900 E170.05756
G1 F766.4 X107.095 Y11.848 E170.12816
G1 X115.58 Y11.848 E171.82237
G1 X109.025 Y5.292 E173.6735
G1 X117.51 Y5.292 E175.36772
G1 X120.916 Y8.698 E176.3295
G1 F3900 E172.3295
G0 F9000 X121.907 Y4.802
;TYPE:WALL-INNER
G1 F3900 E176.3295
G1 F1021.8 X121.907 Y12.838 E177.66664
G1 X105.857 Y12.838 E180.33725
G1 X105.857 Y4.303 E181.75741
G1 X121.407 Y4.302 E184.34483
G1 X121.907 Y4.302 E184.42802
G1 X121.907 Y4.802 E184.48181
G1 F3900 E180.48181
G0 F9000 X122.907 Y3.802
;TYPE:WALL-OUTER
G1 F3900 E184.48181
G1 F766.4 X122.907 Y13.838 E186.15173
G1 X104.857 Y13.838 E189.15513
G1 X104.857 Y3.303 E190.90808
G1 X122.407 Y3.302 E193.82828
G1 X122.907 Y3.302 E193.91148
G1 X122.907 Y3.802 E193.96526
G0 F9000 X122.907 Y4.302
G1 F3900 E189.96526
;MESH:NONMESH
G0 F9000 X106.846 Y8.697
;TIME_ELAPSED:124.750255
;LAYER:13
;MESH:table_test-femalevagina.stl(1)
G0 X106.846 Y8.697 Z8.158
;TYPE:FILL
G1 F3900 E193.96526
G1 F807.1 X110.325 Y5.218 E194.94766
G1 X118.811 Y5.217 E196.64207
G1 X111.38 Y12.648 E198.74043
G1 X119.865 Y12.648 E200.43464
G1 X120.915 Y11.598 E200.73114
G1 F3900 E196.73114
G0 F9000 X121.907 Y13.639
;TYPE:WALL-INNER
G1 F3900 E200.73114
G1 F1076.2 X105.857 Y13.639 E203.40175
G1 X105.857 Y4.229 E204.96751
G1 X121.407 Y4.228 E207.55492
G1 X121.907 Y4.228 E207.63812
G1 X121.907 Y4.728 E207.69191
G1 X121.907 Y13.639 E209.17463
G1 F3900 E205.17463
G0 F9000 X122.907 Y14.639
;TYPE:WALL-OUTER
G1 F3900 E209.17463
G1 F807.1 X104.857 Y14.639 E212.17803
G1 X104.857 Y3.229 E214.07658
G1 X122.407 Y3.228 E216.99678
G1 X122.907 Y3.228 E217.07997
G1 X122.907 Y3.728 E217.13376
G1 X122.907 Y14.639 E218.94928
G0 F9000 X122.407 Y14.639
G1 F3900 E214.94928
;MESH:NONMESH
G0 F9000 X106.845 Y11.598
;TIME_ELAPSED:135.517060
;LAYER:14
;MESH:table_test-femalevagina.stl(1)
G0 X106.845 Y11.598 Z8.724
;TYPE:FILL
G1 F3900 E218.94928
G1 F841.9 X108.696 Y13.449 E219.47196
G1 X117.181 Y13.449 E221.16617
G1 X108.876 Y5.144 E223.51133
G1 X117.361 Y5.143 E225.20554
G1 X120.916 Y8.698 E226.2094
G1 F3900 E222.2094
G0 F9000 X121.907 Y4.653
;TYPE:WALL-INNER
G1 F3900 E226.2094
G1 F1122.5 X121.907 Y14.439 E227.83772
G1 X105.857 Y14.439 E230.50833
G1 X105.857 Y4.154 E232.21969
G1 X121.407 Y4.153 E234.8071
G1 X121.907 Y4.153 E234.8903
G1 X121.907 Y4.653 E234.94408
G1 F3900 E230.94408
G0 F9000 X122.907 Y3.653
;TYPE:WALL-OUTER
G1 F3900 E234.94408
G1 F841.9 X122.907 Y15.439 E236.90519
G1 X104.857 Y15.439 E239.90859
G1 X104.857 Y3.154 E241.95273
G1 X122.407 Y3.153 E244.87293
G1 X122.907 Y3.153 E244.95612
G1 X122.907 Y3.653 E245.00991
G0 F9000 X122.907 Y4.153
G1 F3900 E241.00991
;MESH:NONMESH
G0 F9000 X106.846 Y8.697
;TIME_ELAPSED:146.320414
;LAYER:15
;MESH:table_test-femalevagina.stl(1)
G0 X106.846 Y8.697 Z9.29
;TYPE:FILL
G1 F3900 E245.00991
G1 F876.2 X110.474 Y5.069 E246.03438
G1 X118.96 Y5.069 E247.7288
G1 X109.78 Y14.248 E250.32089
G1 X118.265 Y14.248 E252.0151
G1 X120.915 Y11.598 E252.76341
G1 F3900 E248.76341
G0 F9000 X121.907 Y15.239
;TYPE:WALL-INNER
G1 F3900 E252.76341
G1 F1168.3 X105.857 Y15.239 E255.43402
G1 X105.857 Y4.08 E257.2908
G1 X121.407 Y4.079 E259.87821
G1 X121.907 Y4.079 E259.96141
G1 X121.907 Y4.579 E260.0152
G1 X121.907 Y15.239 E261.78895
G1 F3900 E257.78895
G0 F9000 X122.907 Y16.239
;TYPE:WALL-OUTER
G1 F3900 E261.78895
G1 F876.2 X104.857 Y16.239 E264.79234
G1 X104.857 Y3.08 E266.98191
G1 X122.407 Y3.079 E269.90211
G1 X122.907 Y3.079 E269.98531
G1 X122.907 Y3.579 E270.03909
G1 X122.907 Y16.239 E272.14563
G0 F9000 X122.407 Y16.239
G1 F3900 E268.14563
;MESH:NONMESH
G0 F9000 X106.845 Y11.598
;TIME_ELAPSED:157.112668
;LAYER:16
;MESH:table_test-femalevagina.stl(1)
G0 X106.845 Y11.598 Z9.856
;TYPE:FILL
G1 F3900 E272.14563
G1 F910.5 X110.297 Y15.05 E273.1204
G1 X118.782 Y15.05 E274.81462
G1 X108.728 Y4.995 E277.65379
G1 X117.213 Y4.995 E279.34801
G1 X120.916 Y8.698 E280.39365
G1 F3900 E276.39365
G0 F9000 X121.907 Y4.505
;TYPE:WALL-INNER
G1 F3900 E280.39365
G1 F1213.9 X121.907 Y16.04 E282.313
G1 X105.857 Y16.04 E284.98361
G1 X105.857 Y4.006 E286.98599
G1 X121.407 Y4.005 E289.5734
G1 X121.907 Y4.005 E289.6566
G1 X121.907 Y4.505 E289.71038
G1 F3900 E285.71038
G0 F9000 X122.907 Y3.505
;TYPE:WALL-OUTER
G1 F3900 E289.71038
G1 F910.5 X122.907 Y17.04 E291.96251
G1 X104.857 Y17.04 E294.96591
G1 X104.857 Y3.006 E297.30107
G1 X122.407 Y3.005 E300.22127
G1 X122.907 Y3.005 E300.30447
G1 X122.907 Y3.505 E300.35825
G0 F9000 X122.907 Y4.005
G1 F3900 E296.35825
;MESH:NONMESH
G0 F9000 X106.845 Y8.698
;TIME_ELAPSED:167.921491
;LAYER:17
;MESH:table_test-femalevagina.stl(1)
G0 X106.845 Y8.698 Z10.422
;TYPE:FILL
G1 F3900 E300.35825
G1 F945.6 X110.622 Y4.921 E301.4248
G1 X119.108 Y4.92 E303.11921
G1 X108.179 Y15.849 E306.20533
G1 X116.664 Y15.849 E307.89954
G1 X120.915 Y11.598 E309.09993
G1 F3900 E305.09993
G0 F9000 X121.907 Y16.84
;TYPE:WALL-INNER
G1 F3900 E309.09993
