;FLAVOR:Marlin
;TIME:28296
;Filament used: 33.6756m
;Layer height: 0.282843
;Setting summary:
;  CATEGORY: BlackBelt
;    Belt Wall Speed: 10
;    Enable Secondary Print Fans: True
;    Secondary Print Fan Speed: 5
;  CATEGORY: Machine
;    Material GUID: 13ea3fda-52ef-4364-93ad-b23c0d1c6b29
;    Diameter: 1.75
;    Machine Width: 200
;    Machine Height: 170
;    Number of Extruders that are enabled: 1
;    Nozzle Diameter: 0.4
;    Gantry Angle: 45
;  CATEGORY: Quality
;    Layer Height: 0.2
;  CATEGORY: Shell
;    Outer Before Inner Walls: True
;  CATEGORY: Infill
;    Infill Density: 20
;  CATEGORY: Material
;    Default Printing Temperature: 200.0
;    Default Build Plate Temperature: 60.0
;    Retraction Distance: 4.0
;    Retraction Speed: 65.0
;    Standby Temperature: 180.0
;  CATEGORY: Speed
;  CATEGORY: Travel
;  CATEGORY: Cooling
;    Fan Speed: 100.0
;  CATEGORY: Support
;  CATEGORY: Build Plate Adhesion
;  CATEGORY: Dual Extrusion
;  CATEGORY: Mesh Fixes
;  CATEGORY: Special Modes
;  CATEGORY: Experimental
;  CATEGORY: Command Line Settings
;BLACKBELTPROCESSED
;Generated with Cura_SteamEngine 3.6.0
M140 S60
M105
M190 S60
M104 S200
M105
M109 S200
M82 ;absolute extrusion mode
G90               ; Set to Absolute Positioning
M82               ; Set extruder to absolute mode
G21               ; Metric values
G92 X0 Y0 Z0 E0   ; Set all axis to 0
;home X
G1 Y2             ; Move Y axis off the bed
G28 X0 F2000      ; Home X axis
G1 X170 Z5 F4000  ; Move X to the center
;probe Y
M908 P5 S10       ; Setting the motor current of the Y1 motor off
M908 P1 S10       ; Setting the motor current of the Y2 motor off
G1 Y20 G3000      ; Move Y up
M400              ; Wait for current moves to finish
M908 P5 S25       ; Setting the motor current of the Y1 motor very low
M908 P1 S25       ; Setting the motor current of the Y2 motor off
G1 Y0 F500        ; Move Y down into the belt
M400              ; Wait for current moves to finish
M908 P5 S140      ; Setting the motor current of the Y1 motor to normal
M908 P1 S140      ; Setting the motor current of the Y2 motor to normal
G92 Y-0.1536
;purge
G1 Y2             ; Move Y axis off the bed
G1 F15000         ; Set high feedrate
G1 X170 F10000    ; Move the print head to the center and break the melt
G1 X335 Y 1 G1 E10; Extruder 10mm material and move to the side
G1 E15            ; Extrude 5mm more
G1 Z10 E18 F500   ; Move belt 5mm and keep extruding
G1 Z30            ; Move the belt a bit further without extruding
G92 Z0            ; Zero Belt
G92 E0            ; Zero the extruded length
G1 E-4 F3900      ; Retract 4mm at 65mm/s
;prepare printing
G1 E0             ; Move extruder back to 0
G92 E-1.5         ; Add 1.5mm start distance
M117 BLACKBELT Printing...

;˅˅˅˅˅˅˅˅˅˅˅˅˅˅˅˅ - copy from here / paste codes just under here - ˅˅˅˅˅˅˅˅˅˅˅˅˅˅˅˅

M107              ; Start with the fan off
G92 E0
G1 F3900 E-4
;LAYER_COUNT:759
;LAYER:0
M107
M203 Z30
;MESH:table_test-femalevagina.stl(1)
G0 F7200 X104.557 Y3.927 Z0.4
;TYPE:WALL-OUTER
G1 F3900 E0
G1 F180 X123.207 Y3.926 E0.62065
G1 X123.207 Y4.166 E0.62863
G1 X104.557 Y4.166 E0.99947
G1 X104.557 Y3.927 E1.00742
G0 F7200 X104.757 Y3.927
;MESH:NONMESH
G0 X104.557 Y3.89
;TIME_ELAPSED:18.780076
;LAYER:1
M140 S60
M106 P1 S1
M106 S36.4
;MESH:table_test-femalevagina.stl(1)
G0 F7650 X104.557 Y3.89 Z0.683
;TYPE:WALL-OUTER
G1 F585 X123.007 Y3.889 E1.62141
G1 X123.207 Y3.889 E1.62807
G1 X123.207 Y4.089 E1.63238
G1 X123.207 Y4.567 E1.64829
G1 X104.557 Y4.567 E2.26893
G1 X104.557 Y3.89 E2.29146
G0 F7650 X104.757 Y3.89
;MESH:NONMESH
G0 X104.557 Y3.853
;TIME_ELAPSED:22.889088
;LAYER:2
M106 P1 S3
M106 S72.9
;MESH:table_test-femalevagina.stl(1)
G0 F8100 X104.557 Y3.853 Z0.966
;TYPE:WALL-OUTER
G1 F600 X123.007 Y3.852 E2.90545
G1 X123.207 Y3.852 E2.91211
G1 X123.207 Y4.052 E2.91642
G1 X123.207 Y4.967 E2.94687
G1 X104.557 Y4.967 E3.56752
G1 X104.557 Y3.853 E3.60459
G0 F8100 X104.757 Y3.853
G0 X104.957 Y4.253
;TYPE:WALL-INNER
G1 F781.8 X122.807 Y4.252 E4.19861
G1 X122.807 Y4.567 E4.20909
G1 X104.957 Y4.567 E4.6754
G1 X104.957 Y4.253 E4.68585
;MESH:NONMESH
G0 F8100 X104.557 Y3.815
;TIME_ELAPSED:29.823341
;LAYER:3
M106 P1 S5
M106 S109.3
;MESH:table_test-femalevagina.stl(1)
G0 F8550 X104.557 Y3.815 Z1.249
;TYPE:WALL-OUTER
G1 F600 X123.007 Y3.814 E5.29984
G1 X123.207 Y3.814 E5.3065
G1 X123.207 Y4.014 E5.31081
G1 X123.207 Y5.367 E5.35583
G1 X104.557 Y5.367 E5.97648
G1 X104.557 Y3.815 E6.02813
G0 F8550 X104.757 Y3.815
G0 X104.957 Y4.215
;TYPE:WALL-INNER
G1 F793.5 X122.607 Y4.214 E6.6155
G1 X122.807 Y4.214 E6.62215
G1 X122.807 Y4.414 E6.62646
G1 X122.807 Y4.967 E6.64486
G1 X104.957 Y4.967 E7.23889
G1 X104.957 Y4.215 E7.26391
;MESH:NONMESH
G0 F8550 X104.557 Y3.778
;TIME_ELAPSED:36.870327
;LAYER:4
M106 P1 S7
M106 S145.7
;MESH:table_test-femalevagina.stl(1)
G0 F9000 X104.557 Y3.778 Z1.532
;TYPE:WALL-OUTER
G1 F600 X123.007 Y3.777 E7.8779
G1 X123.207 Y3.777 E7.88456
G1 X123.207 Y3.977 E7.88887
G1 X123.207 Y5.767 E7.94844
G1 X104.557 Y5.767 E8.56909
G1 X104.557 Y3.778 E8.63528
G0 F9000 X104.757 Y3.778
G0 X104.957 Y4.178
;TYPE:WALL-INNER
G1 F800 X122.607 Y4.177 E9.22264
G1 X122.807 Y4.177 E9.2293
G1 X122.807 Y4.377 E9.23361
G1 X122.807 Y5.367 E9.26656
G1 X104.957 Y5.367 E9.86058
G1 X104.957 Y4.178 E9.90015
G0 F9000 X105.357 Y4.578
G1 F800 X122.407 Y4.577 E10.46755
G1 X122.407 Y4.967 E10.48053
G1 X105.357 Y4.967 E11.03232
G1 X105.357 Y4.578 E11.04527
G1 F3900 E7.04527
;MESH:NONMESH
G0 F9000 X104.557 Y3.741
;TIME_ELAPSED:46.798142
;LAYER:5
M106 P1 S9
M106 S182.1
;MESH:table_test-femalevagina.stl(1)
G0 X104.557 Y3.741 Z1.815
;TYPE:WALL-OUTER
G1 F3900 E11.04527
G1 F737.1 X123.007 Y3.74 E11.65926
G1 X123.207 Y3.74 E11.66592
G1 X123.207 Y3.94 E11.67023
G1 X123.207 Y6.168 E11.74437
G1 X104.557 Y6.168 E12.36502
G1 X104.557 Y3.741 E12.44578
G0 F9000 X104.757 Y3.741
G0 X104.957 Y4.141
;TYPE:WALL-INNER
G1 F982.8 X122.607 Y4.14 E13.03315
G1 X122.807 Y4.14 E13.03981
G1 X122.807 Y4.34 E13.04412
G1 X122.807 Y5.768 E13.09164
G1 X104.957 Y5.768 E13.68566
G1 X104.957 Y4.141 E13.73981
G0 F9000 X105.357 Y4.541
G1 F982.8 X122.207 Y4.54 E14.30055
G1 X122.407 Y4.54 E14.30721
G1 X122.407 Y4.74 E14.31152
G1 X122.407 Y5.368 E14.33242
G1 X105.357 Y5.368 E14.89982
G1 X105.357 Y4.541 E14.92734
G0 F9000 X105.757 Y4.941
G1 F982.8 X122.007 Y4.94 E15.46812
G1 X122.007 Y4.968 E15.46905
G1 X105.757 Y4.968 E15.50555
G1 X105.757 Y4.941 E15.50645
G1 F3900 E11.50645
;MESH:NONMESH
G0 F9000 X104.557 Y3.704
;TIME_ELAPSED:57.235619
;LAYER:6
M106 P1 S10
M106 S218.6
;MESH:table_test-femalevagina.stl(1)
G0 X104.557 Y3.704 Z2.098
;TYPE:WALL-OUTER
G1 F3900 E15.50645
G1 F754.4 X123.007 Y3.703 E16.12044
G1 X123.207 Y3.703 E16.12709
G1 X123.207 Y3.903 E16.1314
G1 X123.207 Y6.568 E16.22009
G1 X104.557 Y6.568 E16.84074
G1 X104.557 Y3.704 E16.93605
G0 F9000 X104.757 Y3.704
G0 X104.957 Y4.104
;TYPE:WALL-INNER
G1 F1005.9 X122.607 Y4.103 E17.52342
G1 X122.807 Y4.103 E17.53007
G1 X122.807 Y4.303 E17.53438
G1 X122.807 Y6.168 E17.59645
G1 X104.957 Y6.168 E18.19047
G1 X104.957 Y4.104 E18.25916
G0 F9000 X105.357 Y4.504
G1 F1005.9 X122.207 Y4.503 E18.8199
G1 X122.407 Y4.503 E18.82656
G1 X122.407 Y4.703 E18.83087
G1 X122.407 Y5.768 E18.86631
G1 X105.357 Y5.768 E19.43371
G1 X105.357 Y4.504 E19.47577
G0 F9000 X105.757 Y4.904
G1 F1005.9 X121.807 Y4.903 E20.0099
G1 X122.007 Y4.903 E20.01655
G1 X122.007 Y5.103 E20.02086
G1 X122.007 Y5.368 E20.02968
G1 X105.757 Y5.368 E20.57046
G1 X105.757 Y4.904 E20.5859
G1 F3900 E16.5859
;MESH:NONMESH
G0 F9000 X110.228 Y5.316
;TIME_ELAPSED:67.721798
;LAYER:7
M106 P1 S12
M106 S255
;MESH:table_test-femalevagina.stl(1)
G0 X110.228 Y5.316 Z2.381
;TYPE:FILL
G1 F3900 E20.5859
G1 F831.8 X114.47 Y5.316 E20.79765
G0 F9000 X114.468 Y5.318
G1 F831.8 X118.711 Y5.318 E21.00945
G1 F3900 E17.00945
G0 F9000 X123.007 Y3.666
;TYPE:WALL-OUTER
G1 F3900 E21.00945
G1 F831.8 X123.207 Y3.666 E21.01611
G1 X123.207 Y3.866 E21.02042
G1 X123.207 Y6.968 E21.12365
G1 X104.557 Y6.968 E21.74429
G1 X104.557 Y3.667 E21.85415
G1 X123.007 Y3.666 E22.46814
G0 F9000 X123.207 Y3.666
G0 X122.807 Y4.066
;TYPE:WALL-INNER
G1 F1109.1 X122.807 Y4.266 E22.47479
G1 X122.807 Y6.568 E22.5514
G1 X104.957 Y6.568 E23.14543
G1 X104.957 Y4.067 E23.22865
G1 X122.607 Y4.066 E23.81602
G1 X122.807 Y4.066 E23.82033
G0 F9000 X122.407 Y4.466
G1 F1109.1 X122.407 Y4.666 E23.82699
G1 X122.407 Y6.168 E23.87697
G1 X105.357 Y6.168 E24.44437
G1 X105.357 Y4.467 E24.50098
G1 X122.207 Y4.466 E25.06173
G1 X122.407 Y4.466 E25.06603
G0 F9000 X122.007 Y4.866
G1 F1109.1 X122.007 Y5.066 E25.07269
G1 X122.007 Y5.768 E25.09605
G1 X105.757 Y5.768 E25.63683
G1 X105.757 Y4.867 E25.66681
G1 X121.807 Y4.866 E26.20094
G1 X122.007 Y4.866 E26.20525
G1 F3900 E22.20525
;MESH:NONMESH
G0 F9000 X109.45 Y5.717
;TIME_ELAPSED:78.491783
;LAYER:8
;MESH:table_test-femalevagina.stl(1)
G0 X109.45 Y5.717 Z2.664
;TYPE:FILL
G1 F3900 E26.20525
G1 F865.8 X109.012 Y5.279 E26.23617
G1 X113.255 Y5.279 E26.44797
G1 X113.692 Y5.717 E26.47885
G1 X117.935 Y5.717 E26.69065
G1 X117.497 Y5.279 E26.72158
G1 F3900 E22.72158
G0 F9000 X123.007 Y3.629
;TYPE:WALL-OUTER
G1 F3900 E26.72158
G1 F865.8 X123.207 Y3.629 E26.72823
G1 X123.207 Y3.829 E26.73254
G1 X123.207 Y7.368 E26.85031
G1 X104.557 Y7.368 E27.47096
G1 X104.557 Y3.63 E27.59536
G1 X123.007 Y3.629 E28.20935
G0 F9000 X123.207 Y3.629
G0 X122.807 Y4.029
;TYPE:WALL-INNER
G1 F1154.4 X122.807 Y4.229 E28.216
G1 X122.807 Y6.968 E28.30715
G1 X104.957 Y6.968 E28.90118
G1 X104.957 Y4.03 E28.99895
G1 X122.607 Y4.029 E29.58632
G1 X122.807 Y4.029 E29.59063
G0 F9000 X122.407 Y4.429
G1 F1154.4 X122.407 Y4.629 E29.59728
G1 X122.407 Y6.568 E29.66181
G1 X105.357 Y6.568 E30.22921
G1 X105.357 Y4.43 E30.30036
G1 X122.207 Y4.429 E30.8611
G1 X122.407 Y4.429 E30.86541
G0 F9000 X122.007 Y4.829
G1 F1154.4 X122.007 Y5.029 E30.87207
G1 X122.007 Y6.168 E30.90997
G1 X105.757 Y6.168 E31.45075
G1 X105.757 Y4.83 E31.49528
G1 X121.807 Y4.829 E32.0294
G1 X122.007 Y4.829 E32.03371
G1 F3900 E28.03371
;MESH:NONMESH
G0 F9000 X109.426 Y6.117
;TIME_ELAPSED:89.212137
;LAYER:9
;MESH:table_test-femalevagina.stl(1)
G0 X109.426 Y6.117 Z2.947
;TYPE:FILL
G1 F3900 E32.03371
G1 F893.9 X110.301 Y5.242 E32.09548
G1 X114.544 Y5.241 E32.30728
G1 X113.668 Y6.117 E32.36912
G1 X117.911 Y6.117 E32.58092
G1 X118.787 Y5.241 E32.64277
G1 F3900 E28.64277
G0 F9000 X123.007 Y3.592
;TYPE:WALL-OUTER
G1 F3900 E32.64277
G1 F893.9 X123.207 Y3.592 E32.64942
G1 X123.207 Y3.792 E32.65373
G1 X123.207 Y7.768 E32.78605
G1 X104.557 Y7.768 E33.40669
G1 X104.557 Y3.593 E33.54563
G1 X123.007 Y3.592 E34.15962
G0 F9000 X123.207 Y3.592
G0 X122.807 Y3.992
;TYPE:WALL-INNER
G1 F1191.8 X122.807 Y4.192 E34.16628
G1 X122.807 Y7.368 E34.27197
G1 X104.957 Y7.368 E34.86599
G1 X104.957 Y3.993 E34.97831
G1 X122.607 Y3.992 E35.56568
G1 X122.807 Y3.992 E35.56999
G0 F9000 X122.407 Y4.392
G1 F1191.8 X122.407 Y4.592 E35.57664
G1 X122.407 Y6.968 E35.65571
G1 X105.357 Y6.968 E36.22311
G1 X105.357 Y4.393 E36.30881
G1 X122.207 Y4.392 E36.86955
G1 X122.407 Y4.392 E36.87386
G0 F9000 X122.007 Y4.792
G1 F1191.8 X122.007 Y4.992 E36.88052
G1 X122.007 Y6.568 E36.93296
G1 X105.757 Y6.568 E37.47374
G1 X105.757 Y4.793 E37.53281
G1 X121.807 Y4.792 E38.06693
G1 X122.007 Y4.792 E38.07124
G1 F3900 E34.07124
;MESH:NONMESH
G0 F9000 X110.251 Y6.518
;TIME_ELAPSED:99.920796
;LAYER:10
;MESH:table_test-femalevagina.stl(1)
G0 X110.251 Y6.518 Z3.23
;TYPE:FILL
G1 F3900 E38.07124
G1 F922.9 X108.938 Y5.205 E38.16393
G1 X113.18 Y5.205 E38.37569
G1 X114.494 Y6.518 E38.46841
G1 X118.736 Y6.518 E38.68016
G1 X117.423 Y5.205 E38.77285
G1 F3900 E34.77285
G0 F9000 X123.007 Y3.555
;TYPE:WALL-OUTER
G1 F3900 E38.77285
G1 F922.9 X123.207 Y3.555 E38.77951
G1 X123.207 Y3.755 E38.78382
G1 X123.207 Y8.169 E38.93071
G1 X104.557 Y8.169 E39.55136
G1 X104.557 Y3.556 E39.70487
G1 X123.007 Y3.555 E40.31886
G0 F9000 X123.207 Y3.555
G0 X122.807 Y3.955
;TYPE:WALL-INNER
G1 F1230.6 X122.807 Y4.155 E40.32552
G1 X122.807 Y7.769 E40.44579
G1 X104.957 Y7.769 E41.03981
G1 X104.957 Y3.956 E41.1667
G1 X122.607 Y3.955 E41.75407
G1 X122.807 Y3.955 E41.75838
G0 F9000 X122.407 Y4.355
G1 F1230.6 X122.407 Y4.555 E41.76504
G1 X122.407 Y7.369 E41.85868
G1 X105.357 Y7.369 E42.42608
G1 X105.357 Y4.356 E42.52635
G1 X122.207 Y4.355 E43.0871
G1 X122.407 Y4.355 E43.09141
G0 F9000 X122.007 Y4.755
G1 F1230.6 X122.007 Y4.955 E43.09806
G1 X122.007 Y6.969 E43.16508
G1 X105.757 Y6.969 E43.70586
G1 X105.757 Y4.756 E43.77951
G1 X121.807 Y4.755 E44.31363
G1 X122.007 Y4.755 E44.31794
G1 F3900 E40.31794
;MESH:NONMESH
G0 F9000 X108.625 Y6.919
;TIME_ELAPSED:110.663822
;LAYER:11
;MESH:table_test-femalevagina.stl(1)
G0 X108.625 Y6.919 Z3.513
;TYPE:FILL
G1 F3900 E44.31794
G1 F978.2 X110.375 Y5.168 E44.44152
G1 X114.618 Y5.168 E44.65332
G1 X112.867 Y6.919 E44.77693
G1 X117.11 Y6.919 E44.98873
G1 X118.861 Y5.168 E45.11234
G1 X121.556 Y5.168 E45.24687
G1 X121.556 Y6.715 E45.32409
G1 X121.352 Y6.919 E45.33849
G1 F3900 E41.33849
G0 F9000 X123.207 Y8.569
;TYPE:WALL-OUTER
G1 F3900 E45.33849
G1 F978.2 X104.557 Y8.569 E45.95914
G1 X104.557 Y3.519 E46.1272
G1 X123.007 Y3.518 E46.74119
G1 X123.207 Y3.518 E46.74784
G1 X123.207 Y3.718 E46.75215
G1 X123.207 Y8.569 E46.91359
G0 F9000 X123.007 Y8.569
G0 X122.807 Y8.169
;TYPE:WALL-INNER
G1 F1304.3 X104.957 Y8.169 E47.50761
G1 X104.957 Y3.919 E47.64905
G1 X122.607 Y3.918 E48.23641
G1 X122.807 Y3.918 E48.24307
G1 X122.807 Y4.118 E48.24738
G1 X122.807 Y8.169 E48.38219
G0 F9000 X122.407 Y7.769
G1 F1304.3 X105.357 Y7.769 E48.94959
G1 X105.357 Y4.319 E49.0644
G1 X122.207 Y4.318 E49.62515
G1 X122.407 Y4.318 E49.6318
G1 X122.407 Y4.518 E49.63611
G1 X122.407 Y7.769 E49.7443
G0 F9000 X122.007 Y7.369
G1 F1304.3 X105.757 Y7.369 E50.28508
G1 X105.757 Y4.719 E50.37327
G1 X121.807 Y4.718 E50.90739
G1 X122.007 Y4.718 E50.91405
G1 X122.007 Y4.918 E50.91836
G1 X122.007 Y7.369 E50.99992
G1 F3900 E46.99992
;MESH:NONMESH
G0 F9000 X106.206 Y6.716
;TIME_ELAPSED:121.384869
;LAYER:12
;MESH:table_test-femalevagina.stl(1)
G0 X106.206 Y6.716 Z3.796
;TYPE:FILL
G1 F3900 E50.99992
G1 F1014.3 X106.809 Y7.319 E51.04249
G1 X111.051 Y7.319 E51.25424
G1 X108.864 Y5.132 E51.40863
G1 X113.107 Y5.132 E51.62043
G1 X115.294 Y7.319 E51.77482
G1 X119.537 Y7.319 E51.98663
G1 X117.349 Y5.131 E52.14109
G1 F3900 E48.14109
G0 F9000 X123.007 Y3.481
;TYPE:WALL-OUTER
G1 F3900 E52.14109
G1 F1014.3 X123.207 Y3.481 E52.14774
G1 X123.207 Y3.681 E52.15205
G1 X123.207 Y8.969 E52.32803
G1 X104.557 Y8.969 E52.94868
G1 X104.557 Y3.482 E53.13128
G1 X123.007 Y3.481 E53.74527
G0 F9000 X123.207 Y3.481
G0 X122.807 Y3.881
;TYPE:WALL-INNER
G1 F1352.4 X122.807 Y4.081 E53.75192
G1 X122.807 Y8.569 E53.90128
G1 X104.957 Y8.569 E54.4953
G1 X104.957 Y3.882 E54.65128
G1 X122.607 Y3.881 E55.23865
G1 X122.807 Y3.881 E55.24296
G0 F9000 X122.407 Y4.281
G1 F1352.4 X122.407 Y4.481 E55.24961
G1 X122.407 Y8.169 E55.37234
G1 X105.357 Y8.169 E55.93974
G1 X105.357 Y4.282 E56.0691
G1 X122.207 Y4.281 E56.62984
G1 X122.407 Y4.281 E56.63415
G0 F9000 X122.007 Y4.681
G1 F1352.4 X122.007 Y4.881 E56.64081
G1 X122.007 Y7.769 E56.73692
G1 X105.757 Y7.769 E57.27769
G1 X105.757 Y4.682 E57.38043
G1 X121.807 Y4.681 E57.91455
G1 X122.007 Y4.681 E57.91886
G1 F3900 E53.91886
;MESH:NONMESH
G0 F9000 X106.206 Y5.095
;TIME_ELAPSED:132.140997
;LAYER:13
;MESH:table_test-femalevagina.stl(1)
G0 X106.206 Y5.095 Z4.079
;TYPE:FILL
G1 F3900 E57.91886
G1 F1070.5 X106.206 Y7.718 E58.04979
G1 X107.825 Y7.718 E58.13061
G1 X110.449 Y5.094 E58.31585
G1 X114.692 Y5.093 E58.52765
G1 X112.067 Y7.718 E58.71296
G1 X116.31 Y7.718 E58.92476
G1 X118.935 Y5.093 E59.11007
G1 X121.555 Y5.093 E59.24086
G1 X121.555 Y6.716 E59.32188
G1 X120.553 Y7.718 E59.39261
G1 F3900 E55.39261
G0 F9000 X123.207 Y9.369
;TYPE:WALL-OUTER
G1 F3900 E59.39261
G1 F1070.5 X104.557 Y9.369 E60.01326
G1 X104.557 Y3.445 E60.2104
G1 X123.007 Y3.444 E60.82439
G1 X123.207 Y3.444 E60.83105
G1 X123.207 Y3.644 E60.83536
G1 X123.207 Y9.369 E61.02588
G0 F9000 X123.007 Y9.369
G0 X122.807 Y8.969
;TYPE:WALL-INNER
G1 F1427.4 X104.957 Y8.969 E61.6199
G1 X104.957 Y3.845 E61.79042
G1 X122.607 Y3.844 E62.37779
G1 X122.807 Y3.844 E62.38444
