;Sliced by ideaMaker 4.3.2.6470, 2023-04-14 11:31:55 UTC-0500
;Dimension: 200.000 9999.000 170.000 0.800
;Plate Shape: 0
;Origin Center: 0
;Belt Printer: 1
;Belt Base Y: 5432.960
;Belt Base Z: 0.000
;Belt Offset Y: 0.000
;Belt Offset Z: 3841.682
;Belt Gantry Angle: 45
;Belt Remove Z: 0.566
;Belt Repetition: 1
;Extruder Offset #1: 25.000 0.000
;Filament Diameter #1: 1.750
;Filament Diameter #2: 1.750
;Filament Compensation #1: 100.00
;Filament Compensation #2: 90.00
;Filament Density #1: 1240.00
;Filament Density #2: 1240.00
;Filament Type #1: PLA
;Filament Type #2: 
;Filament Name #1: [Raise3D] PLA 1.75mm
;Filament Name #2: 
;Firmware: Marlin
;Bounding Box: 33.697 174.380 0.000 26.870 0.400 268.966
;Model Gap: 0.000
;
;
M92 E325.00000
M221 T0 S100.00
M140 S60.00
M104 T0 S210.00
M109 T0 S210.00
T0
M190 S60.00
G90 ; Set to Absolute Positioning
M82 ; Set extruder to absolute mode
G21 ; Metric values
;M808 L ; This is your looping code, any number after the L is the number of repeats, leave blank for infinite loops
M104 T0 S210 ; For some reason ideamaker forces the nozzle to cooldown when the command isnt even in the endgcode, this turns it straight back on after the loop, 245 is the degrees in this case
G28; Home
G92 X0 Y0 Z0 E0 ; zero out all axes (include extruder)
M83 ; set extruder to relative coordinates
G0 Z80 E25 ; extrude short Z line
G92 E0 Z0 ; Set all axis to 0
G0 X215 E40 F800 ; Primeline placed after the loop code so every looped print will get a primeline for better adhesion
G92 E0 Z0
M82
M117 Please stick...
;end of Start GCode
;TOTAL_NUM: 1
;PRINTING_TIME: 0
;REMAINING_TIME: 27141
M83
;LAYER:0
;Z:0.800
;HEIGHT:0.800
;HEIGHT-BELT:0.566
;BELT-FIRST-Z:0.800
M106 S255
;PRINTING: little_table-final topvagina.stl
;PRINTING_ID: 0
G1 F1800 E-7.0000
M204 S2000.00
M205 X5.00 Y5.00
G0 F9000 X138.440 Y0.400
G0 F1200 Z0.800
M204 S1500.00
;TYPE:WALL-OUTER
;WIDTH:0.800
;HEIGHT:0.800
;HEIGHT-BELT:0.566
G1 F1200 E7.0000
G1 F1800 X167.711 Y0.400 E3.8942
G1 X167.703 Y1.122 E0.0961
G1 X138.839 Y0.409 E3.8413
G0 F1800 X138.440 Y0.400
;PRINTING_TIME: 4
;REMAINING_TIME: 27137
;LAYER:1
;Z:1.366
;HEIGHT:0.566
;HEIGHT-BELT:0.400
;PRINTING: little_table-final topvagina.stl
;PRINTING_ID: 0
G1 F1800 E-7.0000
M204 S2000.00
G0 F1200 Z1.366
G0 F9000 X138.440 Y0.500
G0 X167.321 Y0.409
G0 F9000 X167.621 Y0.409
G0 F9000 X167.721 Y0.400
M204 S1500.00
;TYPE:WALL-OUTER
;WIDTH:0.800
G1 F1200 E7.0000
G1 F1800 X167.710 Y1.352 E0.1267
;TYPE:WALL-OUTER
;WIDTH:0.800
G1 X167.703 Y1.922 E0.0758
G1 X106.015 Y0.400 E8.2095
G1 X138.210 Y0.400 E4.2832
;TYPE:WALL-OUTER
;WIDTH:0.800
G1 X167.321 Y0.400 E3.8729
G0 F1800 X167.721 Y0.400
G1 F1800 E-7.0000
M204 S2000.00
G0 F9000 X167.621 Y0.409
G0 X167.381 Y1.131
G0 F9000 X167.256 Y1.510
M204 S500.00
;TYPE:SOLID-FILL
;WIDTH:0.800
G1 F1200 E7.0000
G1 F2700 X166.320 Y1.140 E0.1337
G1 X165.175 Y1.126 E0.1280
G1 X164.028 Y1.111 E0.1229
G1 X162.883 Y1.097 E0.1173
G1 X161.737 Y1.082 E0.1119
G1 X160.592 Y1.068 E0.1064
G1 X159.446 Y1.054 E0.1012
G1 X158.300 Y1.040 E0.0959
G1 X157.154 Y1.025 E0.0905
G1 X156.009 Y1.011 E0.0849
G1 X154.863 Y0.997 E0.0799
G1 X153.718 Y0.982 E0.0743
G1 X152.572 Y0.968 E0.0690
G1 X151.426 Y0.954 E0.0637
G1 X150.281 Y0.940 E0.0583
G1 X149.135 Y0.925 E0.0528
G1 X147.989 Y0.911 E0.0475
G1 X146.844 Y0.896 E0.0419
G1 X145.698 Y0.882 E0.0366
G1 X144.552 Y0.868 E0.0313
G1 X143.918 Y0.799 E0.0848
;PRINTING_TIME: 10
;REMAINING_TIME: 27131
;LAYER:2
;Z:1.932
;HEIGHT:0.566
;HEIGHT-BELT:0.400
;PRINTING: little_table-final topvagina.stl
;PRINTING_ID: 0
G1 F1800 E-7.0000
M204 S2000.00
G0 F1200 Z1.932
G0 F9000 X162.388 Y1.791
;TYPE:WALL-INNER
;WIDTH:0.800
G1 F1200 E7.0000
G1 F3600 X162.395 Y1.200 E0.0786
G1 X166.921 Y1.200 E0.6021
G1 X166.913 Y1.902 E0.0934
G1 X162.787 Y1.800 E0.5491
G0 F3600 X162.388 Y1.791
G1 F1800 E-7.0000
G0 F9000 X167.341 Y0.485
G0 F9000 X167.631 Y0.409
G0 F9000 X167.731 Y0.400
M204 S1500.00
;TYPE:WALL-OUTER
;WIDTH:0.800
G1 F1200 E7.0000
G1 F1800 X167.710 Y2.152 E0.2331
;TYPE:WALL-OUTER
;WIDTH:0.800
G1 X167.703 Y2.722 E0.0758
G1 X73.590 Y0.400 E12.5247
G1 X105.785 Y0.400 E4.2832
;TYPE:WALL-OUTER
;WIDTH:0.800
G1 X167.331 Y0.400 E8.1881
G0 F1800 X167.731 Y0.400
G1 F1800 E-7.0000
M204 S2000.00
G0 F9000 X167.631 Y0.409
G0 X162.371 Y1.427
G0 F9000 X161.979 Y1.503
M204 S1500.00
;TYPE:SOLID-FILL
;WIDTH:0.800
G1 F1200 E7.0000
G1 F3150 X161.318 Y2.164 E0.1244
G1 F1800 E-7.0000
M204 S2000.00
G0 F9000 X160.214 Y2.136
M204 S1500.00
G1 F1200 E7.0000
G1 F3150 X161.551 Y0.799 E0.2516
G1 F1800 E-7.0000
M204 S2000.00
G0 F9000 X160.420 Y0.799
M204 S1500.00
G1 F1200 E7.0000
G1 F3150 X159.110 Y2.110 E0.2466
G1 F1800 E-7.0000
M204 S2000.00
G0 F9000 X158.006 Y2.082
M204 S1500.00
G1 F1200 E7.0000
G1 F3150 X159.289 Y0.799 E0.2414
G1 F1800 E-7.0000
M204 S2000.00
G0 F9000 X158.157 Y0.799
M204 S1500.00
G1 F1200 E7.0000
G1 F3150 X156.902 Y2.055 E0.2362
G1 F1800 E-7.0000
M204 S2000.00
G0 F9000 X155.798 Y2.027
M204 S1500.00
G1 F1200 E7.0000
G1 F3150 X157.026 Y0.799 E0.2310
G1 F1800 E-7.0000
M204 S2000.00
G0 F9000 X155.895 Y0.799
M204 S1500.00
G1 F1200 E7.0000
G1 F3150 X154.693 Y2.001 E0.2262
G1 F1800 E-7.0000
M204 S2000.00
G0 F9000 X153.589 Y1.973
M204 S1500.00
G1 F1200 E7.0000
G1 F3150 X154.763 Y0.799 E0.2209
G1 F1800 E-7.0000
M204 S2000.00
G0 F9000 X153.632 Y0.799
M204 S1500.00
G1 F1200 E7.0000
G1 F3150 X152.485 Y1.946 E0.2158
G1 F1800 E-7.0000
M204 S2000.00
G0 F9000 X151.381 Y1.919
M204 S1500.00
G1 F1200 E7.0000
G1 F3150 X151.935 Y0.799 E0.2105
G1 X150.257 Y1.345 E0.2054
G1 X149.139 Y1.331 E0.2003
G1 X148.022 Y1.318 E0.1951
G1 X146.904 Y1.304 E0.1900
G1 X145.786 Y1.290 E0.1848
G1 X144.668 Y1.277 E0.1796
G1 X143.551 Y1.263 E0.1746
G1 X142.433 Y1.250 E0.1696
G1 X141.315 Y1.236 E0.1644
G1 X140.197 Y1.222 E0.1592
G1 X139.080 Y1.209 E0.1540
G1 X137.962 Y1.195 E0.1491
G1 X136.844 Y1.181 E0.1437
G1 X135.726 Y1.168 E0.1387
G1 X134.609 Y1.154 E0.1336
G1 X133.491 Y1.141 E0.1285
G1 X132.373 Y1.127 E0.1233
G1 X131.255 Y1.114 E0.1183
G1 X130.138 Y1.100 E0.1129
G1 X129.020 Y1.086 E0.1080
G1 X127.902 Y1.073 E0.1028
G1 X126.784 Y1.059 E0.0978
G1 X125.667 Y1.045 E0.0927
G1 X124.549 Y1.032 E0.0876
G1 X123.431 Y1.018 E0.0824
G1 X122.313 Y1.004 E0.0772
G1 X121.196 Y0.991 E0.0721
G1 X120.078 Y0.977 E0.0669
G1 X118.960 Y0.964 E0.0619
G1 X117.842 Y0.950 E0.0567
G1 X116.725 Y0.936 E0.0515
G1 X115.607 Y0.923 E0.0465
G1 X114.489 Y0.909 E0.0413
G1 X113.372 Y0.895 E0.0360
G1 X112.253 Y0.882 E0.0313
G1 X111.633 Y0.938 E0.0828
;PRINTING_TIME: 27
;REMAINING_TIME: 27114
;LAYER:3
;Z:2.498
;HEIGHT:0.566
;HEIGHT-BELT:0.400
;PRINTING: little_table-final topvagina.stl
;PRINTING_ID: 0
G1 F1800 E-7.0000
M204 S2000.00
G0 F1200 Z2.498
G0 F9000 X130.076 Y1.793
;TYPE:WALL-INNER
;WIDTH:0.800
G1 F1200 E7.0000
G1 F4200 X130.083 Y1.202 E0.0786
G1 X166.931 Y1.200 E4.9023
G1 X166.913 Y2.702 E0.1998
G1 X130.475 Y1.802 E4.8492
G0 F4200 X130.076 Y1.793
G1 F1800 E-7.0000
G0 F9000 X167.342 Y0.420
G0 F9000 X167.641 Y0.409
G0 F9000 X167.741 Y0.400
M204 S1500.00
;TYPE:WALL-OUTER
;WIDTH:0.800
G1 F1200 E7.0000
G1 F1800 X167.710 Y2.952 E0.3395
;TYPE:WALL-OUTER
;WIDTH:0.800
G1 X167.703 Y3.522 E0.0758
G1 X41.546 Y0.408 E16.7891
G1 X73.360 Y0.406 E4.2326
;TYPE:WALL-OUTER
;WIDTH:0.800
G1 X167.341 Y0.400 E12.5033
G0 F1800 X167.741 Y0.400
G1 F1800 E-7.0000
M204 S2000.00
G0 F9000 X167.641 Y0.409
G0 X166.761 Y1.587
G0 F9000 X166.522 Y1.907
M204 S1500.00
;TYPE:SOLID-FILL
;WIDTH:0.800
G1 F1200 E7.0000
G1 F3600 X165.985 Y1.936 E0.0578
G1 X164.839 Y1.922 E0.1264
G1 X163.693 Y1.907 E0.1210
G1 X162.548 Y1.893 E0.1156
G1 X161.402 Y1.879 E0.1104
G1 X160.257 Y1.864 E0.1047
G1 X159.111 Y1.850 E0.0995
G1 X157.965 Y1.836 E0.0940
G1 X156.820 Y1.822 E0.0885
G1 X155.674 Y1.808 E0.0831
G1 X154.529 Y1.793 E0.0777
G1 X153.382 Y1.779 E0.0725
G1 X152.237 Y1.765 E0.0668
G1 X151.092 Y1.751 E0.0615
G1 X149.946 Y1.736 E0.0562
G1 X148.800 Y1.722 E0.0509
G1 X147.655 Y1.708 E0.0453
G1 X146.509 Y1.694 E0.0400
G1 X145.364 Y1.679 E0.0345
G1 X144.218 Y1.665 E0.0290
G1 X143.589 Y1.602 E0.0841
G1 F1800 E-7.0000
M204 S2000.00
G0 F9000 X129.672 Y1.261
M204 S1500.00
G1 F1200 E7.0000
G1 F3600 X129.213 Y0.802 E0.0864
G1 F1800 E-7.0000
M204 S2000.00
G0 F9000 X128.081 Y0.802
M204 S1500.00
G1 F1200 E7.0000
G1 F3600 X129.456 Y2.177 E0.2587
G1 F1800 E-7.0000
M204 S2000.00
G0 F9000 X128.296 Y2.148
M204 S1500.00
G1 F1200 E7.0000
G1 F3600 X126.950 Y0.802 E0.2532
G1 F1800 E-7.0000
M204 S2000.00
G0 F9000 X125.819 Y0.802
M204 S1500.00
G1 F1200 E7.0000
G1 F3600 X127.136 Y2.119 E0.2478
G1 F1800 E-7.0000
M204 S2000.00
G0 F9000 X125.976 Y2.091
M204 S1500.00
G1 F1200 E7.0000
G1 F3600 X124.687 Y0.802 E0.2425
G1 F1800 E-7.0000
M204 S2000.00
G0 F9000 X123.556 Y0.802
M204 S1500.00
G1 F1200 E7.0000
G1 F3600 X124.816 Y2.062 E0.2371
G1 F1800 E-7.0000
M204 S2000.00
G0 F9000 X123.656 Y2.034
M204 S1500.00
G1 F1200 E7.0000
G1 F3600 X122.424 Y0.802 E0.2318
G1 F1800 E-7.0000
M204 S2000.00
G0 F9000 X121.293 Y0.802
M204 S1500.00
G1 F1200 E7.0000
G1 F3600 X122.496 Y2.005 E0.2263
G1 F1800 E-7.0000
M204 S2000.00
G0 F9000 X121.336 Y1.977
M204 S1500.00
G1 F1200 E7.0000
G1 F3600 X120.162 Y0.803 E0.2209
G1 F1800 E-7.0000
M204 S2000.00
G0 F9000 X119.031 Y0.803
M204 S1500.00
G1 F1200 E7.0000
G1 F3600 X120.176 Y1.948 E0.2154
G1 F1800 E-7.0000
M204 S2000.00
G0 F9000 X119.016 Y1.919
M204 S1500.00
G1 F1200 E7.0000
G1 F3600 X117.878 Y1.346 E0.2098
G1 X116.732 Y1.332 E0.2043
G1 X115.587 Y1.318 E0.1990
G1 X114.441 Y1.304 E0.1938
G1 X113.295 Y1.289 E0.1885
G1 X112.149 Y1.275 E0.1830
G1 X111.003 Y1.261 E0.1774
G1 X109.858 Y1.246 E0.1721
G1 X108.712 Y1.232 E0.1668
G1 X107.567 Y1.218 E0.1615
G1 X106.421 Y1.204 E0.1559
G1 X105.275 Y1.189 E0.1506
G1 X104.130 Y1.175 E0.1451
G1 X102.984 Y1.160 E0.1397
G1 X101.838 Y1.146 E0.1344
G1 X100.693 Y1.132 E0.1289
G1 X99.547 Y1.118 E0.1235
G1 X98.402 Y1.104 E0.1181
G1 X97.256 Y1.090 E0.1126
G1 X96.110 Y1.075 E0.1075
G1 X94.965 Y1.061 E0.1019
G1 X93.819 Y1.046 E0.0964
G1 X92.673 Y1.032 E0.0911
G1 X91.528 Y1.018 E0.0855
G1 X90.382 Y1.004 E0.0800
G1 X89.237 Y0.990 E0.0748
G1 X88.091 Y0.975 E0.0696
G1 X86.945 Y0.961 E0.0640
G1 X85.799 Y0.947 E0.0585
G1 X84.654 Y0.932 E0.0533
G1 X83.508 Y0.918 E0.0478
G1 X82.363 Y0.904 E0.0423
G1 X81.217 Y0.890 E0.0370
G1 X80.071 Y0.876 E0.0316
G1 X79.436 Y0.806 E0.0850
;PRINTING_TIME: 49
;REMAINING_TIME: 27092
;LAYER:4
;Z:3.064
;HEIGHT:0.566
;HEIGHT-BELT:0.400
;PRINTING: little_table-final topvagina.stl
;PRINTING_ID: 0
G1 F1800 E-7.0000
M204 S2000.00
G0 F1200 Z3.064
G0 F9000 X97.561 Y1.200
;TYPE:WALL-INNER
;WIDTH:0.800
G1 F1200 E7.0000
G1 F4200 X166.941 Y1.200 E9.2304
G1 X166.913 Y3.502 E0.3063
G1 X97.554 Y1.791 E9.2304
G1 X97.557 Y1.600 E0.0254
G0 F4200 X97.561 Y1.200
G1 F1800 E-7.0000
G0 F9000 X167.352 Y0.412
G0 F9000 X167.651 Y0.409
G0 F9000 X167.751 Y0.400
M204 S1500.00
;TYPE:WALL-OUTER
;WIDTH:0.800
G1 F1200 E7.0000
G1 F1800 X167.710 Y3.752 E0.4460
;TYPE:WALL-OUTER
;WIDTH:0.800
G1 X167.703 Y4.322 E0.0758
G1 X34.102 Y1.025 E17.7798
G1 X34.109 Y0.400 E0.0832
G1 X41.316 Y0.400 E0.9588
;TYPE:WALL-OUTER
;WIDTH:0.800
G1 X167.351 Y0.400 E16.7678
G0 F1800 X167.751 Y0.400
G1 F1800 E-7.0000
M204 S2000.00
G0 F9000 X167.651 Y0.409
G0 X166.892 Y2.051
G0 F9000 X166.725 Y2.414
M204 S1500.00
;TYPE:SOLID-FILL
;WIDTH:0.800
G1 F1200 E7.0000
G1 F1800 X165.863 Y3.276 E0.1622
G1 F1800 E-7.0000
M204 S2000.00
G0 F9000 X164.759 Y3.249
M204 S1500.00
G1 F1200 E7.0000
G1 F1800 X165.930 Y2.078 E0.2203
G1 F1800 E-7.0000
M204 S2000.00
G0 F9000 X164.826 Y2.050
M204 S1500.00
G1 F1200 E7.0000
G1 F1800 X163.654 Y3.222 E0.2205
G1 F1800 E-7.0000
M204 S2000.00
G0 F9000 X162.551 Y3.194
M204 S1500.00
G1 F1200 E7.0000
G1 F1800 X163.722 Y2.023 E0.2203
G1 F1800 E-7.0000
M204 S2000.00
G0 F9000 X162.618 Y1.996
M204 S1500.00
G1 F1200 E7.0000
G1 F1800 X161.447 Y3.167 E0.2203
G1 F1800 E-7.0000
M204 S2000.00
G0 F9000 X160.342 Y3.140
M204 S1500.00
G1 F1200 E7.0000
G1 F1800 X161.513 Y1.969 E0.2203
G1 F1800 E-7.0000
M204 S2000.00
G0 F9000 X160.410 Y1.941
M204 S1500.00
G1 F1200 E7.0000
G1 F1800 X159.239 Y3.112 E0.2203
G1 F1800 E-7.0000
M204 S2000.00
G0 F9000 X158.134 Y3.085
M204 S1500.00
G1 F1200 E7.0000
G1 F1800 X159.305 Y1.914 E0.2203
G1 F1800 E-7.0000
M204 S2000.00
G0 F9000 X158.201 Y1.887
M204 S1500.00
G1 F1200 E7.0000
G1 F1800 X157.030 Y3.058 E0.2203
G1 F1800 E-7.0000
M204 S2000.00
G0 F9000 X155.926 Y3.030
M204 S1500.00
G1 F1200 E7.0000
G1 F1800 X157.097 Y1.859 E0.2203
G1 F1800 E-7.0000
M204 S2000.00
G0 F9000 X155.993 Y1.832
M204 S1500.00
G1 F1200 E7.0000
G1 F1800 X154.822 Y3.003 E0.2203
G1 F1800 E-7.0000
M204 S2000.00
G0 F9000 X153.875 Y2.819
M204 S1500.00
G1 F1200 E7.0000
G1 F1800 X154.889 Y1.805 E0.1908
G1 F1800 E-7.0000
M204 S2000.00
G0 F9000 X161.513 Y1.969
M204 S1500.00
;TYPE:SOLID-FILL
;WIDTH:0.800
G1 F1200 E7.0000
G1 F3600 X161.316 Y1.600 E0.0694
G1 X160.014 Y1.771 E0.0642
G1 X158.896 Y1.757 E0.0589
G1 X157.779 Y1.743 E0.0539
G1 X156.661 Y1.730 E0.0487
G1 X155.543 Y1.716 E0.0439
G1 X154.888 Y1.805 E0.0879
G1 F1800 E-7.0000
M204 S2000.00
G0 F9000 X153.963 Y1.600
M204 S1500.00
G1 F1200 E7.0000
G1 F3600 X152.809 Y2.754 E0.2171
G1 F1800 E-7.0000
M204 S2000.00
G0 F9000 X153.913 Y2.781
M204 S1500.00
G1 F1200 E7.0000
G1 F3600 X154.076 Y2.618 E0.0307
G1 F1800 E-7.0000
M204 S2000.00
G0 F9000 X152.831 Y1.600
M204 S1500.00
G1 F1200 E7.0000
G1 F3600 X151.152 Y2.713 E0.2117
G1 X151.134 Y1.600 E0.2066
G1 X149.466 Y2.136 E0.2016
G1 X148.349 Y2.122 E0.1964
G1 X147.231 Y2.109 E0.1913
G1 X146.113 Y2.095 E0.1861
G1 X144.995 Y2.081 E0.1811
G1 X143.878 Y2.068 E0.1759
G1 X142.760 Y2.054 E0.1709
G1 X141.642 Y2.040 E0.1657
G1 X140.524 Y2.027 E0.1608
G1 X139.407 Y2.013 E0.1555
G1 X138.289 Y2.000 E0.1504
G1 X137.171 Y1.986 E0.1454
G1 X136.054 Y1.972 E0.1401
G1 X134.936 Y1.959 E0.1352
G1 X133.818 Y1.945 E0.1300
G1 X132.700 Y1.932 E0.1248
G1 X131.582 Y1.918 E0.1197
G1 X130.465 Y1.904 E0.1144
G1 X129.347 Y1.891 E0.1093
G1 X128.229 Y1.877 E0.1043
G1 X127.112 Y1.863 E0.0990
G1 X125.994 Y1.850 E0.0939
G1 X124.876 Y1.836 E0.0889
G1 X123.758 Y1.823 E0.0837
G1 X122.640 Y1.809 E0.0785
G1 X121.523 Y1.795 E0.0734
G1 X120.405 Y1.782 E0.0682
G1 X119.287 Y1.768 E0.0634
G1 X118.170 Y1.754 E0.0580
G1 X117.052 Y1.741 E0.0532
G1 X115.934 Y1.727 E0.0480
G1 X114.816 Y1.714 E0.0428
G1 X113.698 Y1.700 E0.0377
G1 X112.581 Y1.687 E0.0325
G1 X111.463 Y1.673 E0.0273
G1 X110.851 Y1.719 E0.0817
G1 F1800 E-7.0000
M204 S2000.00
G0 F9000 X97.142 Y1.852
M204 S1500.00
G1 F1200 E7.0000
G1 F3600 X96.822 Y2.172 E0.0602
G1 F1800 E-7.0000
M204 S2000.00
G0 F9000 X95.718 Y2.145
M204 S1500.00
G1 F1200 E7.0000
G1 F3600 X97.063 Y0.799 E0.2532
G1 F1800 E-7.0000
M204 S2000.00
G0 F9000 X95.932 Y0.799
M204 S1500.00
G1 F1200 E7.0000
G1 F3600 X94.614 Y2.117 E0.2480
G1 F1800 E-7.0000
M204 S2000.00
G0 F9000 X93.509 Y2.090
M204 S1500.00
G1 F1200 E7.0000
G1 F3600 X94.801 Y0.799 E0.2430
G1 F1800 E-7.0000
M204 S2000.00
G0 F9000 X93.669 Y0.799
M204 S1500.00
G1 F1200 E7.0000
G1 F3600 X92.406 Y2.063 E0.2377
G1 F1800 E-7.0000
M204 S2000.00
G0 F9000 X91.301 Y2.036
M204 S1500.00
G1 F1200 E7.0000
G1 F3600 X92.538 Y0.799 E0.2327
G1 F1800 E-7.0000
M204 S2000.00
G0 F9000 X91.406 Y0.799
M204 S1500.00
G1 F1200 E7.0000
G1 F3600 X90.197 Y2.008 E0.2275
G1 F1800 E-7.0000
M204 S2000.00
G0 F9000 X89.093 Y1.982
M204 S1500.00
G1 F1200 E7.0000
G1 F3600 X90.275 Y0.799 E0.2225
G1 F1800 E-7.0000
M204 S2000.00
G0 F9000 X89.144 Y0.799
M204 S1500.00
G1 F1200 E7.0000
G1 F3600 X87.989 Y1.954 E0.2173
G1 F1800 E-7.0000
M204 S2000.00
G0 F9000 X86.885 Y1.927
M204 S1500.00
G1 F1200 E7.0000
G1 F3600 X87.446 Y0.799 E0.2120
G1 X85.765 Y1.349 E0.2068
G1 X84.647 Y1.336 E0.2019
G1 X83.529 Y1.322 E0.1967
G1 X82.412 Y1.308 E0.1917
G1 X81.294 Y1.295 E0.1865
G1 X80.176 Y1.281 E0.1815
G1 X79.058 Y1.267 E0.1763
G1 X77.941 Y1.254 E0.1711
G1 X76.823 Y1.240 E0.1660
G1 X75.705 Y1.226 E0.1608
G1 X74.587 Y1.213 E0.1556
G1 X73.470 Y1.199 E0.1505
G1 X72.352 Y1.186 E0.1454
G1 X71.234 Y1.172 E0.1402
G1 X70.116 Y1.158 E0.1352
G1 X68.999 Y1.145 E0.1299
G1 X67.881 Y1.131 E0.1250
G1 X66.763 Y1.117 E0.1197
G1 X65.645 Y1.104 E0.1145
G1 X64.528 Y1.090 E0.1096
G1 X63.410 Y1.077 E0.1045
G1 X62.292 Y1.063 E0.0991
G1 X61.174 Y1.049 E0.0941
