;Sliced by ideaMaker 4.3.2.6470, 2023-04-18 10:46:01 UTC-0500
;Dimension: 200.000 9999.000 170.000 0.800
;Plate Shape: 0
;Origin Center: 0
;Belt Printer: 1
;Belt Base Y: 5323.906
;Belt Base Z: 0.000
;Belt Offset Y: 0.000
;Belt Offset Z: 3764.570
;Belt Gantry Angle: 45
;Belt Remove Z: 0.000
;Belt Repetition: 1
;Extruder Offset #1: 25.000 0.000
;Filament Diameter #1: 1.750
;Filament Diameter #2: 1.750
;Filament Compensation #1: 100.00
;Filament Compensation #2: 90.00
;Filament Density #1: 1240.00
;Filament Density #2: 1240.00
;Filament Type #1: PLA
;Filament Type #2: 
;Filament Name #1: [Raise3D] PLA 1.75mm
;Filament Name #2: 
;Firmware: Marlin
;Bounding Box: 81.515 118.485 -0.100 52.000 0.000 237.766
;Model Gap: 0.000
;
;
M92 E203.00000
M221 T0 S100.00
M140 S60.00
M104 T0 S200.00
M109 T0 S200.00
T0
M190 S60.00
G90 ; Set to Absolute Positioning
M82 ; Set extruder to absolute mode
G21 ; Metric values
;M808 L ; This is your looping code, any number after the L is the number of repeats, leave blank for infinite loops
M104 T0 S200 ; For some reason ideamaker forces the nozzle to cooldown when the command isnt even in the endgcode, this turns it straight back on after the loop, 245 is the degrees in this case
G28; Home
G92 X0 Y0 Z0 E0 ; zero out all axes (include extruder)
M83 ; set extruder to relative coordinates
G0 Z80 E25 ; extrude short Z line
G92 E0 Z0 ; Set all axis to 0
G0 X215 E40 F800 ; Primeline placed after the loop code so every looped print will get a primeline for better adhesion
G92 E0 Z0
M82
M117 Please stick...
;end of Start GCode
;TOTAL_NUM: 1
;PRINTING_TIME: 0
;REMAINING_TIME: 11691
M83
;LAYER:0
;Z:0.800
;HEIGHT:0.800
;HEIGHT-BELT:0.566
;BELT-FIRST-Z:0.800
M106 S255
;PRINTING: square_tube.stl
;PRINTING_ID: 0
M204 S2000.00
M205 X5.00 Y5.00
G0 F7200 X81.915 Y0.300
G0 F1200 Z0.800
M204 S1500.00
;TYPE:WALL-OUTER
;WIDTH:0.800
G1 F1800 X118.085 Y0.300 E6.8091
G1 X118.085 Y0.431 E0.0247
G1 X82.183 Y0.432 E6.7586
G0 F1800 X81.915 Y0.432
G0 F1800 X81.915 Y0.300
;PRINTING_TIME: 3
;REMAINING_TIME: 11688
;LAYER:1
;Z:1.366
;HEIGHT:0.566
;HEIGHT-BELT:0.400
;PRINTING: square_tube.stl
;PRINTING_ID: 0
M204 S2000.00
G0 F1200 Z1.366
G0 F7200 X82.015 Y0.400
M204 S1500.00
;TYPE:WALL-OUTER
;WIDTH:0.800
G1 F1800 X117.985 Y0.400 E4.7855
;TYPE:WALL-OUTER
;WIDTH:0.800
G1 X117.985 Y1.131 E0.0973
G1 X82.015 Y1.132 E4.7855
G1 X82.015 Y0.800 E0.0442
G0 F1800 X82.015 Y0.662
G0 F1800 X82.015 Y0.400
;PRINTING_TIME: 6
;REMAINING_TIME: 11685
;LAYER:2
;Z:1.932
;HEIGHT:0.566
;HEIGHT-BELT:0.400
;PRINTING: square_tube.stl
;PRINTING_ID: 0
M204 S2000.00
G0 F1200 Z1.932
G0 F7200 X82.015 Y0.400
M204 S1500.00
;TYPE:WALL-OUTER
;WIDTH:0.800
G1 F1800 X117.985 Y0.400 E4.7855
G1 X117.985 Y1.361 E0.1279
;TYPE:WALL-OUTER
;WIDTH:0.800
G1 X117.985 Y1.931 E0.0758
G1 X82.015 Y1.932 E4.7855
G1 X82.015 Y1.362 E0.0758
;TYPE:WALL-OUTER
;WIDTH:0.800
G1 X82.015 Y0.800 E0.0748
G0 F1800 X82.015 Y0.400
;PRINTING_TIME: 9
;REMAINING_TIME: 11682
;LAYER:3
;Z:2.498
;HEIGHT:0.566
;HEIGHT-BELT:0.400
;PRINTING: square_tube.stl
;PRINTING_ID: 0
M204 S2000.00
G0 F1200 Z2.498
G0 F7200 X82.015 Y0.400
M204 S1500.00
;TYPE:WALL-OUTER
;WIDTH:0.800
G1 F1800 X117.985 Y0.400 E4.7855
G1 X117.985 Y2.161 E0.2343
;TYPE:WALL-OUTER
;WIDTH:0.800
G1 X117.985 Y2.731 E0.0758
G1 X82.015 Y2.732 E4.7855
G1 X82.015 Y2.162 E0.0758
;TYPE:WALL-OUTER
;WIDTH:0.800
G1 X82.015 Y0.800 E0.1812
G0 F1800 X82.015 Y0.400
;PRINTING_TIME: 12
;REMAINING_TIME: 11679
;LAYER:4
;Z:3.064
;HEIGHT:0.566
;HEIGHT-BELT:0.400
;PRINTING: square_tube.stl
;PRINTING_ID: 0
M204 S2000.00
G0 F1200 Z3.064
G0 F7200 X82.015 Y0.400
M204 S1500.00
;TYPE:WALL-OUTER
;WIDTH:0.800
G1 F1800 X117.985 Y0.400 E4.7855
G1 X117.985 Y2.961 E0.3407
;TYPE:WALL-OUTER
;WIDTH:0.800
G1 X117.985 Y3.531 E0.0758
G1 X82.015 Y3.532 E4.7855
G1 X82.015 Y2.962 E0.0758
;TYPE:WALL-OUTER
;WIDTH:0.800
G1 X82.015 Y0.800 E0.2876
G0 F1800 X82.015 Y0.400
M204 S2000.00
G0 F7200 X82.815 Y1.200
;TYPE:WALL-INNER
;WIDTH:0.800
G1 F3600 X117.185 Y1.200 E4.5726
G1 X117.185 Y2.731 E0.2037
G1 X82.815 Y2.732 E4.5726
G1 X82.815 Y1.600 E0.1506
G0 F3600 X82.815 Y1.200
;PRINTING_TIME: 16
;REMAINING_TIME: 11675
;LAYER:5
;Z:3.630
;HEIGHT:0.566
;HEIGHT-BELT:0.400
;PRINTING: square_tube.stl
;PRINTING_ID: 0
G0 F1200 Z3.630
G0 F7200 X82.015 Y0.400
M204 S1500.00
;TYPE:WALL-OUTER
;WIDTH:0.800
G1 F1800 X117.985 Y0.400 E4.7855
G1 X117.985 Y3.761 E0.4471
;TYPE:WALL-OUTER
;WIDTH:0.800
G1 X117.985 Y4.331 E0.0758
G1 X82.015 Y4.332 E4.7855
G1 X82.015 Y3.762 E0.0758
;TYPE:WALL-OUTER
;WIDTH:0.800
G1 X82.015 Y0.800 E0.3941
G0 F1800 X82.015 Y0.400
M204 S2000.00
G0 F7200 X82.815 Y1.200
;TYPE:WALL-INNER
;WIDTH:0.800
G1 F3600 X117.185 Y1.200 E4.5726
G1 X117.185 Y3.531 E0.3101
G1 X82.815 Y3.532 E4.5726
G1 X82.815 Y1.600 E0.2570
G0 F3600 X82.815 Y1.200
;PRINTING_TIME: 20
;REMAINING_TIME: 11671
;LAYER:6
;Z:4.196
;HEIGHT:0.566
;HEIGHT-BELT:0.400
;PRINTING: square_tube.stl
;PRINTING_ID: 0
G0 F1200 Z4.196
G0 F7200 X82.015 Y0.400
M204 S1500.00
;TYPE:WALL-OUTER
;WIDTH:0.800
G1 F1800 X117.985 Y0.400 E4.7855
G1 X117.985 Y4.561 E0.5536
;TYPE:WALL-OUTER
;WIDTH:0.800
G1 X117.985 Y5.131 E0.0758
G1 X82.015 Y5.132 E4.7855
G1 X82.015 Y4.562 E0.0758
;TYPE:WALL-OUTER
;WIDTH:0.800
G1 X82.015 Y0.800 E0.5005
G0 F1800 X82.015 Y0.400
M204 S2000.00
G0 F7200 X82.815 Y1.200
;TYPE:WALL-INNER
;WIDTH:0.800
G1 F3600 X117.185 Y1.200 E4.5726
G1 X117.185 Y4.331 E0.4165
G1 X82.815 Y4.332 E4.5726
G1 X82.815 Y1.600 E0.3635
G0 F3600 X82.815 Y1.200
G0 F7200 X83.615 Y2.000
G1 F3600 X116.385 Y2.000 E4.3597
G1 X116.385 Y3.531 E0.2037
G1 X83.615 Y3.532 E4.3597
G1 X83.615 Y2.400 E0.1506
G0 F3600 X83.615 Y2.000
;PRINTING_TIME: 26
;REMAINING_TIME: 11665
;LAYER:7
;Z:4.762
;HEIGHT:0.566
;HEIGHT-BELT:0.400
;PRINTING: square_tube.stl
;PRINTING_ID: 0
G0 F1200 Z4.762
G0 F7200 X82.015 Y0.400
M204 S1500.00
;TYPE:WALL-OUTER
;WIDTH:0.800
G1 F1800 X117.985 Y0.400 E4.7855
G1 X117.985 Y5.361 E0.6600
;TYPE:WALL-OUTER
;WIDTH:0.800
G1 X117.985 Y5.931 E0.0758
G1 X82.015 Y5.932 E4.7855
G1 X82.015 Y5.362 E0.0758
;TYPE:WALL-OUTER
;WIDTH:0.800
G1 X82.015 Y0.800 E0.6069
G0 F1800 X82.015 Y0.400
M204 S2000.00
G0 F7200 X82.815 Y1.200
;TYPE:WALL-INNER
;WIDTH:0.800
G1 F3600 X117.185 Y1.200 E4.5726
G1 X117.185 Y5.131 E0.5230
G1 X82.815 Y5.132 E4.5726
G1 X82.815 Y1.600 E0.4699
G0 F3600 X82.815 Y1.200
G0 F7200 X83.615 Y2.000
G1 F3600 X116.385 Y2.000 E4.3597
G1 X116.385 Y4.331 E0.3101
G1 X83.615 Y4.332 E4.3597
G1 X83.615 Y2.400 E0.2570
G0 F3600 X83.615 Y2.000
;PRINTING_TIME: 32
;REMAINING_TIME: 11659
;LAYER:8
;Z:5.328
;HEIGHT:0.566
;HEIGHT-BELT:0.400
;PRINTING: square_tube.stl
;PRINTING_ID: 0
G0 F1200 Z5.328
G0 F7200 X82.015 Y0.400
M204 S1500.00
;TYPE:WALL-OUTER
;WIDTH:0.800
G1 F1800 X117.985 Y0.400 E4.7855
G1 X117.985 Y6.161 E0.7664
;TYPE:WALL-OUTER
;WIDTH:0.800
G1 X117.985 Y6.731 E0.0758
G1 X82.015 Y6.732 E4.7855
G1 X82.015 Y6.162 E0.0758
;TYPE:WALL-OUTER
;WIDTH:0.800
G1 X82.015 Y0.800 E0.7134
G0 F1800 X82.015 Y0.400
M204 S2000.00
G0 F7200 X82.815 Y1.200
;TYPE:WALL-INNER
;WIDTH:0.800
G1 F3600 X117.185 Y1.200 E4.5726
G1 X117.185 Y5.931 E0.6294
G1 X82.815 Y5.932 E4.5726
G1 X82.815 Y1.600 E0.5763
G0 F3600 X82.815 Y1.200
G0 F7200 X83.615 Y2.000
G1 F3600 X116.385 Y2.000 E4.3597
G1 X116.385 Y5.131 E0.4165
G1 X83.615 Y5.132 E4.3597
G1 X83.615 Y2.400 E0.3635
G0 F3600 X83.615 Y2.000
G0 F7200 X84.014 Y3.217
;TYPE:FILL
;WIDTH:0.800
G1 F3600 X86.638 Y4.732 E0.4031
G0 F7200 X88.262 Y4.732
G1 F3600 X88.262 Y2.400 E0.3103
G0 F7200 X87.552 Y2.399
G1 F3600 X84.014 Y4.441 E0.5435
G0 F7200 X97.862 Y4.732
G1 F3600 X97.862 Y2.400 E0.3103
G0 F7200 X101.798 Y2.399
G1 F3600 X105.836 Y4.731 E0.6204
G0 F7200 X107.462 Y4.732
G1 F3600 X107.462 Y2.400 E0.3103
G0 F7200 X106.752 Y2.399
G1 F3600 X102.713 Y4.731 E0.6205
;PRINTING_TIME: 39
;REMAINING_TIME: 11652
;LAYER:9
;Z:5.894
;HEIGHT:0.566
;HEIGHT-BELT:0.400
;PRINTING: square_tube.stl
;PRINTING_ID: 0
G0 F1200 Z5.894
G0 F7200 X82.015 Y0.400
M204 S1500.00
;TYPE:WALL-OUTER
;WIDTH:0.800
G1 F1800 X117.985 Y0.400 E4.7855
G1 X117.985 Y6.961 E0.8729
;TYPE:WALL-OUTER
;WIDTH:0.800
G1 X117.985 Y7.531 E0.0758
G1 X82.015 Y7.532 E4.7855
G1 X82.015 Y6.962 E0.0758
;TYPE:WALL-OUTER
;WIDTH:0.800
G1 X82.015 Y0.800 E0.8198
G0 F1800 X82.015 Y0.400
M204 S2000.00
G0 F7200 X82.815 Y1.200
;TYPE:WALL-INNER
;WIDTH:0.800
G1 F3600 X117.185 Y1.200 E4.5726
G1 X117.185 Y6.731 E0.7358
G1 X82.815 Y6.732 E4.5726
G1 X82.815 Y1.600 E0.6828
G0 F3600 X82.815 Y1.200
G0 F7200 X83.615 Y2.000
G1 F3600 X116.385 Y2.000 E4.3597
G1 X116.385 Y5.931 E0.5230
G1 X83.615 Y5.932 E4.3597
G1 X83.615 Y2.400 E0.4699
G0 F3600 X83.615 Y2.000
G0 F7200 X84.014 Y3.544
;TYPE:FILL
;WIDTH:0.800
G1 F3600 X87.458 Y5.532 E0.5290
G0 F7200 X88.545 Y5.532
G1 F3600 X88.545 Y2.400 E0.4167
G0 F7200 X86.986 Y2.399
G1 F3600 X84.015 Y4.114 E0.4564
G0 F7200 X98.145 Y5.532
G1 F3600 X98.145 Y2.400 E0.4167
G0 F7200 X101.232 Y2.399
G1 F3600 X106.656 Y5.531 E0.8333
G0 F7200 X107.745 Y5.532
G1 F3600 X107.745 Y2.400 E0.4167
G0 F7200 X106.185 Y2.399
G1 F3600 X100.761 Y5.531 E0.8333
;PRINTING_TIME: 46
;REMAINING_TIME: 11645
;LAYER:10
;Z:6.460
;HEIGHT:0.566
;HEIGHT-BELT:0.400
;PRINTING: square_tube.stl
;PRINTING_ID: 0
G0 F1200 Z6.460
G0 F7200 X82.015 Y0.400
M204 S1500.00
;TYPE:WALL-OUTER
;WIDTH:0.800
G1 F1800 X117.985 Y0.400 E4.7855
G1 X117.985 Y7.761 E0.9793
;TYPE:WALL-OUTER
;WIDTH:0.800
G1 X117.985 Y8.331 E0.0758
G1 X82.015 Y8.332 E4.7855
G1 X82.015 Y7.762 E0.0758
;TYPE:WALL-OUTER
;WIDTH:0.800
G1 X82.015 Y0.800 E0.9262
G0 F1800 X82.015 Y0.400
M204 S2000.00
G0 F7200 X82.815 Y1.200
;TYPE:WALL-INNER
;WIDTH:0.800
G1 F3600 X117.185 Y1.200 E4.5726
G1 X117.185 Y7.531 E0.8423
G1 X82.815 Y7.532 E4.5726
G1 X82.815 Y1.600 E0.7892
G0 F3600 X82.815 Y1.200
G0 F7200 X83.615 Y2.000
G1 F3600 X116.385 Y2.000 E4.3597
G1 X116.385 Y6.731 E0.6294
G1 X83.615 Y6.732 E4.3597
G1 X83.615 Y2.400 E0.5763
G0 F3600 X83.615 Y2.000
G0 F7200 X84.014 Y3.788
;TYPE:FILL
;WIDTH:0.800
G1 F3600 X86.420 Y2.399 E0.3696
G0 F7200 X88.828 Y2.400
G1 F3600 X88.828 Y6.332 E0.5231
G0 F7200 X88.277 Y6.332
G1 F3600 X84.014 Y3.870 E0.6549
G0 F7200 X98.428 Y2.400
G1 F3600 X98.428 Y6.332 E0.5231
G0 F7200 X98.808 Y6.331
G1 F3600 X105.620 Y2.399 E1.0464
G0 F7200 X108.028 Y2.400
G1 F3600 X108.028 Y6.332 E0.5231
G0 F7200 X107.476 Y6.331
G1 F3600 X100.666 Y2.399 E1.0462
;PRINTING_TIME: 53
;REMAINING_TIME: 11638
;LAYER:11
;Z:7.026
;HEIGHT:0.566
;HEIGHT-BELT:0.400
;PRINTING: square_tube.stl
;PRINTING_ID: 0
G0 F1200 Z7.026
G0 F7200 X82.015 Y0.400
M204 S1500.00
;TYPE:WALL-OUTER
;WIDTH:0.800
G1 F1800 X117.985 Y0.400 E4.7855
G1 X117.985 Y8.561 E1.0857
;TYPE:WALL-OUTER
;WIDTH:0.800
G1 X117.985 Y9.131 E0.0758
G1 X82.015 Y9.132 E4.7855
G1 X82.015 Y8.562 E0.0758
;TYPE:WALL-OUTER
;WIDTH:0.800
G1 X82.015 Y0.800 E1.0327
G0 F1800 X82.015 Y0.400
M204 S2000.00
G0 F7200 X82.815 Y1.200
;TYPE:WALL-INNER
;WIDTH:0.800
G1 F3600 X117.185 Y1.200 E4.5726
G1 X117.185 Y8.331 E0.9487
G1 X82.815 Y8.332 E4.5726
G1 X82.815 Y1.600 E0.8956
G0 F3600 X82.815 Y1.200
G0 F7200 X83.615 Y2.000
G1 F3600 X116.385 Y2.000 E4.3597
G1 X116.385 Y7.531 E0.7358
G1 X83.615 Y7.532 E4.3597
G1 X83.615 Y2.400 E0.6828
G0 F3600 X83.615 Y2.000
G0 F7200 X84.014 Y3.461
;TYPE:FILL
;WIDTH:0.800
G1 F3600 X85.854 Y2.398 E0.2827
G0 F7200 X84.014 Y4.197
G1 F3600 X89.096 Y7.131 E0.7807
G0 F7200 X89.111 Y7.132
G1 F3600 X89.111 Y2.400 E0.6295
G0 F7200 X96.858 Y7.131
G1 F3600 X105.054 Y2.399 E1.2591
G0 F7200 X108.311 Y2.400
G1 F3600 X108.311 Y7.132 E0.6295
G0 F7200 X108.296 Y7.131
G1 F3600 X100.100 Y2.400 E1.2590
G0 F7200 X98.711 Y2.400
G1 F3600 X98.711 Y7.132 E0.6295
;PRINTING_TIME: 61
;REMAINING_TIME: 11630
;LAYER:12
;Z:7.592
;HEIGHT:0.566
;HEIGHT-BELT:0.400
;PRINTING: square_tube.stl
;PRINTING_ID: 0
G0 F1200 Z7.592
G0 F7200 X82.015 Y0.400
M204 S1500.00
;TYPE:WALL-OUTER
;WIDTH:0.800
G1 F1800 X117.985 Y0.400 E4.7855
G1 X117.985 Y9.361 E1.1922
;TYPE:WALL-OUTER
;WIDTH:0.800
G1 X117.985 Y9.931 E0.0758
G1 X82.015 Y9.932 E4.7855
G1 X82.015 Y9.362 E0.0758
;TYPE:WALL-OUTER
;WIDTH:0.800
G1 X82.015 Y0.800 E1.1391
G0 F1800 X82.015 Y0.400
M204 S2000.00
G0 F7200 X82.815 Y1.200
;TYPE:WALL-INNER
;WIDTH:0.800
G1 F3600 X117.185 Y1.200 E4.5726
G1 X117.185 Y9.131 E1.0551
G1 X82.815 Y9.132 E4.5726
G1 X82.815 Y1.600 E1.0021
G0 F3600 X82.815 Y1.200
G0 F7200 X83.615 Y2.000
G1 F3600 X116.385 Y2.000 E4.3597
G1 X116.385 Y8.331 E0.8423
G1 X83.615 Y8.332 E4.3597
G1 X83.615 Y2.400 E0.7892
G0 F3600 X83.615 Y2.000
G0 F7200 X84.015 Y3.134
;TYPE:FILL
;WIDTH:0.800
G1 F3600 X85.289 Y2.398 E0.1957
G0 F7200 X84.014 Y4.524
G1 F3600 X89.915 Y7.931 E0.9065
G0 F7200 X89.394 Y7.932
G1 F3600 X89.394 Y2.400 E0.7360
G0 F7200 X94.906 Y7.931
G1 F3600 X104.488 Y2.399 E1.4720
G0 F7200 X108.594 Y2.400
G1 F3600 X108.594 Y7.932 E0.7360
G0 F7200 X109.114 Y7.930
G1 F3600 X99.535 Y2.400 E1.4715
G0 F7200 X98.994 Y2.400
G1 F3600 X98.994 Y7.932 E0.7360
G0 F7200 X114.107 Y7.930
G1 F3600 X115.983 Y6.847 E0.2882
;PRINTING_TIME: 69
;REMAINING_TIME: 11622
;LAYER:13
;Z:8.158
;HEIGHT:0.566
;HEIGHT-BELT:0.400
;PRINTING: square_tube.stl
;PRINTING_ID: 0
G0 F1200 Z8.158
G0 F7200 X82.015 Y0.400
M204 S1500.00
;TYPE:WALL-OUTER
;WIDTH:0.800
G1 F1800 X117.985 Y0.400 E4.7855
G1 X117.985 Y10.161 E1.2986
;TYPE:WALL-OUTER
;WIDTH:0.800
G1 X117.985 Y10.731 E0.0758
G1 X82.015 Y10.732 E4.7855
G1 X82.015 Y10.162 E0.0758
;TYPE:WALL-OUTER
;WIDTH:0.800
G1 X82.015 Y0.800 E1.2455
G0 F1800 X82.015 Y0.400
M204 S2000.00
G0 F7200 X82.815 Y1.200
;TYPE:WALL-INNER
;WIDTH:0.800
G1 F3600 X117.185 Y1.200 E4.5726
G1 X117.185 Y9.931 E1.1616
G1 X82.815 Y9.932 E4.5726
G1 X82.815 Y1.600 E1.1085
G0 F3600 X82.815 Y1.200
G0 F7200 X83.615 Y2.000
G1 F3600 X116.385 Y2.000 E4.3597
G1 X116.385 Y9.131 E0.9487
G1 X83.615 Y9.132 E4.3597
G1 X83.615 Y2.400 E0.8956
G0 F3600 X83.615 Y2.000
G0 F7200 X84.014 Y2.807
;TYPE:FILL
;WIDTH:0.800
G1 F3600 X84.723 Y2.398 E0.1089
G0 F7200 X84.014 Y4.851
G1 F3600 X90.735 Y8.731 E1.0325
G0 F7200 X89.677 Y8.732
G1 F3600 X89.677 Y2.400 E0.8424
G0 F7200 X92.954 Y8.731
G1 F3600 X103.922 Y2.399 E1.6849
G0 F7200 X99.277 Y2.400
G1 F3600 X99.277 Y8.732 E0.8424
G0 F7200 X98.969 Y2.400
G1 F3600 X109.934 Y8.731 E1.6845
G0 F7200 X108.877 Y8.732
G1 F3600 X108.877 Y2.400 E0.8424
G0 F7200 X112.155 Y8.730
G1 F3600 X115.983 Y6.520 E0.5881
;PRINTING_TIME: 78
;REMAINING_TIME: 11613
;LAYER:14
;Z:8.724
;HEIGHT:0.566
;HEIGHT-BELT:0.400
;PRINTING: square_tube.stl
;PRINTING_ID: 0
G0 F1200 Z8.724
G0 F7200 X82.015 Y0.400
M204 S1500.00
;TYPE:WALL-OUTER
;WIDTH:0.800
G1 F1800 X117.985 Y0.400 E4.7855
G1 X117.985 Y10.961 E1.4050
;TYPE:WALL-OUTER
;WIDTH:0.800
G1 X117.985 Y11.531 E0.0758
G1 X82.015 Y11.532 E4.7855
G1 X82.015 Y10.962 E0.0758
;TYPE:WALL-OUTER
;WIDTH:0.800
G1 X82.015 Y0.800 E1.3520
G0 F1800 X82.015 Y0.400
M204 S2000.00
G0 F7200 X82.815 Y1.200
;TYPE:WALL-INNER
;WIDTH:0.800
G1 F3600 X117.185 Y1.200 E4.5726
G1 X117.185 Y10.731 E1.2680
G1 X82.815 Y10.732 E4.5726
G1 X82.815 Y1.600 E1.2149
G0 F3600 X82.815 Y1.200
G0 F7200 X83.615 Y2.000
G1 F3600 X116.385 Y2.000 E4.3597
G1 X116.385 Y9.931 E1.0551
G1 X83.615 Y9.932 E4.3597
G1 X83.615 Y2.400 E1.0021
G0 F3600 X83.615 Y2.000
G0 F7200 X84.015 Y2.480
;TYPE:FILL
;WIDTH:0.800
G1 F3600 X84.156 Y2.399 E0.0216
G0 F7200 X84.013 Y5.177
G1 F3600 X91.555 Y9.531 E1.1586
G0 F7200 X91.002 Y9.531
G1 F3600 X103.356 Y2.399 E1.8978
G0 F7200 X99.560 Y2.400
G1 F3600 X99.560 Y9.532 E0.9488
G0 F7200 X98.402 Y2.399
G1 F3600 X110.754 Y9.531 E1.8976
G0 F7200 X110.203 Y9.530
G1 F3600 X115.983 Y6.193 E0.8879
G0 F7200 X109.160 Y9.532
G1 F3600 X109.160 Y2.400 E0.9488
G0 F7200 X89.960 Y2.400
G1 F3600 X89.960 Y9.532 E0.9488
;PRINTING_TIME: 86
;REMAINING_TIME: 11605
;LAYER:15
;Z:9.290
;HEIGHT:0.566
;HEIGHT-BELT:0.400
;PRINTING: square_tube.stl
;PRINTING_ID: 0
G0 F1200 Z9.290
G0 F7200 X82.015 Y0.400
M204 S1500.00
;TYPE:WALL-OUTER
;WIDTH:0.800
G1 F1800 X117.985 Y0.400 E4.7855
G1 X117.985 Y11.761 E1.5115
;TYPE:WALL-OUTER
;WIDTH:0.800
G1 X117.985 Y12.331 E0.0758
G1 X82.015 Y12.332 E4.7855
G1 X82.015 Y11.762 E0.0758
;TYPE:WALL-OUTER
;WIDTH:0.800
G1 X82.015 Y0.800 E1.4584
G0 F1800 X82.015 Y0.400
M204 S2000.00
G0 F7200 X82.815 Y1.200
;TYPE:WALL-INNER
;WIDTH:0.800
G1 F3600 X117.185 Y1.200 E4.5726
G1 X117.185 Y11.531 E1.3744
