;Sliced by ideaMaker 4.3.2.6470, 2023-03-29 09:43:14 UTC-0500
;Dimension: 215.000 9999.000 170.000 0.400
;Plate Shape: 0
;Origin Center: 0
;Belt Printer: 1
;Belt Base Y: 5116.500
;Belt Base Z: 0.000
;Belt Offset Y: 0.000
;Belt Offset Z: 3617.911
;Belt Gantry Angle: 45
;Belt Remove Z: 0.283
;Belt Repetition: 1
;Extruder Offset #1: 25.000 0.000
;Filament Diameter #1: 1.750
;Filament Diameter #2: 1.750
;Filament Compensation #1: 100.00
;Filament Compensation #2: 90.00
;Filament Density #1: 1240.00
;Filament Density #2: 1240.00
;Filament Type #1: PLA
;Filament Type #2: 
;Filament Name #1: [Raise3D] PLA 1.75mm
;Filament Name #2: 
;Firmware: Marlin
;Bounding Box: 69.000 146.000 -0.020 13.427 0.200 67.883
;Model Gap: 0.000
;
;
M221 T0 S100.00
M140 S60.00
M104 T0 S200.00
M109 T0 S200.00
T0
M190 S60.00
G90 	   ; Set to Absolute Positioning
M82  	  ; Set extruder to absolute mode
G21   	 ; Metric values
;M808 L	 ; This is your looping code, any number after the L is the number of repeats, leave blank for infinite loops
M104 T0 S200 	; For some reason ideamaker forces the nozzle to cooldown when the command isnt even in the endgcode, this turns it straight back on after the loop, 245 is the degrees in this case
G28; Home
G92 X0 Y0 Z0 E0     ; zero out all axes (include extruder)
M83 ; set extruder to relative coordinates
G0 Z80 E25 ; extrude short Z line
G92 E0 Z0   ; Set all axis to 0
G0 X215 E40 F800 ; Primeline placed after the loop code so every looped print will get a primeline for better adhesion
G92 E0 Z0
M82
M117 Please stick...
;end of Start GCode
;TOTAL_NUM: 2
;PRINTING_TIME: 0
;REMAINING_TIME: 2608
M83
;LAYER:0
;Z:0.400
;HEIGHT:0.400
;HEIGHT-BELT:0.283
;BELT-FIRST-Z:0.400
M106 S0
;PRINTING: size gauge.stl
;PRINTING_ID: 1
G1 F2700 E-6.0000
M204 S2000.00
M205 X5.00 Y5.00
G0 F9000 X69.200 Y0.200
G0 F1200 Z0.400
M204 S1500.00
;TYPE:WALL-OUTER
;WIDTH:0.400
;HEIGHT:0.400
;HEIGHT-BELT:0.283
M106 S255
G1 F1200 E6.0000
G1 F1800 X145.800 Y0.200 E2.5477
G1 X145.800 Y0.566 E0.0122
G1 X69.234 Y0.566 E2.5466
G0 F1800 X69.200 Y0.566
G0 F1800 X69.200 Y0.200
M106 S0
;PRINTING_TIME: 6
;REMAINING_TIME: 2602
;LAYER:1
;Z:0.683
;HEIGHT:0.283
;HEIGHT-BELT:0.200
;PRINTING: size gauge.stl
;PRINTING_ID: 1
M204 S2000.00
G0 F1200 Z0.683
G0 F9000 X69.200 Y0.200
M204 S1500.00
;TYPE:WALL-OUTER
;WIDTH:0.400
G1 F1800 X145.800 Y0.200 E2.5477
G1 X145.800 Y0.681 E0.0160
;TYPE:WALL-OUTER
;WIDTH:0.400
M106 S255
G1 X145.800 Y0.966 E0.0095
G1 X69.200 Y0.966 E2.5477
G1 X69.200 Y0.681 E0.0095
;TYPE:WALL-OUTER
;WIDTH:0.400
M106 S0
G1 X69.200 Y0.600 E0.0027
G0 F1800 X69.200 Y0.200
M204 S2000.00
G0 F9000 X69.398 Y0.668
M204 S500.00
;TYPE:SOLID-FILL
;WIDTH:0.400
G1 F2100 X69.596 Y0.582 E0.0046
G1 X70.162 Y0.582 E0.0171
G1 X70.727 Y0.582 E0.0171
G1 X71.293 Y0.582 E0.0171
G1 X71.859 Y0.582 E0.0171
G1 X72.425 Y0.582 E0.0171
G1 X72.990 Y0.582 E0.0171
G1 X73.556 Y0.582 E0.0171
G1 X74.122 Y0.582 E0.0171
G1 X74.687 Y0.582 E0.0171
G1 X75.253 Y0.582 E0.0171
G1 X75.819 Y0.582 E0.0171
G1 X76.384 Y0.582 E0.0171
G1 X76.950 Y0.582 E0.0171
G1 X77.516 Y0.582 E0.0171
G1 X78.081 Y0.582 E0.0171
G1 X78.647 Y0.582 E0.0171
G1 X79.213 Y0.582 E0.0171
G1 X79.778 Y0.582 E0.0171
G1 X80.344 Y0.582 E0.0171
G1 X80.910 Y0.582 E0.0171
G1 X81.475 Y0.582 E0.0171
G1 X82.041 Y0.582 E0.0171
G1 X82.607 Y0.582 E0.0171
G1 X83.173 Y0.582 E0.0171
G1 X83.738 Y0.582 E0.0171
G1 X84.304 Y0.582 E0.0171
G1 X84.870 Y0.582 E0.0171
G1 X85.435 Y0.582 E0.0171
G1 X86.001 Y0.582 E0.0171
G1 X86.567 Y0.582 E0.0171
G1 X87.132 Y0.582 E0.0171
G1 X87.698 Y0.582 E0.0171
G1 X88.264 Y0.582 E0.0171
G1 X88.829 Y0.582 E0.0171
G1 X89.395 Y0.582 E0.0171
G1 X89.961 Y0.582 E0.0171
G1 X90.526 Y0.582 E0.0171
G1 X91.092 Y0.582 E0.0171
G1 X91.658 Y0.582 E0.0171
G1 X92.223 Y0.582 E0.0171
G1 X92.789 Y0.582 E0.0171
G1 X93.355 Y0.582 E0.0171
G1 X93.921 Y0.582 E0.0171
G1 X94.486 Y0.582 E0.0171
G1 X95.052 Y0.582 E0.0171
G1 X95.618 Y0.582 E0.0171
G1 X96.183 Y0.582 E0.0171
G1 X96.749 Y0.582 E0.0171
G1 X97.315 Y0.582 E0.0171
G1 X97.880 Y0.582 E0.0171
G1 X98.446 Y0.582 E0.0171
G1 X99.012 Y0.582 E0.0171
G1 X99.577 Y0.582 E0.0171
G1 X100.143 Y0.582 E0.0171
G1 X100.709 Y0.582 E0.0171
G1 X101.274 Y0.582 E0.0171
G1 X101.840 Y0.582 E0.0171
G1 X102.406 Y0.582 E0.0171
G1 X102.972 Y0.582 E0.0171
G1 X103.537 Y0.582 E0.0171
G1 X104.103 Y0.582 E0.0171
G1 X104.669 Y0.582 E0.0171
G1 X105.234 Y0.582 E0.0171
G1 X105.800 Y0.582 E0.0171
G1 X106.366 Y0.582 E0.0171
G1 X106.931 Y0.582 E0.0171
G1 X107.497 Y0.582 E0.0171
G1 X108.063 Y0.582 E0.0171
G1 X108.628 Y0.582 E0.0171
G1 X109.194 Y0.582 E0.0171
G1 X109.760 Y0.582 E0.0171
G1 X110.325 Y0.582 E0.0171
G1 X110.891 Y0.582 E0.0171
G1 X111.457 Y0.582 E0.0171
G1 X112.022 Y0.582 E0.0171
G1 X112.588 Y0.582 E0.0171
G1 X113.154 Y0.582 E0.0171
G1 X113.720 Y0.582 E0.0171
G1 X114.285 Y0.582 E0.0171
G1 X114.851 Y0.582 E0.0171
G1 X115.417 Y0.582 E0.0171
G1 X115.982 Y0.582 E0.0171
G1 X116.548 Y0.582 E0.0171
G1 X117.114 Y0.582 E0.0171
G1 X117.679 Y0.582 E0.0171
G1 X118.245 Y0.582 E0.0171
G1 X118.811 Y0.582 E0.0171
G1 X119.376 Y0.582 E0.0171
G1 X119.942 Y0.582 E0.0171
G1 X120.508 Y0.582 E0.0171
G1 X121.073 Y0.582 E0.0171
G1 X121.639 Y0.582 E0.0171
G1 X122.205 Y0.582 E0.0171
G1 X122.771 Y0.582 E0.0171
G1 X123.336 Y0.582 E0.0171
G1 X123.902 Y0.582 E0.0171
G1 X124.468 Y0.582 E0.0171
G1 X125.033 Y0.582 E0.0171
G1 X125.599 Y0.582 E0.0171
G1 X126.165 Y0.582 E0.0171
G1 X126.730 Y0.582 E0.0171
G1 X127.296 Y0.582 E0.0171
G1 X127.862 Y0.582 E0.0171
G1 X128.427 Y0.582 E0.0171
G1 X128.993 Y0.582 E0.0171
G1 X129.559 Y0.582 E0.0171
G1 X130.124 Y0.582 E0.0171
G1 X130.690 Y0.582 E0.0171
G1 X131.256 Y0.582 E0.0171
G1 X131.821 Y0.582 E0.0171
G1 X132.387 Y0.582 E0.0171
G1 X132.953 Y0.582 E0.0171
G1 X133.519 Y0.582 E0.0171
G1 X134.084 Y0.582 E0.0171
G1 X134.650 Y0.582 E0.0171
G1 X135.216 Y0.582 E0.0171
G1 X135.781 Y0.582 E0.0171
G1 X136.347 Y0.582 E0.0171
G1 X136.913 Y0.582 E0.0171
G1 X137.478 Y0.582 E0.0171
G1 X138.044 Y0.582 E0.0171
G1 X138.610 Y0.582 E0.0171
G1 X139.175 Y0.582 E0.0171
G1 X139.741 Y0.582 E0.0171
G1 X140.307 Y0.582 E0.0171
G1 X140.872 Y0.582 E0.0171
G1 X141.438 Y0.582 E0.0171
G1 X142.004 Y0.582 E0.0171
G1 X142.569 Y0.582 E0.0171
G1 X143.135 Y0.582 E0.0171
G1 X143.701 Y0.582 E0.0171
G1 X144.267 Y0.582 E0.0171
G1 X144.832 Y0.582 E0.0171
G1 X145.448 Y0.633 E0.0171
G1 X145.498 Y0.400 E0.0079
;PRINTING_TIME: 14
;REMAINING_TIME: 2594
;LAYER:2
;Z:0.966
;HEIGHT:0.283
;HEIGHT-BELT:0.200
;PRINTING: size gauge.stl
;PRINTING_ID: 1
M204 S2000.00
G0 F1200 Z0.966
G0 F9000 X69.600 Y0.600
;TYPE:WALL-INNER
;WIDTH:0.400
G1 F3750 X145.400 Y0.600 E2.5211
G1 X145.400 Y0.966 E0.0122
G1 X69.634 Y0.966 E2.5200
G0 F3750 X69.600 Y0.966
G0 F3750 X69.600 Y0.600
G0 F9000 X69.200 Y0.200
M204 S1500.00
;TYPE:WALL-OUTER
;WIDTH:0.400
G1 F2400 X145.800 Y0.200 E2.5477
G1 X145.800 Y1.081 E0.0293
;TYPE:WALL-OUTER
;WIDTH:0.400
M106 S255
G1 F1800 X145.800 Y1.366 E0.0095
G1 X69.200 Y1.366 E2.5477
G1 X69.200 Y1.081 E0.0095
;TYPE:WALL-OUTER
;WIDTH:0.400
M106 S0
G1 F2400 X69.200 Y0.600 E0.0160
G0 F2400 X69.200 Y0.200
G1 F2700 E-6.0000
M204 S2000.00
G0 F9000 X69.300 Y0.210
G0 X69.735 Y0.701
G0 F9000 X70.000 Y1.000
;PRINTING_TIME: 22
;REMAINING_TIME: 2586
;LAYER:3
;Z:1.249
;HEIGHT:0.283
;HEIGHT-BELT:0.200
;PRINTING: size gauge.stl
;PRINTING_ID: 1
G0 F1200 Z1.249
G0 F9000 X69.600 Y0.600
;TYPE:WALL-INNER
;WIDTH:0.400
G1 F1200 E6.0000
G1 F4800 X145.400 Y0.600 E2.5211
G1 X145.400 Y1.366 E0.0255
G1 X69.600 Y1.366 E2.5211
G1 X69.600 Y1.000 E0.0122
G0 F4800 X69.600 Y0.600
G0 F9000 X69.200 Y0.200
M204 S1500.00
;TYPE:WALL-OUTER
;WIDTH:0.400
G1 F3000 X145.800 Y0.200 E2.5477
G1 X145.800 Y1.481 E0.0426
;TYPE:WALL-OUTER
;WIDTH:0.400
M106 S255
G1 F1800 X145.800 Y1.766 E0.0095
G1 X69.200 Y1.766 E2.5477
G1 X69.200 Y1.481 E0.0095
;TYPE:WALL-OUTER
;WIDTH:0.400
M106 S0
G1 F3000 X69.200 Y0.600 E0.0293
G0 F3000 X69.200 Y0.200
M204 S2000.00
G0 F9000 X69.300 Y0.210
G0 X69.598 Y0.723
G0 F9000 X69.799 Y1.068
M204 S1500.00
;TYPE:SOLID-FILL
;WIDTH:0.400
G1 F3600 X69.996 Y0.982 E0.0046
G1 X70.561 Y0.982 E0.0172
G1 X71.127 Y0.982 E0.0172
G1 X71.693 Y0.982 E0.0172
G1 X72.258 Y0.982 E0.0172
G1 X72.824 Y0.982 E0.0172
G1 X73.390 Y0.982 E0.0172
G1 X73.956 Y0.982 E0.0172
G1 X74.521 Y0.982 E0.0172
G1 X75.087 Y0.982 E0.0172
G1 X75.653 Y0.982 E0.0172
G1 X76.218 Y0.982 E0.0172
G1 X76.784 Y0.982 E0.0172
G1 X77.350 Y0.982 E0.0172
G1 X77.915 Y0.982 E0.0172
G1 X78.481 Y0.982 E0.0172
G1 X79.047 Y0.982 E0.0172
G1 X79.612 Y0.982 E0.0172
G1 X80.178 Y0.982 E0.0172
G1 X80.744 Y0.982 E0.0172
G1 X81.309 Y0.982 E0.0172
G1 X81.875 Y0.982 E0.0172
G1 X82.441 Y0.982 E0.0172
G1 X83.006 Y0.982 E0.0172
G1 X83.572 Y0.982 E0.0172
G1 X84.138 Y0.982 E0.0172
G1 X84.704 Y0.982 E0.0172
G1 X85.269 Y0.982 E0.0172
G1 X85.835 Y0.982 E0.0172
G1 X86.401 Y0.982 E0.0172
G1 X86.966 Y0.982 E0.0172
G1 X87.532 Y0.982 E0.0172
G1 X88.098 Y0.982 E0.0172
G1 X88.663 Y0.982 E0.0172
G1 X89.229 Y0.982 E0.0172
G1 X89.795 Y0.982 E0.0172
G1 X90.360 Y0.982 E0.0172
G1 X90.926 Y0.982 E0.0172
G1 X91.492 Y0.982 E0.0172
G1 X92.057 Y0.982 E0.0172
G1 X92.623 Y0.982 E0.0172
G1 X93.189 Y0.982 E0.0172
G1 X93.754 Y0.982 E0.0172
G1 X94.320 Y0.982 E0.0172
G1 X94.886 Y0.982 E0.0172
G1 X95.452 Y0.982 E0.0172
G1 X96.017 Y0.982 E0.0172
G1 X96.583 Y0.982 E0.0172
G1 X97.149 Y0.982 E0.0172
G1 X97.714 Y0.982 E0.0172
G1 X98.280 Y0.982 E0.0172
G1 X98.846 Y0.982 E0.0172
G1 X99.411 Y0.982 E0.0172
G1 X99.977 Y0.982 E0.0172
G1 X100.543 Y0.982 E0.0172
G1 X101.108 Y0.982 E0.0172
G1 X101.674 Y0.982 E0.0172
G1 X102.240 Y0.982 E0.0172
G1 X102.805 Y0.982 E0.0172
G1 X103.371 Y0.982 E0.0172
G1 X103.937 Y0.982 E0.0172
G1 X104.503 Y0.982 E0.0172
G1 X105.068 Y0.982 E0.0172
G1 X105.634 Y0.982 E0.0172
G1 X106.200 Y0.982 E0.0172
G1 X106.765 Y0.982 E0.0172
G1 X107.331 Y0.982 E0.0172
G1 X107.897 Y0.982 E0.0172
G1 X108.462 Y0.982 E0.0172
G1 X109.028 Y0.982 E0.0172
G1 X109.594 Y0.982 E0.0172
G1 X110.159 Y0.982 E0.0172
G1 X110.725 Y0.982 E0.0172
G1 X111.291 Y0.982 E0.0172
G1 X111.856 Y0.982 E0.0172
G1 X112.422 Y0.982 E0.0172
G1 X112.988 Y0.982 E0.0172
G1 X113.553 Y0.982 E0.0172
G1 X114.119 Y0.982 E0.0172
G1 X114.685 Y0.982 E0.0172
G1 X115.251 Y0.982 E0.0172
G1 X115.816 Y0.982 E0.0172
G1 X116.382 Y0.982 E0.0172
G1 X116.948 Y0.982 E0.0172
G1 X117.513 Y0.982 E0.0172
G1 X118.079 Y0.982 E0.0172
G1 X118.645 Y0.982 E0.0172
G1 X119.210 Y0.982 E0.0172
G1 X119.776 Y0.982 E0.0172
G1 X120.342 Y0.982 E0.0172
G1 X120.907 Y0.982 E0.0172
G1 X121.473 Y0.982 E0.0172
G1 X122.039 Y0.982 E0.0172
G1 X122.604 Y0.982 E0.0172
G1 X123.170 Y0.982 E0.0172
G1 X123.736 Y0.982 E0.0172
G1 X124.302 Y0.982 E0.0172
G1 X124.867 Y0.982 E0.0172
G1 X125.433 Y0.982 E0.0172
G1 X125.999 Y0.982 E0.0172
G1 X126.564 Y0.982 E0.0172
G1 X127.130 Y0.982 E0.0172
G1 X127.696 Y0.982 E0.0172
G1 X128.261 Y0.982 E0.0172
G1 X128.827 Y0.982 E0.0172
G1 X129.393 Y0.982 E0.0172
G1 X129.958 Y0.982 E0.0172
G1 X130.524 Y0.982 E0.0172
G1 X131.090 Y0.982 E0.0172
G1 X131.655 Y0.982 E0.0172
G1 X132.221 Y0.982 E0.0172
G1 X132.787 Y0.982 E0.0172
G1 X133.352 Y0.982 E0.0172
G1 X133.918 Y0.982 E0.0172
G1 X134.484 Y0.982 E0.0172
G1 X135.050 Y0.982 E0.0172
G1 X135.615 Y0.982 E0.0172
G1 X136.181 Y0.982 E0.0172
G1 X136.747 Y0.982 E0.0172
G1 X137.312 Y0.982 E0.0172
G1 X137.878 Y0.982 E0.0172
G1 X138.444 Y0.982 E0.0172
G1 X139.009 Y0.982 E0.0172
G1 X139.575 Y0.982 E0.0172
G1 X140.141 Y0.982 E0.0172
G1 X140.706 Y0.982 E0.0172
G1 X141.272 Y0.982 E0.0172
G1 X141.838 Y0.982 E0.0172
G1 X142.403 Y0.982 E0.0172
G1 X142.969 Y0.982 E0.0172
G1 X143.535 Y0.982 E0.0172
G1 X144.100 Y0.982 E0.0172
G1 X144.666 Y0.982 E0.0172
G1 X145.132 Y1.166 E0.0167
;PRINTING_TIME: 30
;REMAINING_TIME: 2578
;LAYER:4
;Z:1.532
;HEIGHT:0.283
;HEIGHT-BELT:0.200
;PRINTING: size gauge.stl
;PRINTING_ID: 1
M204 S2000.00
G0 F1200 Z1.532
G0 F9000 X69.600 Y0.600
;TYPE:WALL-INNER
;WIDTH:0.400
G1 F4800 X145.400 Y0.600 E2.5211
G1 X145.400 Y1.766 E0.0388
G1 X69.600 Y1.766 E2.5211
G1 X69.600 Y1.000 E0.0255
G0 F4800 X69.600 Y0.600
G0 F9000 X69.200 Y0.200
M204 S1500.00
;TYPE:WALL-OUTER
;WIDTH:0.400
G1 F3000 X145.800 Y0.200 E2.5477
G1 X145.800 Y1.881 E0.0559
;TYPE:WALL-OUTER
;WIDTH:0.400
M106 S255
G1 F1800 X145.800 Y2.166 E0.0095
G1 X69.200 Y2.166 E2.5477
G1 X69.200 Y1.881 E0.0095
;TYPE:WALL-OUTER
;WIDTH:0.400
M106 S0
G1 F3000 X69.200 Y0.600 E0.0426
G0 F3000 X69.200 Y0.200
M204 S2000.00
G0 F9000 X69.300 Y0.210
G0 X69.691 Y0.744
G0 F9000 X69.927 Y1.066
M204 S1500.00
;TYPE:SOLID-FILL
;WIDTH:0.400
G1 F2400 X69.699 Y1.294 E0.0107
M204 S2000.00
G0 F9000 X69.893 Y1.665
M204 S1500.00
G1 F2400 X70.492 Y1.066 E0.0282
M204 S2000.00
G0 F9000 X71.058 Y1.066
M204 S1500.00
G1 F2400 X70.458 Y1.665 E0.0282
M204 S2000.00
G0 F9000 X71.024 Y1.665
M204 S1500.00
G1 F2400 X71.624 Y1.066 E0.0282
M204 S2000.00
G0 F9000 X72.189 Y1.066
M204 S1500.00
G1 F2400 X71.590 Y1.665 E0.0282
M204 S2000.00
G0 F9000 X72.156 Y1.665
M204 S1500.00
G1 F2400 X72.755 Y1.066 E0.0282
M204 S2000.00
G0 F9000 X73.321 Y1.066
M204 S1500.00
G1 F2400 X72.721 Y1.665 E0.0282
M204 S2000.00
G0 F9000 X73.287 Y1.665
M204 S1500.00
G1 F2400 X73.887 Y1.066 E0.0282
M204 S2000.00
G0 F9000 X74.452 Y1.066
M204 S1500.00
G1 F2400 X73.853 Y1.665 E0.0282
M204 S2000.00
G0 F9000 X74.418 Y1.665
M204 S1500.00
G1 F2400 X75.018 Y1.066 E0.0282
M204 S2000.00
G0 F9000 X75.584 Y1.066
M204 S1500.00
G1 F2400 X74.984 Y1.665 E0.0282
M204 S2000.00
G0 F9000 X75.550 Y1.665
M204 S1500.00
G1 F2400 X76.149 Y1.066 E0.0282
M204 S2000.00
G0 F9000 X76.715 Y1.066
M204 S1500.00
G1 F2400 X76.115 Y1.665 E0.0282
M204 S2000.00
G0 F9000 X76.681 Y1.665
M204 S1500.00
G1 F2400 X77.281 Y1.066 E0.0282
M204 S2000.00
G0 F9000 X77.846 Y1.066
M204 S1500.00
G1 F2400 X77.247 Y1.665 E0.0282
M204 S2000.00
G0 F9000 X77.812 Y1.665
M204 S1500.00
G1 F2400 X78.412 Y1.066 E0.0282
M204 S2000.00
G0 F9000 X78.978 Y1.066
M204 S1500.00
G1 F2400 X78.378 Y1.665 E0.0282
M204 S2000.00
G0 F9000 X78.944 Y1.665
M204 S1500.00
G1 F2400 X79.543 Y1.066 E0.0282
M204 S2000.00
G0 F9000 X80.109 Y1.066
M204 S1500.00
G1 F2400 X79.509 Y1.665 E0.0282
M204 S2000.00
G0 F9000 X80.075 Y1.665
M204 S1500.00
G1 F2400 X80.675 Y1.066 E0.0282
M204 S2000.00
G0 F9000 X81.240 Y1.066
M204 S1500.00
G1 F2400 X80.641 Y1.665 E0.0282
M204 S2000.00
G0 F9000 X81.206 Y1.665
M204 S1500.00
G1 F2400 X81.806 Y1.066 E0.0282
M204 S2000.00
G0 F9000 X82.372 Y1.066
M204 S1500.00
G1 F2400 X81.772 Y1.665 E0.0282
M204 S2000.00
G0 F9000 X82.338 Y1.665
M204 S1500.00
G1 F2400 X82.937 Y1.066 E0.0282
M204 S2000.00
G0 F9000 X83.503 Y1.066
M204 S1500.00
G1 F2400 X82.904 Y1.665 E0.0282
M204 S2000.00
G0 F9000 X83.469 Y1.665
M204 S1500.00
G1 F2400 X84.069 Y1.066 E0.0282
M204 S2000.00
G0 F9000 X84.635 Y1.066
M204 S1500.00
G1 F2400 X84.035 Y1.665 E0.0282
M204 S2000.00
G0 F9000 X84.601 Y1.665
M204 S1500.00
G1 F2400 X85.200 Y1.066 E0.0282
M204 S2000.00
G0 F9000 X85.766 Y1.066
M204 S1500.00
G1 F2400 X85.166 Y1.665 E0.0282
M204 S2000.00
G0 F9000 X85.732 Y1.665
M204 S1500.00
G1 F2400 X86.332 Y1.066 E0.0282
M204 S2000.00
G0 F9000 X86.897 Y1.066
M204 S1500.00
G1 F2400 X86.298 Y1.665 E0.0282
M204 S2000.00
G0 F9000 X86.863 Y1.665
M204 S1500.00
G1 F2400 X87.463 Y1.066 E0.0282
M204 S2000.00
G0 F9000 X88.029 Y1.066
M204 S1500.00
G1 F2400 X87.429 Y1.665 E0.0282
M204 S2000.00
G0 F9000 X87.995 Y1.665
M204 S1500.00
G1 F2400 X88.594 Y1.066 E0.0282
M204 S2000.00
G0 F9000 X89.160 Y1.066
M204 S1500.00
G1 F2400 X88.560 Y1.665 E0.0282
M204 S2000.00
G0 F9000 X89.126 Y1.665
M204 S1500.00
G1 F2400 X89.726 Y1.066 E0.0282
M204 S2000.00
G0 F9000 X90.291 Y1.066
M204 S1500.00
G1 F2400 X89.692 Y1.665 E0.0282
M204 S2000.00
G0 F9000 X90.257 Y1.665
M204 S1500.00
G1 F2400 X90.857 Y1.066 E0.0282
M204 S2000.00
G0 F9000 X91.423 Y1.066
M204 S1500.00
G1 F2400 X90.823 Y1.665 E0.0282
M204 S2000.00
G0 F9000 X91.389 Y1.665
M204 S1500.00
G1 F2400 X91.988 Y1.066 E0.0282
M204 S2000.00
G0 F9000 X92.554 Y1.066
M204 S1500.00
G1 F2400 X91.954 Y1.665 E0.0282
M204 S2000.00
G0 F9000 X92.520 Y1.665
M204 S1500.00
G1 F2400 X93.120 Y1.066 E0.0282
M204 S2000.00
G0 F9000 X93.685 Y1.066
M204 S1500.00
G1 F2400 X93.086 Y1.665 E0.0282
M204 S2000.00
G0 F9000 X93.652 Y1.665
M204 S1500.00
G1 F2400 X94.251 Y1.066 E0.0282
M204 S2000.00
G0 F9000 X94.817 Y1.066
