;Sliced by ideaMaker 4.3.2.6470, 2023-04-18 10:48:16 UTC-0500
;Dimension: 200.000 9999.000 170.000 0.800
;Plate Shape: 0
;Origin Center: 0
;Belt Printer: 1
;Belt Base Y: 5328.369
;Belt Base Z: 0.000
;Belt Offset Y: 0.000
;Belt Offset Z: 3767.725
;Belt Gantry Angle: 45
;Belt Remove Z: 0.000
;Belt Repetition: 1
;Extruder Offset #1: 25.000 0.000
;Filament Diameter #1: 1.750
;Filament Diameter #2: 1.750
;Filament Compensation #1: 100.00
;Filament Compensation #2: 90.00
;Filament Density #1: 1240.00
;Filament Density #2: 1240.00
;Filament Type #1: PLA
;Filament Type #2: 
;Filament Name #1: [Raise3D] PLA 1.75mm
;Filament Name #2: 
;Firmware: Marlin
;Bounding Box: 61.900 138.200 -0.100 26.940 0.000 228.566
;Model Gap: 0.000
;
;
M92 E203.00000
M221 T0 S100.00
M140 S60.00
M104 T0 S200.00
M109 T0 S200.00
T0
M190 S60.00
G90 ; Set to Absolute Positioning
M82 ; Set extruder to absolute mode
G21 ; Metric values
;M808 L ; This is your looping code, any number after the L is the number of repeats, leave blank for infinite loops
M104 T0 S200 ; For some reason ideamaker forces the nozzle to cooldown when the command isnt even in the endgcode, this turns it straight back on after the loop, 245 is the degrees in this case
G28; Home
G92 X0 Y0 Z0 E0 ; zero out all axes (include extruder)
M83 ; set extruder to relative coordinates
G0 Z80 E25 ; extrude short Z line
G92 E0 Z0 ; Set all axis to 0
G0 X215 E40 F800 ; Primeline placed after the loop code so every looped print will get a primeline for better adhesion
G92 E0 Z0
M82
M117 Please stick...
;end of Start GCode
;TOTAL_NUM: 1
;PRINTING_TIME: 0
;REMAINING_TIME: 12634
M83
;LAYER:0
;Z:0.800
;HEIGHT:0.800
;HEIGHT-BELT:0.566
;BELT-FIRST-Z:0.800
M106 S255
;PRINTING: little_table-Rail Sketchrail with holes.stl
;PRINTING_ID: 0
M204 S2000.00
M205 X5.00 Y5.00
G0 F7200 X100.300 Y0.300
G0 F1200 Z0.800
M204 S1500.00
;TYPE:WALL-OUTER
;WIDTH:0.800
G1 F1800 X137.800 Y0.300 E7.0595
G1 X137.800 Y0.432 E0.0248
G1 X100.568 Y0.432 E7.0090
G0 F1800 X100.300 Y0.432
G0 F1800 X100.300 Y0.300
;PRINTING_TIME: 4
;REMAINING_TIME: 12630
;LAYER:1
;Z:1.366
;HEIGHT:0.566
;HEIGHT-BELT:0.400
;PRINTING: little_table-Rail Sketchrail with holes.stl
;PRINTING_ID: 0
M204 S2000.00
G0 F1200 Z1.366
G0 F7200 X100.400 Y0.400
M204 S1500.00
;TYPE:WALL-OUTER
;WIDTH:0.800
G1 F1800 X137.700 Y0.400 E4.9624
;TYPE:WALL-OUTER
;WIDTH:0.800
G1 X137.700 Y1.132 E0.0974
G1 X100.400 Y1.132 E4.9624
G1 X100.400 Y0.800 E0.0442
G0 F1800 X100.400 Y0.662
G0 F1800 X100.400 Y0.400
;PRINTING_TIME: 6
;REMAINING_TIME: 12627
;LAYER:2
;Z:1.932
;HEIGHT:0.566
;HEIGHT-BELT:0.400
;PRINTING: little_table-Rail Sketchrail with holes.stl
;PRINTING_ID: 0
M204 S2000.00
G0 F1200 Z1.932
G0 F7200 X100.400 Y0.400
M204 S1500.00
;TYPE:WALL-OUTER
;WIDTH:0.800
G1 F1800 X137.700 Y0.400 E4.9624
G1 X137.700 Y1.362 E0.1280
;TYPE:WALL-OUTER
;WIDTH:0.800
G1 X137.700 Y1.932 E0.0758
G1 X100.400 Y1.932 E4.9624
G1 X100.400 Y1.362 E0.0758
;TYPE:WALL-OUTER
;WIDTH:0.800
G1 X100.400 Y0.800 E0.0748
G0 F1800 X100.400 Y0.400
;PRINTING_TIME: 9
;REMAINING_TIME: 12624
;LAYER:3
;Z:2.498
;HEIGHT:0.566
;HEIGHT-BELT:0.400
;PRINTING: little_table-Rail Sketchrail with holes.stl
;PRINTING_ID: 0
M204 S2000.00
G0 F1200 Z2.498
G0 F7200 X100.400 Y0.400
M204 S1500.00
;TYPE:WALL-OUTER
;WIDTH:0.800
G1 F1800 X137.700 Y0.400 E4.9624
G1 X137.700 Y2.162 E0.2344
;TYPE:WALL-OUTER
;WIDTH:0.800
G1 X137.700 Y2.732 E0.0758
G1 X100.400 Y2.732 E4.9624
G1 X100.400 Y2.162 E0.0758
;TYPE:WALL-OUTER
;WIDTH:0.800
G1 X100.400 Y0.800 E0.1812
G0 F1800 X100.400 Y0.400
;PRINTING_TIME: 12
;REMAINING_TIME: 12621
;LAYER:4
;Z:3.064
;HEIGHT:0.566
;HEIGHT-BELT:0.400
;PRINTING: little_table-Rail Sketchrail with holes.stl
;PRINTING_ID: 0
M204 S2000.00
G0 F1200 Z3.064
G0 F7200 X100.400 Y0.400
M204 S1500.00
;TYPE:WALL-OUTER
;WIDTH:0.800
G1 F1800 X137.700 Y0.400 E4.9624
G1 X137.700 Y2.962 E0.3408
;TYPE:WALL-OUTER
;WIDTH:0.800
G1 X137.700 Y3.532 E0.0758
G1 X100.400 Y3.532 E4.9624
G1 X100.400 Y2.962 E0.0758
;TYPE:WALL-OUTER
;WIDTH:0.800
G1 X100.400 Y0.800 E0.2876
G0 F1800 X100.400 Y0.400
M204 S2000.00
G0 F7200 X101.200 Y1.200
;TYPE:WALL-INNER
;WIDTH:0.800
G1 F3600 X136.900 Y1.200 E4.7495
G1 X136.900 Y2.732 E0.2038
G1 X101.200 Y2.732 E4.7495
G1 X101.200 Y1.600 E0.1506
G0 F3600 X101.200 Y1.200
;PRINTING_TIME: 16
;REMAINING_TIME: 12617
;LAYER:5
;Z:3.630
;HEIGHT:0.566
;HEIGHT-BELT:0.400
;PRINTING: little_table-Rail Sketchrail with holes.stl
;PRINTING_ID: 0
G0 F1200 Z3.630
G0 F7200 X100.400 Y0.400
M204 S1500.00
;TYPE:WALL-OUTER
;WIDTH:0.800
G1 F1800 X137.700 Y0.400 E4.9624
G1 X137.700 Y3.762 E0.4473
;TYPE:WALL-OUTER
;WIDTH:0.800
G1 X137.700 Y4.332 E0.0758
G1 X100.400 Y4.332 E4.9624
G1 X100.400 Y3.762 E0.0758
;TYPE:WALL-OUTER
;WIDTH:0.800
G1 X100.400 Y0.800 E0.3941
G0 F1800 X100.400 Y0.400
M204 S2000.00
G0 F7200 X101.200 Y1.200
;TYPE:WALL-INNER
;WIDTH:0.800
G1 F3600 X136.900 Y1.200 E4.7495
G1 X136.900 Y3.532 E0.3103
G1 X101.200 Y3.532 E4.7495
G1 X101.200 Y1.600 E0.2570
G0 F3600 X101.200 Y1.200
;PRINTING_TIME: 21
;REMAINING_TIME: 12613
;LAYER:6
;Z:4.196
;HEIGHT:0.566
;HEIGHT-BELT:0.400
;PRINTING: little_table-Rail Sketchrail with holes.stl
;PRINTING_ID: 0
G0 F1200 Z4.196
G0 F7200 X100.400 Y0.400
M204 S1500.00
;TYPE:WALL-OUTER
;WIDTH:0.800
G1 F1800 X137.700 Y0.400 E4.9624
G1 X137.700 Y4.562 E0.5537
;TYPE:WALL-OUTER
;WIDTH:0.800
G1 X137.700 Y5.132 E0.0758
G1 X100.400 Y5.132 E4.9624
G1 X100.400 Y4.562 E0.0758
;TYPE:WALL-OUTER
;WIDTH:0.800
G1 X100.400 Y0.800 E0.5005
G0 F1800 X100.400 Y0.400
M204 S2000.00
G0 F7200 X101.200 Y1.200
;TYPE:WALL-INNER
;WIDTH:0.800
G1 F3600 X136.900 Y1.200 E4.7495
G1 X136.900 Y4.332 E0.4167
G1 X101.200 Y4.332 E4.7495
G1 X101.200 Y1.600 E0.3635
G0 F3600 X101.200 Y1.200
G0 F7200 X102.000 Y2.000
G1 F3600 X136.100 Y2.000 E4.5367
G1 X136.100 Y3.532 E0.2038
G1 X102.000 Y3.532 E4.5367
G1 X102.000 Y2.400 E0.1506
G0 F3600 X102.000 Y2.000
;PRINTING_TIME: 27
;REMAINING_TIME: 12607
;LAYER:7
;Z:4.762
;HEIGHT:0.566
;HEIGHT-BELT:0.400
;PRINTING: little_table-Rail Sketchrail with holes.stl
;PRINTING_ID: 0
G0 F1200 Z4.762
G0 F7200 X100.400 Y0.400
M204 S1500.00
;TYPE:WALL-OUTER
;WIDTH:0.800
G1 F1800 X137.700 Y0.400 E4.9624
G1 X137.700 Y5.362 E0.6601
;TYPE:WALL-OUTER
;WIDTH:0.800
G1 X137.700 Y5.932 E0.0758
G1 X100.400 Y5.932 E4.9624
G1 X100.400 Y5.362 E0.0758
;TYPE:WALL-OUTER
;WIDTH:0.800
G1 X100.400 Y0.800 E0.6069
G0 F1800 X100.400 Y0.400
M204 S2000.00
G0 F7200 X101.200 Y1.200
;TYPE:WALL-INNER
;WIDTH:0.800
G1 F3600 X136.900 Y1.200 E4.7495
G1 X136.900 Y5.132 E0.5231
G1 X101.200 Y5.132 E4.7495
G1 X101.200 Y1.600 E0.4699
G0 F3600 X101.200 Y1.200
G0 F7200 X102.000 Y2.000
G1 F3600 X136.100 Y2.000 E4.5367
G1 X136.100 Y4.332 E0.3103
G1 X102.000 Y4.332 E4.5367
G1 X102.000 Y2.400 E0.2570
G0 F3600 X102.000 Y2.000
;PRINTING_TIME: 33
;REMAINING_TIME: 12601
;LAYER:8
;Z:5.328
;HEIGHT:0.566
;HEIGHT-BELT:0.400
;PRINTING: little_table-Rail Sketchrail with holes.stl
;PRINTING_ID: 0
G0 F1200 Z5.328
G0 F7200 X100.400 Y0.400
M204 S1500.00
;TYPE:WALL-OUTER
;WIDTH:0.800
G1 F1800 X137.700 Y0.400 E4.9624
G1 X137.700 Y6.162 E0.7666
;TYPE:WALL-OUTER
;WIDTH:0.800
G1 X137.700 Y6.732 E0.0758
G1 X100.400 Y6.732 E4.9624
G1 X100.400 Y6.162 E0.0758
;TYPE:WALL-OUTER
;WIDTH:0.800
G1 X100.400 Y0.800 E0.7134
G0 F1800 X100.400 Y0.400
M204 S2000.00
G0 F7200 X101.200 Y1.200
;TYPE:WALL-INNER
;WIDTH:0.800
G1 F3600 X136.900 Y1.200 E4.7495
G1 X136.900 Y5.932 E0.6295
G1 X101.200 Y5.932 E4.7495
G1 X101.200 Y1.600 E0.5763
G0 F3600 X101.200 Y1.200
G0 F7200 X102.000 Y2.000
G1 F3600 X136.100 Y2.000 E4.5367
G1 X136.100 Y5.132 E0.4167
G1 X102.000 Y5.132 E4.5367
G1 X102.000 Y2.400 E0.3635
G0 F3600 X102.000 Y2.000
G0 F7200 X102.400 Y3.467
;TYPE:FILL
;WIDTH:0.800
G1 F3600 X104.250 Y2.399 E0.2842
G0 F7200 X104.302 Y2.400
G1 F3600 X108.340 Y4.732 E0.6204
G0 F7200 X107.462 Y4.732
G1 F3600 X107.462 Y2.400 E0.3103
G0 F7200 X117.062 Y2.400
G1 F3600 X117.062 Y4.732 E0.3103
G0 F7200 X119.409 Y4.732
G1 F3600 X123.449 Y2.399 E0.6207
G0 F7200 X123.501 Y2.400
G1 F3600 X127.540 Y4.732 E0.6205
G0 F7200 X126.662 Y4.732
G1 F3600 X126.662 Y2.400 E0.3103
;PRINTING_TIME: 40
;REMAINING_TIME: 12594
;LAYER:9
;Z:5.894
;HEIGHT:0.566
;HEIGHT-BELT:0.400
;PRINTING: little_table-Rail Sketchrail with holes.stl
;PRINTING_ID: 0
G0 F1200 Z5.894
G0 F7200 X100.400 Y0.400
M204 S1500.00
;TYPE:WALL-OUTER
;WIDTH:0.800
G1 F1800 X137.700 Y0.400 E4.9624
G1 X137.700 Y6.962 E0.8730
;TYPE:WALL-OUTER
;WIDTH:0.800
G1 X137.700 Y7.532 E0.0758
G1 X100.400 Y7.532 E4.9624
G1 X100.400 Y6.962 E0.0758
;TYPE:WALL-OUTER
;WIDTH:0.800
G1 X100.400 Y0.800 E0.8198
G0 F1800 X100.400 Y0.400
M204 S2000.00
G0 F7200 X101.200 Y1.200
;TYPE:WALL-INNER
;WIDTH:0.800
G1 F3600 X136.900 Y1.200 E4.7495
G1 X136.900 Y6.732 E0.7360
G1 X101.200 Y6.732 E4.7495
G1 X101.200 Y1.600 E0.6828
G0 F3600 X101.200 Y1.200
G0 F7200 X102.000 Y2.000
G1 F3600 X136.100 Y2.000 E4.5367
G1 X136.100 Y5.932 E0.5231
G1 X102.000 Y5.932 E4.5367
G1 X102.000 Y2.400 E0.4699
G0 F3600 X102.000 Y2.000
G0 F7200 X102.400 Y3.140
;TYPE:FILL
;WIDTH:0.800
G1 F3600 X103.683 Y2.399 E0.1971
G0 F7200 X103.735 Y2.400
G1 F3600 X109.159 Y5.531 E0.8332
G0 F7200 X107.745 Y5.532
G1 F3600 X107.745 Y2.400 E0.4167
G0 F7200 X117.345 Y2.400
G1 F3600 X117.345 Y5.532 E0.4167
G0 F7200 X117.459 Y5.531
G1 F3600 X122.884 Y2.399 E0.8334
G0 F7200 X122.935 Y2.400
G1 F3600 X128.359 Y5.531 E0.8332
G0 F7200 X126.945 Y5.532
G1 F3600 X126.945 Y2.400 E0.4167
;PRINTING_TIME: 47
;REMAINING_TIME: 12587
;LAYER:10
;Z:6.460
;HEIGHT:0.566
;HEIGHT-BELT:0.400
;PRINTING: little_table-Rail Sketchrail with holes.stl
;PRINTING_ID: 0
G0 F1200 Z6.460
G0 F7200 X100.400 Y0.400
M204 S1500.00
;TYPE:WALL-OUTER
;WIDTH:0.800
G1 F1800 X137.700 Y0.400 E4.9624
G1 X137.700 Y7.762 E0.9794
;TYPE:WALL-OUTER
;WIDTH:0.800
G1 X137.700 Y8.332 E0.0758
G1 X100.400 Y8.332 E4.9624
G1 X100.400 Y7.762 E0.0758
;TYPE:WALL-OUTER
;WIDTH:0.800
G1 X100.400 Y0.800 E0.9262
G0 F1800 X100.400 Y0.400
M204 S2000.00
G0 F7200 X101.200 Y1.200
;TYPE:WALL-INNER
;WIDTH:0.800
G1 F3600 X136.900 Y1.200 E4.7495
G1 X136.900 Y7.532 E0.8424
G1 X101.200 Y7.532 E4.7495
G1 X101.200 Y1.600 E0.7892
G0 F3600 X101.200 Y1.200
G0 F7200 X102.000 Y2.000
G1 F3600 X136.100 Y2.000 E4.5367
G1 X136.100 Y6.732 E0.6295
G1 X102.000 Y6.732 E4.5367
G1 X102.000 Y2.400 E0.5763
G0 F3600 X102.000 Y2.000
G0 F7200 X102.400 Y2.814
;TYPE:FILL
;WIDTH:0.800
G1 F3600 X103.117 Y2.399 E0.1102
G0 F7200 X103.169 Y2.400
G1 F3600 X109.979 Y6.332 E1.0462
G0 F7200 X108.028 Y6.332
G1 F3600 X108.028 Y2.400 E0.5231
G0 F7200 X115.506 Y6.331
G1 F3600 X122.318 Y2.399 E1.0464
G0 F7200 X122.370 Y2.400
G1 F3600 X129.178 Y6.331 E1.0459
G0 F7200 X127.228 Y6.332
G1 F3600 X127.228 Y2.400 E0.5231
G0 F7200 X134.706 Y6.332
G1 F3600 X135.698 Y5.759 E0.1524
G0 F7200 X117.628 Y6.332
G1 F3600 X117.628 Y2.400 E0.5231
;PRINTING_TIME: 55
;REMAINING_TIME: 12579
;LAYER:11
;Z:7.026
;HEIGHT:0.566
;HEIGHT-BELT:0.400
;PRINTING: little_table-Rail Sketchrail with holes.stl
;PRINTING_ID: 0
G0 F1200 Z7.026
G0 F7200 X100.400 Y0.400
M204 S1500.00
;TYPE:WALL-OUTER
;WIDTH:0.800
G1 F1800 X137.700 Y0.400 E4.9624
G1 X137.700 Y8.562 E1.0859
;TYPE:WALL-OUTER
;WIDTH:0.800
G1 X137.700 Y9.132 E0.0758
G1 X100.400 Y9.132 E4.9624
G1 X100.400 Y8.562 E0.0758
;TYPE:WALL-OUTER
;WIDTH:0.800
G1 X100.400 Y0.800 E1.0327
G0 F1800 X100.400 Y0.400
M204 S2000.00
G0 F7200 X101.200 Y1.200
;TYPE:WALL-INNER
;WIDTH:0.800
G1 F3600 X136.900 Y1.200 E4.7495
G1 X136.900 Y8.332 E0.9488
G1 X101.200 Y8.332 E4.7495
G1 X101.200 Y1.600 E0.8956
G0 F3600 X101.200 Y1.200
G0 F7200 X102.000 Y2.000
G1 F3600 X136.100 Y2.000 E4.5367
G1 X136.100 Y7.532 E0.7360
G1 X102.000 Y7.532 E4.5367
G1 X102.000 Y2.400 E0.6828
G0 F3600 X102.000 Y2.000
G0 F7200 X102.400 Y2.486
;TYPE:FILL
;WIDTH:0.800
G1 F3600 X102.552 Y2.399 E0.0233
G0 F7200 X102.604 Y2.400
G1 F3600 X110.799 Y7.132 E1.2590
G0 F7200 X108.311 Y7.132
G1 F3600 X108.311 Y2.400 E0.6295
G0 F7200 X113.555 Y7.131
G1 F3600 X121.751 Y2.399 E1.2591
G0 F7200 X121.803 Y2.400
G1 F3600 X129.998 Y7.131 E1.2589
G0 F7200 X127.511 Y7.132
G1 F3600 X127.511 Y2.400 E0.6295
G0 F7200 X132.754 Y7.132
G1 F3600 X135.698 Y5.432 E0.4523
G0 F7200 X117.911 Y7.132
G1 F3600 X117.911 Y2.400 E0.6295
;PRINTING_TIME: 63
;REMAINING_TIME: 12570
;LAYER:12
;Z:7.592
;HEIGHT:0.566
;HEIGHT-BELT:0.400
;PRINTING: little_table-Rail Sketchrail with holes.stl
;PRINTING_ID: 0
G0 F1200 Z7.592
G0 F7200 X100.400 Y0.400
M204 S1500.00
;TYPE:WALL-OUTER
;WIDTH:0.800
G1 F1800 X137.700 Y0.400 E4.9624
G1 X137.700 Y9.362 E1.1923
;TYPE:WALL-OUTER
;WIDTH:0.800
G1 X137.700 Y9.932 E0.0758
G1 X100.400 Y9.932 E4.9624
G1 X100.400 Y9.362 E0.0758
;TYPE:WALL-OUTER
;WIDTH:0.800
G1 X100.400 Y0.800 E1.1391
G0 F1800 X100.400 Y0.400
M204 S2000.00
G0 F7200 X101.200 Y1.200
;TYPE:WALL-INNER
;WIDTH:0.800
G1 F3600 X136.900 Y1.200 E4.7495
G1 X136.900 Y9.132 E1.0553
G1 X101.200 Y9.132 E4.7495
G1 X101.200 Y1.600 E1.0021
G0 F3600 X101.200 Y1.200
G0 F7200 X102.000 Y2.000
G1 F3600 X136.100 Y2.000 E4.5367
G1 X136.100 Y8.332 E0.8424
G1 X102.000 Y8.332 E4.5367
G1 X102.000 Y2.400 E0.7892
G0 F3600 X102.000 Y2.000
G0 F7200 X102.399 Y2.609
;TYPE:FILL
;WIDTH:0.800
G1 F3600 X111.619 Y7.932 E1.4164
G0 F7200 X111.603 Y7.932
G1 F3600 X121.185 Y2.399 E1.4721
G0 F7200 X121.237 Y2.400
G1 F3600 X130.818 Y7.931 E1.4718
G0 F7200 X130.803 Y7.932
G1 F3600 X135.698 Y5.105 E0.7520
G0 F7200 X127.794 Y2.400
G1 F3600 X127.794 Y7.932 E0.7360
G0 F7200 X118.194 Y7.932
G1 F3600 X118.194 Y2.400 E0.7360
G0 F7200 X108.594 Y2.400
G1 F3600 X108.594 Y7.932 E0.7360
;PRINTING_TIME: 71
;REMAINING_TIME: 12562
;LAYER:13
;Z:8.158
;HEIGHT:0.566
;HEIGHT-BELT:0.400
;PRINTING: little_table-Rail Sketchrail with holes.stl
;PRINTING_ID: 0
G0 F1200 Z8.158
G0 F7200 X100.400 Y0.400
M204 S1500.00
;TYPE:WALL-OUTER
;WIDTH:0.800
G1 F1800 X137.700 Y0.400 E4.9624
G1 X137.700 Y10.162 E1.2987
;TYPE:WALL-OUTER
;WIDTH:0.800
G1 X137.700 Y10.732 E0.0758
G1 X100.400 Y10.732 E4.9624
G1 X100.400 Y10.162 E0.0758
;TYPE:WALL-OUTER
;WIDTH:0.800
G1 X100.400 Y0.800 E1.2455
G0 F1800 X100.400 Y0.400
M204 S2000.00
G0 F7200 X101.200 Y1.200
;TYPE:WALL-INNER
;WIDTH:0.800
G1 F3600 X136.900 Y1.200 E4.7495
G1 X136.900 Y9.932 E1.1617
G1 X101.200 Y9.932 E4.7495
G1 X101.200 Y1.600 E1.1085
G0 F3600 X101.200 Y1.200
G0 F7200 X102.000 Y2.000
G1 F3600 X136.100 Y2.000 E4.5367
G1 X136.100 Y9.132 E0.9488
G1 X102.000 Y9.132 E4.5367
G1 X102.000 Y2.400 E0.8956
G0 F3600 X102.000 Y2.000
G0 F7200 X102.398 Y2.935
;TYPE:FILL
;WIDTH:0.800
G1 F3600 X112.438 Y8.732 E1.5424
G0 F7200 X109.651 Y8.732
G1 F3600 X120.619 Y2.399 E1.6850
G0 F7200 X120.671 Y2.400
G1 F3600 X131.639 Y8.732 E1.6849
G0 F7200 X128.850 Y8.732
G1 F3600 X135.698 Y4.778 E1.0520
G0 F7200 X128.077 Y2.400
G1 F3600 X128.077 Y8.732 E0.8424
G0 F7200 X118.477 Y8.732
G1 F3600 X118.477 Y2.400 E0.8424
G0 F7200 X108.877 Y2.400
G1 F3600 X108.877 Y8.732 E0.8424
;PRINTING_TIME: 80
;REMAINING_TIME: 12554
;LAYER:14
;Z:8.724
;HEIGHT:0.566
;HEIGHT-BELT:0.400
;PRINTING: little_table-Rail Sketchrail with holes.stl
;PRINTING_ID: 0
G0 F1200 Z8.724
G0 F7200 X100.400 Y0.400
M204 S1500.00
;TYPE:WALL-OUTER
;WIDTH:0.800
G1 F1800 X137.700 Y0.400 E4.9624
G1 X137.700 Y10.962 E1.4052
;TYPE:WALL-OUTER
;WIDTH:0.800
G1 X137.700 Y11.532 E0.0758
G1 X100.400 Y11.532 E4.9624
G1 X100.400 Y10.962 E0.0758
;TYPE:WALL-OUTER
;WIDTH:0.800
G1 X100.400 Y0.800 E1.3520
G0 F1800 X100.400 Y0.400
M204 S2000.00
G0 F7200 X101.200 Y1.200
;TYPE:WALL-INNER
;WIDTH:0.800
G1 F3600 X136.900 Y1.200 E4.7495
G1 X136.900 Y10.732 E1.2681
G1 X101.200 Y10.732 E4.7495
G1 X101.200 Y1.600 E1.2149
G0 F3600 X101.200 Y1.200
G0 F7200 X102.000 Y2.000
G1 F3600 X136.100 Y2.000 E4.5367
G1 X136.100 Y9.932 E1.0553
G1 X102.000 Y9.932 E4.5367
G1 X102.000 Y2.400 E1.0021
G0 F3600 X102.000 Y2.000
G0 F7200 X102.399 Y3.262
;TYPE:FILL
;WIDTH:0.800
G1 F3600 X113.257 Y9.531 E1.6680
G0 F7200 X109.160 Y9.532
G1 F3600 X109.160 Y2.400 E0.9488
G0 F7200 X107.700 Y9.531
G1 F3600 X120.053 Y2.399 E1.8977
G0 F7200 X120.105 Y2.400
G1 F3600 X132.457 Y9.531 E1.8975
G0 F7200 X128.360 Y9.532
G1 F3600 X128.360 Y2.400 E0.9488
G0 F7200 X126.900 Y9.531
G1 F3600 X135.698 Y4.452 E1.3515
G0 F7200 X118.760 Y2.400
G1 F3600 X118.760 Y9.532 E0.9488
;PRINTING_TIME: 89
