;Sliced by ideaMaker 4.3.2.6470, 2023-04-18 22:48:31 UTC-0500
;Dimension: 200.000 9999.000 170.000 0.800
;Plate Shape: 0
;Origin Center: 0
;Belt Printer: 1
;Belt Base Y: 5368.987
;Belt Base Z: 0.000
;Belt Offset Y: 0.000
;Belt Offset Z: 3796.447
;Belt Gantry Angle: 45
;Belt Remove Z: 0.000
;Belt Repetition: 1
;Extruder Offset #1: 25.000 0.000
;Filament Diameter #1: 1.750
;Filament Diameter #2: 1.750
;Filament Compensation #1: 100.00
;Filament Compensation #2: 90.00
;Filament Density #1: 1240.00
;Filament Density #2: 1240.00
;Filament Type #1: PLA
;Filament Type #2: 
;Filament Name #1: [Raise3D] PLA 1.75mm
;Filament Name #2: 
;Firmware: Marlin
;Bounding Box: 30.150 169.850 -0.100 26.940 0.000 228.566
;Model Gap: 0.000
;
;
M92 E202.50000
M221 T0 S100.00
M140 S60.00
M104 T0 S200.00
M109 T0 S200.00
T0
M190 S60.00
G90 ; Set to Absolute Positioning
M82 ; Set extruder to absolute mode
G21 ; Metric values
;M808 L ; This is your looping code, any number after the L is the number of repeats, leave blank for infinite loops
M104 T0 S200 ; For some reason ideamaker forces the nozzle to cooldown when the command isnt even in the endgcode, this turns it straight back on after the loop, 245 is the degrees in this case
G28; Home
G92 X0 Y0 Z0 E0 ; zero out all axes (include extruder)
M83 ; set extruder to relative coordinates
G0 Z80 E25 ; extrude short Z line
G92 E0 Z0 ; Set all axis to 0
G0 X215 E40 F800 ; Primeline placed after the loop code so every looped print will get a primeline for better adhesion
G92 E0 Z0
M82
M117 Please stick...
;end of Start GCode
;TOTAL_NUM: 1
;PRINTING_TIME: 0
;REMAINING_TIME: 20610
M83
;LAYER:0
;Z:0.800
;HEIGHT:0.800
;HEIGHT-BELT:0.566
;BELT-FIRST-Z:0.800
M106 S255
;PRINTING: little_table-shelf002.stl
;PRINTING_ID: 0
M204 S2000.00
M205 X5.00 Y5.00
G0 F7200 X62.200 Y0.300
G0 F1200 Z0.800
M204 S1500.00
;TYPE:WALL-OUTER
;WIDTH:0.800
G1 F1800 X137.800 Y0.300 E14.2319
G1 X137.800 Y0.431 E0.0247
G1 X62.468 Y0.432 E14.1814
G0 F1800 X62.200 Y0.432
G0 F1800 X62.200 Y0.300
;PRINTING_TIME: 6
;REMAINING_TIME: 20604
;LAYER:1
;Z:1.366
;HEIGHT:0.566
;HEIGHT-BELT:0.400
;PRINTING: little_table-shelf002.stl
;PRINTING_ID: 0
M204 S2000.00
G0 F1200 Z1.366
G0 F7200 X62.300 Y0.400
M204 S1500.00
;TYPE:WALL-OUTER
;WIDTH:0.800
G1 F1800 X137.700 Y0.400 E10.0313
;TYPE:WALL-OUTER
;WIDTH:0.800
G1 X137.700 Y1.131 E0.0973
G1 X62.300 Y1.132 E10.0313
G1 X62.300 Y0.800 E0.0442
G0 F1800 X62.300 Y0.662
G0 F1800 X62.300 Y0.400
;PRINTING_TIME: 11
;REMAINING_TIME: 20599
;LAYER:2
;Z:1.932
;HEIGHT:0.566
;HEIGHT-BELT:0.400
;PRINTING: little_table-shelf002.stl
;PRINTING_ID: 0
M204 S2000.00
G0 F1200 Z1.932
G0 F7200 X62.300 Y0.400
M204 S1500.00
;TYPE:WALL-OUTER
;WIDTH:0.800
G1 F1800 X137.700 Y0.400 E10.0313
G1 X137.700 Y1.361 E0.1279
;TYPE:WALL-OUTER
;WIDTH:0.800
G1 X137.700 Y1.931 E0.0758
G1 X62.300 Y1.932 E10.0313
G1 X62.300 Y1.362 E0.0758
;TYPE:WALL-OUTER
;WIDTH:0.800
G1 X62.300 Y0.800 E0.0748
G0 F1800 X62.300 Y0.400
M204 S2000.00
G0 F7200 X62.700 Y1.166
M204 S1500.00
;TYPE:SOLID-FILL
;WIDTH:0.732
G1 F1950 X137.300 Y1.166 E9.0812
;PRINTING_TIME: 19
;REMAINING_TIME: 20591
;LAYER:3
;Z:2.498
;HEIGHT:0.566
;HEIGHT-BELT:0.400
;PRINTING: little_table-shelf002.stl
;PRINTING_ID: 0
M204 S2000.00
G0 F1200 Z2.498
G0 F7200 X62.300 Y0.400
M204 S1500.00
;TYPE:WALL-OUTER
;WIDTH:0.800
G1 F1800 X137.700 Y0.400 E10.0313
G1 X137.700 Y2.161 E0.2343
;TYPE:WALL-OUTER
;WIDTH:0.800
G1 X137.700 Y2.731 E0.0758
G1 X62.300 Y2.732 E10.0313
G1 X62.300 Y2.162 E0.0758
;TYPE:WALL-OUTER
;WIDTH:0.800
G1 X62.300 Y0.800 E0.1812
G0 F1800 X62.300 Y0.400
M204 S2000.00
G0 F7200 X62.700 Y1.566
M204 S1500.00
;TYPE:SOLID-FILL
;WIDTH:1.532
G1 F2025 X137.300 Y1.566 E19.0060
;PRINTING_TIME: 27
;REMAINING_TIME: 20583
;LAYER:4
;Z:3.064
;HEIGHT:0.566
;HEIGHT-BELT:0.400
;PRINTING: little_table-shelf002.stl
;PRINTING_ID: 0
M204 S2000.00
G0 F1200 Z3.064
G0 F7200 X62.300 Y0.400
M204 S1500.00
;TYPE:WALL-OUTER
;WIDTH:0.800
G1 F1800 X137.700 Y0.400 E10.0313
G1 X137.700 Y2.961 E0.3407
;TYPE:WALL-OUTER
;WIDTH:0.800
G1 X137.700 Y3.531 E0.0758
G1 X62.300 Y3.532 E10.0313
G1 X62.300 Y2.962 E0.0758
;TYPE:WALL-OUTER
;WIDTH:0.800
G1 X62.300 Y0.800 E0.2876
G0 F1800 X62.300 Y0.400
M204 S2000.00
G0 F7200 X63.100 Y1.200
;TYPE:WALL-INNER
;WIDTH:0.800
G1 F3600 X136.900 Y1.200 E9.8184
G1 X136.900 Y2.731 E0.2037
G1 X63.100 Y2.732 E9.8184
G1 X63.100 Y1.600 E0.1506
G0 F3600 X63.100 Y1.200
G0 F7200 X63.500 Y1.966
M204 S1500.00
;TYPE:SOLID-FILL
;WIDTH:0.732
G1 F2100 X136.500 Y1.966 E8.8864
;PRINTING_TIME: 38
;REMAINING_TIME: 20572
;LAYER:5
;Z:3.630
;HEIGHT:0.566
;HEIGHT-BELT:0.400
;PRINTING: little_table-shelf002.stl
;PRINTING_ID: 0
M204 S2000.00
G0 F1200 Z3.630
G0 F7200 X62.300 Y0.400
M204 S1500.00
;TYPE:WALL-OUTER
;WIDTH:0.800
G1 F1800 X137.700 Y0.400 E10.0313
G1 X137.700 Y3.761 E0.4471
;TYPE:WALL-OUTER
;WIDTH:0.800
G1 X137.700 Y4.331 E0.0758
G1 X62.300 Y4.332 E10.0313
G1 X62.300 Y3.762 E0.0758
;TYPE:WALL-OUTER
;WIDTH:0.800
G1 X62.300 Y0.800 E0.3941
G0 F1800 X62.300 Y0.400
M204 S2000.00
G0 F7200 X63.100 Y1.200
;TYPE:WALL-INNER
;WIDTH:0.800
G1 F3600 X136.900 Y1.200 E9.8184
G1 X136.900 Y3.531 E0.3101
G1 X63.100 Y3.532 E9.8184
G1 X63.100 Y1.600 E0.2570
G0 F3600 X63.100 Y1.200
G0 F7200 X63.500 Y2.366
M204 S1500.00
;TYPE:SOLID-FILL
;WIDTH:1.532
G1 F2100 X136.500 Y2.366 E18.5984
;PRINTING_TIME: 49
;REMAINING_TIME: 20561
;LAYER:6
;Z:4.196
;HEIGHT:0.566
;HEIGHT-BELT:0.400
;PRINTING: little_table-shelf002.stl
;PRINTING_ID: 0
M204 S2000.00
G0 F1200 Z4.196
G0 F7200 X62.300 Y0.400
M204 S1500.00
;TYPE:WALL-OUTER
;WIDTH:0.800
G1 F1800 X137.700 Y0.400 E10.0313
G1 X137.700 Y4.561 E0.5536
;TYPE:WALL-OUTER
;WIDTH:0.800
G1 X137.700 Y5.131 E0.0758
G1 X62.300 Y5.132 E10.0313
G1 X62.300 Y4.562 E0.0758
;TYPE:WALL-OUTER
;WIDTH:0.800
G1 X62.300 Y0.800 E0.5005
G0 F1800 X62.300 Y0.400
M204 S2000.00
G0 F7200 X63.100 Y1.200
;TYPE:WALL-INNER
;WIDTH:0.800
G1 F3600 X136.900 Y1.200 E9.8184
G1 X136.900 Y4.331 E0.4165
G1 X63.100 Y4.332 E9.8184
G1 X63.100 Y1.600 E0.3635
G0 F3600 X63.100 Y1.200
G0 F7200 X63.900 Y2.000
G1 F3600 X136.100 Y2.000 E9.6055
G1 X136.100 Y3.531 E0.2037
G1 X63.900 Y3.532 E9.6055
G1 X63.900 Y2.400 E0.1506
G0 F3600 X63.900 Y2.000
G0 F7200 X64.300 Y2.766
M204 S1500.00
;TYPE:SOLID-FILL
;WIDTH:0.732
G1 F2100 X135.700 Y2.766 E8.6917
;PRINTING_TIME: 63
;REMAINING_TIME: 20547
;LAYER:7
;Z:4.762
;HEIGHT:0.566
;HEIGHT-BELT:0.400
;PRINTING: little_table-shelf002.stl
;PRINTING_ID: 0
M204 S2000.00
G0 F1200 Z4.762
G0 F7200 X62.300 Y0.400
M204 S1500.00
;TYPE:WALL-OUTER
;WIDTH:0.800
G1 F1800 X137.700 Y0.400 E10.0313
G1 X137.700 Y5.361 E0.6600
;TYPE:WALL-OUTER
;WIDTH:0.800
G1 X137.700 Y5.931 E0.0758
G1 X62.300 Y5.932 E10.0313
G1 X62.300 Y5.362 E0.0758
;TYPE:WALL-OUTER
;WIDTH:0.800
G1 X62.300 Y0.800 E0.6069
G0 F1800 X62.300 Y0.400
M204 S2000.00
G0 F7200 X63.100 Y1.200
;TYPE:WALL-INNER
;WIDTH:0.800
G1 F3600 X136.900 Y1.200 E9.8184
G1 X136.900 Y5.131 E0.5230
G1 X63.100 Y5.132 E9.8184
G1 X63.100 Y1.600 E0.4699
G0 F3600 X63.100 Y1.200
G0 F7200 X63.900 Y2.000
G1 F3600 X136.100 Y2.000 E9.6055
G1 X136.100 Y4.331 E0.3101
G1 X63.900 Y4.332 E9.6055
G1 X63.900 Y2.400 E0.2570
G0 F3600 X63.900 Y2.000
G0 F7200 X64.300 Y3.166
M204 S1500.00
;TYPE:SOLID-FILL
;WIDTH:1.532
G1 F2100 X135.700 Y3.166 E18.1908
;PRINTING_TIME: 77
;REMAINING_TIME: 20534
;LAYER:8
;Z:5.328
;HEIGHT:0.566
;HEIGHT-BELT:0.400
;PRINTING: little_table-shelf002.stl
;PRINTING_ID: 0
M204 S2000.00
G0 F1200 Z5.328
G0 F7200 X62.300 Y0.400
M204 S1500.00
;TYPE:WALL-OUTER
;WIDTH:0.800
G1 F1800 X137.700 Y0.400 E10.0313
G1 X137.700 Y6.161 E0.7664
;TYPE:WALL-OUTER
;WIDTH:0.800
G1 X137.700 Y6.731 E0.0758
G1 X62.300 Y6.732 E10.0313
G1 X62.300 Y6.162 E0.0758
;TYPE:WALL-OUTER
;WIDTH:0.800
G1 X62.300 Y0.800 E0.7134
G0 F1800 X62.300 Y0.400
M204 S2000.00
G0 F7200 X63.100 Y1.200
;TYPE:WALL-INNER
;WIDTH:0.800
G1 F3600 X136.900 Y1.200 E9.8184
G1 X136.900 Y5.931 E0.6294
G1 X63.100 Y5.932 E9.8184
G1 X63.100 Y1.600 E0.5763
G0 F3600 X63.100 Y1.200
G0 F7200 X63.900 Y2.000
G1 F3600 X136.100 Y2.000 E9.6055
G1 X136.100 Y5.131 E0.4165
G1 X63.900 Y5.132 E9.6055
G1 X63.900 Y2.400 E0.3635
G0 F3600 X63.900 Y2.000
G0 F7200 X64.298 Y2.660
;TYPE:FILL
;WIDTH:0.800
G1 F3600 X66.369 Y4.731 E0.3897
G0 F7200 X68.564 Y2.400
G1 F3600 X70.895 Y4.731 E0.4386
G0 F7200 X73.090 Y2.400
G1 F3600 X75.420 Y4.731 E0.4385
G0 F7200 X77.615 Y2.400
G1 F3600 X79.946 Y4.731 E0.4386
G0 F7200 X82.141 Y2.400
G1 F3600 X84.471 Y4.731 E0.4385
G0 F7200 X86.666 Y2.400
G1 F3600 X88.997 Y4.731 E0.4386
G0 F7200 X91.192 Y2.400
G1 F3600 X93.522 Y4.731 E0.4385
G0 F7200 X95.717 Y2.400
G1 F3600 X98.048 Y4.731 E0.4386
G0 F7200 X100.242 Y2.400
G1 F3600 X102.572 Y4.730 E0.4384
G0 F7200 X104.768 Y2.400
G1 F3600 X107.098 Y4.730 E0.4384
G0 F7200 X109.293 Y2.400
G1 F3600 X111.623 Y4.730 E0.4384
G0 F7200 X113.819 Y2.400
G1 F3600 X116.149 Y4.730 E0.4384
G0 F7200 X118.344 Y2.400
G1 F3600 X120.674 Y4.730 E0.4384
G0 F7200 X122.870 Y2.400
G1 F3600 X125.200 Y4.730 E0.4384
G0 F7200 X127.395 Y2.400
G1 F3600 X129.725 Y4.730 E0.4384
G0 F7200 X131.921 Y2.400
G1 F3600 X134.251 Y4.730 E0.4384
;PRINTING_TIME: 91
;REMAINING_TIME: 20519
;LAYER:9
;Z:5.894
;HEIGHT:0.566
;HEIGHT-BELT:0.400
;PRINTING: little_table-shelf002.stl
;PRINTING_ID: 0
G0 F1200 Z5.894
G0 F7200 X62.300 Y0.400
M204 S1500.00
;TYPE:WALL-OUTER
;WIDTH:0.800
G1 F1800 X137.700 Y0.400 E10.0313
G1 X137.700 Y6.961 E0.8729
;TYPE:WALL-OUTER
;WIDTH:0.800
G1 X137.700 Y7.531 E0.0758
G1 X62.300 Y7.532 E10.0313
G1 X62.300 Y6.962 E0.0758
;TYPE:WALL-OUTER
;WIDTH:0.800
G1 X62.300 Y0.800 E0.8198
G0 F1800 X62.300 Y0.400
M204 S2000.00
G0 F7200 X63.100 Y1.200
;TYPE:WALL-INNER
;WIDTH:0.800
G1 F3600 X136.900 Y1.200 E9.8184
G1 X136.900 Y6.731 E0.7358
G1 X63.100 Y6.732 E9.8184
G1 X63.100 Y1.600 E0.6828
G0 F3600 X63.100 Y1.200
G0 F7200 X63.900 Y2.000
G1 F3600 X136.100 Y2.000 E9.6055
G1 X136.100 Y5.931 E0.5230
G1 X63.900 Y5.932 E9.6055
G1 X63.900 Y2.400 E0.4699
G0 F3600 X63.900 Y2.000
G0 F7200 X64.945 Y5.531
;TYPE:FILL
;WIDTH:0.800
G1 F3600 X68.077 Y2.399 E0.5893
G0 F7200 X69.471 Y5.531
G1 F3600 X72.602 Y2.399 E0.5892
G0 F7200 X73.996 Y5.531
G1 F3600 X77.128 Y2.399 E0.5893
G0 F7200 X78.522 Y5.531
G1 F3600 X81.653 Y2.399 E0.5892
G0 F7200 X83.047 Y5.531
G1 F3600 X86.179 Y2.399 E0.5893
G0 F7200 X87.573 Y5.531
G1 F3600 X90.704 Y2.399 E0.5892
G0 F7200 X92.098 Y5.531
G1 F3600 X95.230 Y2.399 E0.5893
G0 F7200 X96.624 Y5.531
G1 F3600 X99.755 Y2.399 E0.5892
G0 F7200 X101.149 Y5.531
G1 F3600 X104.281 Y2.399 E0.5893
G0 F7200 X105.674 Y5.531
G1 F3600 X108.806 Y2.399 E0.5893
G0 F7200 X110.200 Y5.531
G1 F3600 X113.332 Y2.399 E0.5893
G0 F7200 X114.725 Y5.531
G1 F3600 X117.857 Y2.399 E0.5893
G0 F7200 X119.251 Y5.531
G1 F3600 X122.383 Y2.399 E0.5893
G0 F7200 X123.776 Y5.531
G1 F3600 X126.908 Y2.399 E0.5893
G0 F7200 X128.302 Y5.531
G1 F3600 X131.434 Y2.399 E0.5893
G0 F7200 X132.827 Y5.531
G1 F3600 X135.699 Y2.660 E0.5403
;PRINTING_TIME: 106
;REMAINING_TIME: 20505
;LAYER:10
;Z:6.460
;HEIGHT:0.566
;HEIGHT-BELT:0.400
;PRINTING: little_table-shelf002.stl
;PRINTING_ID: 0
G0 F1200 Z6.460
G0 F7200 X62.300 Y0.400
M204 S1500.00
;TYPE:WALL-OUTER
;WIDTH:0.800
G1 F1800 X137.700 Y0.400 E10.0313
G1 X137.700 Y7.761 E0.9793
;TYPE:WALL-OUTER
;WIDTH:0.800
G1 X137.700 Y8.331 E0.0758
G1 X62.300 Y8.332 E10.0313
G1 X62.300 Y7.762 E0.0758
;TYPE:WALL-OUTER
;WIDTH:0.800
G1 X62.300 Y0.800 E0.9262
G0 F1800 X62.300 Y0.400
M204 S2000.00
G0 F7200 X63.100 Y1.200
;TYPE:WALL-INNER
;WIDTH:0.800
G1 F3600 X136.900 Y1.200 E9.8184
G1 X136.900 Y7.531 E0.8423
G1 X63.100 Y7.532 E9.8184
G1 X63.100 Y1.600 E0.7892
G0 F3600 X63.100 Y1.200
G0 F7200 X63.900 Y2.000
G1 F3600 X136.100 Y2.000 E9.6055
G1 X136.100 Y6.731 E0.6294
G1 X63.900 Y6.732 E9.6055
G1 X63.900 Y2.400 E0.5763
G0 F3600 X63.900 Y2.000
G0 F7200 X64.299 Y2.660
;TYPE:FILL
;WIDTH:0.800
G1 F3600 X67.969 Y6.331 E0.6906
G0 F7200 X68.564 Y2.400
G1 F3600 X72.495 Y6.331 E0.7396
G0 F7200 X73.090 Y2.400
G1 F3600 X77.020 Y6.331 E0.7395
G0 F7200 X77.615 Y2.400
G1 F3600 X81.546 Y6.331 E0.7396
G0 F7200 X82.141 Y2.400
G1 F3600 X86.071 Y6.331 E0.7395
G0 F7200 X86.666 Y2.400
G1 F3600 X90.597 Y6.331 E0.7396
G0 F7200 X91.192 Y2.400
G1 F3600 X95.122 Y6.331 E0.7395
G0 F7200 X95.717 Y2.400
G1 F3600 X99.648 Y6.331 E0.7396
G0 F7200 X100.242 Y2.400
G1 F3600 X104.173 Y6.331 E0.7396
G0 F7200 X104.768 Y2.400
G1 F3600 X108.699 Y6.331 E0.7396
G0 F7200 X109.293 Y2.400
G1 F3600 X113.224 Y6.331 E0.7396
G0 F7200 X113.819 Y2.400
G1 F3600 X117.750 Y6.331 E0.7396
G0 F7200 X118.344 Y2.400
G1 F3600 X122.275 Y6.331 E0.7396
G0 F7200 X122.870 Y2.400
G1 F3600 X126.801 Y6.331 E0.7396
G0 F7200 X127.395 Y2.400
G1 F3600 X131.326 Y6.331 E0.7396
G0 F7200 X131.921 Y2.400
G1 F3600 X135.699 Y6.178 E0.7108
;PRINTING_TIME: 121
;REMAINING_TIME: 20489
;LAYER:11
;Z:7.026
;HEIGHT:0.566
;HEIGHT-BELT:0.400
;PRINTING: little_table-shelf002.stl
;PRINTING_ID: 0
G0 F1200 Z7.026
G0 F7200 X62.300 Y0.400
M204 S1500.00
;TYPE:WALL-OUTER
;WIDTH:0.800
G1 F1800 X137.700 Y0.400 E10.0313
G1 X137.700 Y8.561 E1.0857
;TYPE:WALL-OUTER
;WIDTH:0.800
G1 X137.700 Y9.131 E0.0758
G1 X62.300 Y9.132 E10.0313
G1 X62.300 Y8.562 E0.0758
;TYPE:WALL-OUTER
;WIDTH:0.800
G1 X62.300 Y0.800 E1.0327
G0 F1800 X62.300 Y0.400
M204 S2000.00
G0 F7200 X63.100 Y1.200
;TYPE:WALL-INNER
;WIDTH:0.800
G1 F3600 X136.900 Y1.200 E9.8184
G1 X136.900 Y8.331 E0.9487
G1 X63.100 Y8.332 E9.8184
G1 X63.100 Y1.600 E0.8956
G0 F3600 X63.100 Y1.200
G0 F7200 X63.900 Y2.000
G1 F3600 X136.100 Y2.000 E9.6055
G1 X136.100 Y7.531 E0.7358
G1 X63.900 Y7.532 E9.6055
G1 X63.900 Y2.400 E0.6828
G0 F3600 X63.900 Y2.000
G0 F7200 X64.299 Y6.177
;TYPE:FILL
;WIDTH:0.800
G1 F3600 X68.077 Y2.399 E0.7108
G0 F7200 X72.602 Y2.399
G1 F3600 X67.870 Y7.132 E0.8904
G0 F7200 X72.395 Y7.132
G1 F3600 X77.128 Y2.399 E0.8905
G0 F7200 X81.653 Y2.399
G1 F3600 X76.921 Y7.132 E0.8904
G0 F7200 X81.446 Y7.132
G1 F3600 X86.179 Y2.399 E0.8905
G0 F7200 X90.704 Y2.399
G1 F3600 X85.972 Y7.132 E0.8904
G0 F7200 X90.498 Y7.131
G1 F3600 X95.230 Y2.399 E0.8903
G0 F7200 X99.755 Y2.399
G1 F3600 X95.023 Y7.131 E0.8903
G0 F7200 X99.549 Y7.131
G1 F3600 X104.281 Y2.399 E0.8903
G0 F7200 X108.806 Y2.399
G1 F3600 X104.074 Y7.131 E0.8903
G0 F7200 X108.600 Y7.131
G1 F3600 X113.332 Y2.399 E0.8903
G0 F7200 X117.857 Y2.399
G1 F3600 X113.126 Y7.131 E0.8902
G0 F7200 X117.651 Y7.131
G1 F3600 X122.383 Y2.399 E0.8903
G0 F7200 X126.908 Y2.399
G1 F3600 X122.177 Y7.131 E0.8902
G0 F7200 X126.702 Y7.131
G1 F3600 X131.434 Y2.399 E0.8903
G0 F7200 X135.699 Y2.660
G1 F3600 X131.228 Y7.131 E0.8412
;PRINTING_TIME: 137
;REMAINING_TIME: 20474
;LAYER:12
;Z:7.592
;HEIGHT:0.566
;HEIGHT-BELT:0.400
;PRINTING: little_table-shelf002.stl
;PRINTING_ID: 0
G0 F1200 Z7.592
G0 F7200 X62.300 Y0.400
M204 S1500.00
;TYPE:WALL-OUTER
;WIDTH:0.800
G1 F1800 X137.700 Y0.400 E10.0313
G1 X137.700 Y9.361 E1.1922
;TYPE:WALL-OUTER
;WIDTH:0.800
G1 X137.700 Y9.931 E0.0758
G1 X62.300 Y9.932 E10.0313
G1 X62.300 Y9.362 E0.0758
;TYPE:WALL-OUTER
;WIDTH:0.800
G1 X62.300 Y0.800 E1.1391
G0 F1800 X62.300 Y0.400
M204 S2000.00
G0 F7200 X63.100 Y1.200
;TYPE:WALL-INNER
;WIDTH:0.800
G1 F3600 X136.900 Y1.200 E9.8184
G1 X136.900 Y9.131 E1.0551
G1 X63.100 Y9.132 E9.8184
G1 X63.100 Y1.600 E1.0021
G0 F3600 X63.100 Y1.200
G0 F7200 X63.900 Y2.000
G1 F3600 X136.100 Y2.000 E9.6055
G1 X136.100 Y8.331 E0.8423
G1 X63.900 Y8.332 E9.6055
G1 X63.900 Y2.400 E0.7892
G0 F3600 X63.900 Y2.000
G0 F7200 X64.299 Y2.660
;TYPE:FILL
;WIDTH:0.800
G1 F3600 X69.569 Y7.930 E0.9915
G0 F7200 X74.094 Y7.930
G1 F3600 X68.564 Y2.400 E1.0405
G0 F7200 X73.090 Y2.400
G1 F3600 X78.620 Y7.930 E1.0405
G0 F7200 X83.145 Y7.930
G1 F3600 X77.615 Y2.400 E1.0405
G0 F7200 X82.141 Y2.400
G1 F3600 X87.671 Y7.930 E1.0405
G0 F7200 X92.196 Y7.930
G1 F3600 X86.666 Y2.400 E1.0405
G0 F7200 X91.192 Y2.400
G1 F3600 X96.722 Y7.930 E1.0405
G0 F7200 X101.247 Y7.930
G1 F3600 X95.717 Y2.400 E1.0405
G0 F7200 X100.242 Y2.400
G1 F3600 X105.773 Y7.930 E1.0406
G0 F7200 X110.298 Y7.930
G1 F3600 X104.768 Y2.400 E1.0405
G0 F7200 X109.293 Y2.400
G1 F3600 X114.824 Y7.930 E1.0406
G0 F7200 X119.349 Y7.930
G1 F3600 X113.819 Y2.400 E1.0405
G0 F7200 X118.344 Y2.400
G1 F3600 X123.875 Y7.930 E1.0406
G0 F7200 X128.400 Y7.930
G1 F3600 X122.870 Y2.400 E1.0405
