;Sliced by ideaMaker 4.3.2.6470, 2023-04-17 10:07:06 UTC-0500
;Dimension: 200.000 9999.000 170.000 0.800
;Plate Shape: 0
;Origin Center: 0
;Belt Printer: 1
;Belt Base Y: 5480.350
;Belt Base Z: 0.000
;Belt Offset Y: 0.000
;Belt Offset Z: 3875.192
;Belt Gantry Angle: 45
;Belt Remove Z: 0.000
;Belt Repetition: 1
;Extruder Offset #1: 25.000 0.000
;Filament Diameter #1: 1.750
;Filament Diameter #2: 1.750
;Filament Compensation #1: 100.00
;Filament Compensation #2: 90.00
;Filament Density #1: 1240.00
;Filament Density #2: 1240.00
;Filament Type #1: PLA
;Filament Type #2: 
;Filament Name #1: [Raise3D] PLA 1.75mm
;Filament Name #2: 
;Firmware: Marlin
;Bounding Box: 39.305 160.695 -0.100 26.940 0.000 331.766
;Model Gap: 0.000
;
;
M92 E203.00000
M221 T0 S100.00
M140 S60.00
M104 T0 S200.00
M109 T0 S200.00
T0
M190 S60.00
G90 ; Set to Absolute Positioning
M82 ; Set extruder to absolute mode
G21 ; Metric values
;M808 L ; This is your looping code, any number after the L is the number of repeats, leave blank for infinite loops
M104 T0 S200 ; For some reason ideamaker forces the nozzle to cooldown when the command isnt even in the endgcode, this turns it straight back on after the loop, 245 is the degrees in this case
G28; Home
G92 X0 Y0 Z0 E0 ; zero out all axes (include extruder)
M83 ; set extruder to relative coordinates
G0 Z80 E25 ; extrude short Z line
G92 E0 Z0 ; Set all axis to 0
G0 X215 E40 F800 ; Primeline placed after the loop code so every looped print will get a primeline for better adhesion
G92 E0 Z0
M82
M117 Please stick...
;end of Start GCode
;TOTAL_NUM: 1
;PRINTING_TIME: 0
;REMAINING_TIME: 19997
M83
;LAYER:0
;Z:0.800
;HEIGHT:0.800
;HEIGHT-BELT:0.566
;BELT-FIRST-Z:0.800
M106 S255
;PRINTING: little_table-Left Legpenis001.stl
;PRINTING_ID: 0
M204 S2000.00
M205 X5.00 Y5.00
G0 F7200 X75.566 Y0.300
G0 F1200 Z0.800
M204 S1500.00
;TYPE:WALL-OUTER
;WIDTH:0.800
G1 F1800 X140.702 Y0.300 E12.2620
G1 X140.702 Y0.431 E0.0247
G1 X75.834 Y0.432 E12.2116
G0 F1800 X75.566 Y0.432
G0 F1800 X75.566 Y0.300
;PRINTING_TIME: 5
;REMAINING_TIME: 19992
;LAYER:1
;Z:1.366
;HEIGHT:0.566
;HEIGHT-BELT:0.400
;PRINTING: little_table-Left Legpenis001.stl
;PRINTING_ID: 0
M204 S2000.00
G0 F1200 Z1.366
G0 F7200 X75.766 Y0.410
G0 X75.666 Y0.400
M204 S1500.00
;TYPE:WALL-OUTER
;WIDTH:0.800
G1 F1800 X140.602 Y0.400 E8.6391
;TYPE:WALL-OUTER
;WIDTH:0.800
G1 X140.602 Y1.131 E0.0973
G1 X75.666 Y1.132 E8.6391
G1 X75.666 Y0.800 E0.0442
G0 F1800 X75.666 Y0.662
G0 F1800 X75.666 Y0.400
;PRINTING_TIME: 10
;REMAINING_TIME: 19988
;LAYER:2
;Z:1.932
;HEIGHT:0.566
;HEIGHT-BELT:0.400
;PRINTING: little_table-Left Legpenis001.stl
;PRINTING_ID: 0
M204 S2000.00
G0 F1200 Z1.932
G0 F7200 X75.666 Y0.400
M204 S1500.00
;TYPE:WALL-OUTER
;WIDTH:0.800
G1 F1800 X140.602 Y0.400 E8.6391
G1 X140.602 Y1.361 E0.1279
;TYPE:WALL-OUTER
;WIDTH:0.800
G1 X140.602 Y1.931 E0.0758
G1 X75.666 Y1.932 E8.6391
G1 X75.666 Y1.362 E0.0758
;TYPE:WALL-OUTER
;WIDTH:0.800
G1 X75.666 Y0.800 E0.0748
G0 F1800 X75.666 Y0.400
M204 S2000.00
G0 F7200 X75.766 Y0.410
G0 X75.833 Y0.503
G0 F7200 X76.065 Y0.829
M204 S1500.00
;TYPE:SOLID-FILL
;WIDTH:0.800
G1 F2700 X76.967 Y1.165 E0.1319
G1 X78.098 Y1.165 E0.1377
G1 X79.230 Y1.165 E0.1376
G1 X80.361 Y1.165 E0.1375
G1 X81.492 Y1.165 E0.1377
G1 X82.624 Y1.165 E0.1376
G1 X83.755 Y1.165 E0.1375
G1 X84.886 Y1.165 E0.1377
G1 X86.018 Y1.165 E0.1376
G1 X87.149 Y1.165 E0.1377
G1 X88.280 Y1.165 E0.1377
G1 X89.412 Y1.165 E0.1376
G1 X90.543 Y1.165 E0.1377
G1 X91.675 Y1.165 E0.1376
G1 X92.806 Y1.165 E0.1375
G1 X93.937 Y1.165 E0.1377
G1 X95.069 Y1.165 E0.1376
G1 X96.200 Y1.165 E0.1377
G1 X97.331 Y1.165 E0.1377
G1 X98.463 Y1.165 E0.1376
G1 X99.594 Y1.165 E0.1377
G1 X100.726 Y1.165 E0.1376
G1 X101.857 Y1.165 E0.1375
G1 X102.988 Y1.165 E0.1377
G1 X104.120 Y1.165 E0.1376
G1 X105.251 Y1.165 E0.1377
G1 X106.382 Y1.165 E0.1377
G1 X107.514 Y1.165 E0.1376
G1 X108.645 Y1.164 E0.1373
G1 X109.776 Y1.164 E0.1373
G1 X110.908 Y1.164 E0.1374
G1 X112.039 Y1.164 E0.1373
G1 X113.170 Y1.164 E0.1373
G1 X114.302 Y1.164 E0.1374
G1 X115.433 Y1.164 E0.1373
G1 X116.565 Y1.164 E0.1374
G1 X117.696 Y1.164 E0.1373
G1 X118.827 Y1.164 E0.1373
G1 X119.959 Y1.164 E0.1374
G1 X121.090 Y1.164 E0.1373
G1 X122.221 Y1.164 E0.1373
G1 X123.353 Y1.164 E0.1374
G1 X124.484 Y1.164 E0.1373
G1 X125.615 Y1.164 E0.1373
G1 X126.747 Y1.164 E0.1374
G1 X127.878 Y1.164 E0.1373
G1 X129.010 Y1.164 E0.1374
G1 X130.141 Y1.164 E0.1373
G1 X131.272 Y1.164 E0.1373
G1 X132.404 Y1.164 E0.1374
G1 X133.535 Y1.164 E0.1373
G1 X134.666 Y1.164 E0.1373
G1 X135.798 Y1.164 E0.1374
G1 X136.929 Y1.164 E0.1373
G1 X138.061 Y1.164 E0.1374
G1 X139.192 Y1.164 E0.1373
G1 X140.123 Y1.530 E0.1331
;PRINTING_TIME: 16
;REMAINING_TIME: 19981
;LAYER:3
;Z:2.498
;HEIGHT:0.566
;HEIGHT-BELT:0.400
;PRINTING: little_table-Left Legpenis001.stl
;PRINTING_ID: 0
M204 S2000.00
G0 F1200 Z2.498
G0 F7200 X140.123 Y1.530
G0 X76.065 Y0.415
G0 F7200 X75.766 Y0.410
G0 F7200 X75.666 Y0.400
M204 S1500.00
;TYPE:WALL-OUTER
;WIDTH:0.800
G1 F1800 X140.602 Y0.400 E8.6391
G1 X140.602 Y2.161 E0.2343
;TYPE:WALL-OUTER
;WIDTH:0.800
G1 X140.602 Y2.731 E0.0758
G1 X75.666 Y2.732 E8.6391
G1 X75.666 Y2.162 E0.0758
;TYPE:WALL-OUTER
;WIDTH:0.800
G1 X75.666 Y0.800 E0.1812
G0 F1800 X75.666 Y0.400
M204 S2000.00
G0 F7200 X75.766 Y0.410
G0 X75.953 Y1.049
G0 F7200 X76.065 Y1.433
M204 S1500.00
;TYPE:SOLID-FILL
;WIDTH:0.800
G1 F3150 X76.699 Y0.799 E0.1193
M204 S2000.00
G0 F7200 X77.830 Y0.799
M204 S1500.00
G1 F3150 X76.298 Y2.332 E0.2883
M204 S2000.00
G0 F7200 X77.429 Y2.332
M204 S1500.00
G1 F3150 X78.961 Y0.799 E0.2883
M204 S2000.00
G0 F7200 X80.093 Y0.799
M204 S1500.00
G1 F3150 X78.560 Y2.332 E0.2884
M204 S2000.00
G0 F7200 X79.692 Y2.332
M204 S1500.00
G1 F3150 X81.224 Y0.799 E0.2883
M204 S2000.00
G0 F7200 X82.356 Y0.799
M204 S1500.00
G1 F3150 X80.823 Y2.332 E0.2884
M204 S2000.00
G0 F7200 X81.955 Y2.332
M204 S1500.00
G1 F3150 X83.487 Y0.799 E0.2883
M204 S2000.00
G0 F7200 X84.618 Y0.799
M204 S1500.00
G1 F3150 X83.086 Y2.332 E0.2883
M204 S2000.00
G0 F7200 X84.217 Y2.332
M204 S1500.00
G1 F3150 X85.750 Y0.799 E0.2884
M204 S2000.00
G0 F7200 X86.881 Y0.799
M204 S1500.00
G1 F3150 X85.349 Y2.332 E0.2883
M204 S2000.00
G0 F7200 X86.480 Y2.332
M204 S1500.00
G1 F3150 X88.012 Y0.799 E0.2883
M204 S2000.00
G0 F7200 X89.144 Y0.799
M204 S1500.00
G1 F3150 X87.611 Y2.332 E0.2884
M204 S2000.00
G0 F7200 X88.743 Y2.332
M204 S1500.00
G1 F3150 X90.275 Y0.799 E0.2883
M204 S2000.00
G0 F7200 X91.406 Y0.799
M204 S1500.00
G1 F3150 X89.874 Y2.332 E0.2883
M204 S2000.00
G0 F7200 X91.006 Y2.332
M204 S1500.00
G1 F3150 X92.538 Y0.799 E0.2883
M204 S2000.00
G0 F7200 X93.669 Y0.799
M204 S1500.00
G1 F3150 X92.137 Y2.332 E0.2883
M204 S2000.00
G0 F7200 X93.268 Y2.332
M204 S1500.00
G1 F3150 X94.801 Y0.799 E0.2884
M204 S2000.00
G0 F7200 X95.932 Y0.799
M204 S1500.00
G1 F3150 X94.400 Y2.332 E0.2883
M204 S2000.00
G0 F7200 X95.531 Y2.332
M204 S1500.00
G1 F3150 X97.063 Y0.799 E0.2883
M204 S2000.00
G0 F7200 X98.195 Y0.799
M204 S1500.00
G1 F3150 X96.662 Y2.332 E0.2884
M204 S2000.00
G0 F7200 X97.794 Y2.332
M204 S1500.00
G1 F3150 X99.326 Y0.799 E0.2883
M204 S2000.00
G0 F7200 X100.457 Y0.799
M204 S1500.00
G1 F3150 X98.925 Y2.332 E0.2883
M204 S2000.00
G0 F7200 X100.057 Y2.332
M204 S1500.00
G1 F3150 X101.589 Y0.799 E0.2883
M204 S2000.00
G0 F7200 X102.720 Y0.799
M204 S1500.00
G1 F3150 X101.188 Y2.332 E0.2883
M204 S2000.00
G0 F7200 X102.319 Y2.332
M204 S1500.00
G1 F3150 X103.852 Y0.799 E0.2884
M204 S2000.00
G0 F7200 X104.983 Y0.799
M204 S1500.00
G1 F3150 X103.451 Y2.332 E0.2883
M204 S2000.00
G0 F7200 X104.582 Y2.332
M204 S1500.00
G1 F3150 X106.114 Y0.799 E0.2883
M204 S2000.00
G0 F7200 X107.246 Y0.799
M204 S1500.00
G1 F3150 X105.713 Y2.332 E0.2884
M204 S2000.00
G0 F7200 X106.845 Y2.332
M204 S1500.00
G1 F3150 X108.377 Y0.799 E0.2883
M204 S2000.00
G0 F7200 X109.508 Y0.799
M204 S1500.00
G1 F3150 X107.976 Y2.332 E0.2883
M204 S2000.00
G0 F7200 X109.107 Y2.332
M204 S1500.00
G1 F3150 X110.640 Y0.799 E0.2884
M204 S2000.00
G0 F7200 X111.771 Y0.799
M204 S1500.00
G1 F3150 X110.239 Y2.332 E0.2883
M204 S2000.00
G0 F7200 X111.370 Y2.332
M204 S1500.00
G1 F3150 X112.903 Y0.799 E0.2884
M204 S2000.00
G0 F7200 X114.034 Y0.799
M204 S1500.00
G1 F3150 X112.502 Y2.332 E0.2883
M204 S2000.00
G0 F7200 X113.633 Y2.332
M204 S1500.00
G1 F3150 X115.165 Y0.799 E0.2883
M204 S2000.00
G0 F7200 X116.297 Y0.799
M204 S1500.00
G1 F3150 X114.764 Y2.332 E0.2884
M204 S2000.00
G0 F7200 X115.896 Y2.332
M204 S1500.00
G1 F3150 X117.428 Y0.799 E0.2883
M204 S2000.00
G0 F7200 X118.559 Y0.799
M204 S1500.00
G1 F3150 X117.027 Y2.332 E0.2883
M204 S2000.00
G0 F7200 X118.158 Y2.332
M204 S1500.00
G1 F3150 X119.691 Y0.799 E0.2884
M204 S2000.00
G0 F7200 X120.822 Y0.799
M204 S1500.00
G1 F3150 X119.290 Y2.332 E0.2883
M204 S2000.00
G0 F7200 X120.421 Y2.332
M204 S1500.00
G1 F3150 X121.953 Y0.799 E0.2883
M204 S2000.00
G0 F7200 X123.085 Y0.799
M204 S1500.00
G1 F3150 X121.553 Y2.332 E0.2883
M204 S2000.00
G0 F7200 X122.684 Y2.332
M204 S1500.00
G1 F3150 X124.216 Y0.799 E0.2883
M204 S2000.00
G0 F7200 X125.348 Y0.799
M204 S1500.00
G1 F3150 X123.815 Y2.332 E0.2884
M204 S2000.00
G0 F7200 X124.947 Y2.332
M204 S1500.00
G1 F3150 X126.479 Y0.799 E0.2883
M204 S2000.00
G0 F7200 X127.610 Y0.799
M204 S1500.00
G1 F3150 X126.078 Y2.332 E0.2883
M204 S2000.00
G0 F7200 X127.209 Y2.332
M204 S1500.00
G1 F3150 X128.742 Y0.799 E0.2884
M204 S2000.00
G0 F7200 X129.873 Y0.799
M204 S1500.00
G1 F3150 X128.341 Y2.332 E0.2883
M204 S2000.00
G0 F7200 X129.472 Y2.332
M204 S1500.00
G1 F3150 X131.004 Y0.799 E0.2883
M204 S2000.00
G0 F7200 X132.136 Y0.799
M204 S1500.00
G1 F3150 X130.604 Y2.332 E0.2883
M204 S2000.00
G0 F7200 X131.735 Y2.332
M204 S1500.00
G1 F3150 X133.267 Y0.799 E0.2883
M204 S2000.00
G0 F7200 X134.399 Y0.799
M204 S1500.00
G1 F3150 X132.866 Y2.332 E0.2884
M204 S2000.00
G0 F7200 X133.998 Y2.332
M204 S1500.00
G1 F3150 X135.530 Y0.799 E0.2883
M204 S2000.00
G0 F7200 X136.661 Y0.799
M204 S1500.00
G1 F3150 X135.129 Y2.332 E0.2883
M204 S2000.00
G0 F7200 X136.260 Y2.332
M204 S1500.00
G1 F3150 X137.793 Y0.799 E0.2884
M204 S2000.00
G0 F7200 X138.924 Y0.799
M204 S1500.00
G1 F3150 X137.392 Y2.332 E0.2883
M204 S2000.00
G0 F7200 X138.523 Y2.332
M204 S1500.00
G1 F3150 X140.055 Y0.799 E0.2883
M204 S2000.00
G0 F7200 X140.201 Y1.785
M204 S1500.00
G1 F3150 X139.655 Y2.332 E0.1028
;PRINTING_TIME: 28
;REMAINING_TIME: 19969
;LAYER:4
;Z:3.064
;HEIGHT:0.566
;HEIGHT-BELT:0.400
;PRINTING: little_table-Left Legpenis001.stl
;PRINTING_ID: 0
M204 S2000.00
G0 F1200 Z3.064
G0 F7200 X139.655 Y2.332
G0 X76.065 Y0.419
G0 F7200 X75.766 Y0.410
G0 F7200 X75.666 Y0.400
M204 S1500.00
;TYPE:WALL-OUTER
;WIDTH:0.800
G1 F1800 X140.602 Y0.400 E8.6391
G1 X140.602 Y2.961 E0.3407
;TYPE:WALL-OUTER
;WIDTH:0.800
G1 X140.602 Y3.531 E0.0758
G1 X75.666 Y3.532 E8.6391
G1 X75.666 Y2.962 E0.0758
;TYPE:WALL-OUTER
;WIDTH:0.800
G1 X75.666 Y0.800 E0.2876
G0 F1800 X75.666 Y0.400
M204 S2000.00
G0 F7200 X75.766 Y0.410
G0 X76.201 Y0.901
G0 F7200 X76.466 Y1.200
;TYPE:WALL-INNER
;WIDTH:0.800
G1 F3600 X139.802 Y1.200 E8.4263
G1 X139.802 Y2.731 E0.2037
G1 X76.466 Y2.732 E8.4263
G1 X76.466 Y1.600 E0.1506
G0 F3600 X76.466 Y1.200
G0 F7200 X76.865 Y1.629
M204 S1500.00
;TYPE:SOLID-FILL
;WIDTH:0.800
G1 F3600 X77.767 Y1.965 E0.1319
G1 X78.898 Y1.965 E0.1373
G1 X80.030 Y1.965 E0.1374
G1 X81.161 Y1.965 E0.1373
G1 X82.292 Y1.965 E0.1373
G1 X83.424 Y1.965 E0.1374
G1 X84.555 Y1.965 E0.1373
G1 X85.687 Y1.965 E0.1374
G1 X86.818 Y1.965 E0.1373
G1 X87.949 Y1.965 E0.1373
G1 X89.081 Y1.965 E0.1374
G1 X90.212 Y1.965 E0.1373
G1 X91.343 Y1.965 E0.1373
G1 X92.475 Y1.965 E0.1374
G1 X93.606 Y1.965 E0.1373
G1 X94.738 Y1.965 E0.1374
G1 X95.869 Y1.965 E0.1373
G1 X97.000 Y1.965 E0.1373
G1 X98.132 Y1.965 E0.1374
G1 X99.263 Y1.965 E0.1373
G1 X100.394 Y1.965 E0.1373
G1 X101.526 Y1.965 E0.1374
G1 X102.657 Y1.965 E0.1373
G1 X103.789 Y1.965 E0.1374
G1 X104.920 Y1.965 E0.1373
G1 X106.051 Y1.965 E0.1373
G1 X107.183 Y1.965 E0.1374
G1 X108.314 Y1.965 E0.1373
G1 X109.445 Y1.965 E0.1373
G1 X110.577 Y1.965 E0.1374
G1 X111.708 Y1.965 E0.1373
G1 X112.839 Y1.965 E0.1373
G1 X113.971 Y1.965 E0.1374
G1 X115.102 Y1.965 E0.1373
G1 X116.234 Y1.965 E0.1374
G1 X117.365 Y1.965 E0.1373
G1 X118.496 Y1.965 E0.1373
G1 X119.628 Y1.965 E0.1374
G1 X120.759 Y1.965 E0.1373
G1 X121.890 Y1.965 E0.1373
G1 X123.022 Y1.965 E0.1374
G1 X124.153 Y1.965 E0.1373
G1 X125.285 Y1.965 E0.1374
G1 X126.416 Y1.965 E0.1373
G1 X127.547 Y1.965 E0.1373
G1 X128.679 Y1.965 E0.1374
G1 X129.810 Y1.965 E0.1373
G1 X130.941 Y1.965 E0.1373
G1 X132.073 Y1.965 E0.1374
G1 X133.204 Y1.965 E0.1373
G1 X134.336 Y1.965 E0.1374
G1 X135.467 Y1.965 E0.1373
G1 X136.598 Y1.965 E0.1373
G1 X137.730 Y1.965 E0.1374
G1 X138.861 Y1.965 E0.1373
G1 X139.401 Y1.939 E0.0719
;PRINTING_TIME: 37
;REMAINING_TIME: 19961
;LAYER:5
;Z:3.630
;HEIGHT:0.566
;HEIGHT-BELT:0.400
;PRINTING: little_table-Left Legpenis001.stl
;PRINTING_ID: 0
M204 S2000.00
G0 F1200 Z3.630
G0 F7200 X139.401 Y1.939
G0 X76.065 Y0.417
G0 F7200 X75.766 Y0.410
G0 F7200 X75.666 Y0.400
M204 S1500.00
;TYPE:WALL-OUTER
;WIDTH:0.800
G1 F1800 X140.602 Y0.400 E8.6391
G1 X140.602 Y3.761 E0.4471
;TYPE:WALL-OUTER
;WIDTH:0.800
G1 X140.602 Y4.331 E0.0758
G1 X75.666 Y4.332 E8.6391
G1 X75.666 Y3.762 E0.0758
;TYPE:WALL-OUTER
;WIDTH:0.800
G1 X75.666 Y0.800 E0.3941
G0 F1800 X75.666 Y0.400
M204 S2000.00
G0 F7200 X75.766 Y0.410
G0 X76.201 Y0.901
G0 F7200 X76.466 Y1.200
;TYPE:WALL-INNER
;WIDTH:0.800
G1 F3600 X139.802 Y1.200 E8.4263
G1 X139.802 Y3.531 E0.3101
G1 X76.466 Y3.532 E8.4263
G1 X76.466 Y1.600 E0.2570
G0 F3600 X76.466 Y1.200
G0 F7200 X76.865 Y1.764
M204 S1500.00
;TYPE:SOLID-FILL
;WIDTH:0.800
G1 F3600 X77.030 Y1.599 E0.0310
M204 S2000.00
G0 F7200 X78.162 Y1.599
M204 S1500.00
G1 F3600 X76.865 Y2.896 E0.2440
M204 S2000.00
G0 F7200 X77.760 Y3.132
M204 S1500.00
G1 F3600 X79.293 Y1.599 E0.2884
M204 S2000.00
G0 F7200 X80.424 Y1.599
M204 S1500.00
G1 F3600 X78.891 Y3.132 E0.2884
M204 S2000.00
G0 F7200 X80.023 Y3.132
M204 S1500.00
G1 F3600 X81.556 Y1.599 E0.2884
M204 S2000.00
G0 F7200 X82.687 Y1.599
M204 S1500.00
G1 F3600 X81.154 Y3.132 E0.2884
M204 S2000.00
G0 F7200 X82.286 Y3.132
M204 S1500.00
G1 F3600 X83.819 Y1.599 E0.2884
M204 S2000.00
G0 F7200 X84.950 Y1.599
M204 S1500.00
G1 F3600 X83.417 Y3.132 E0.2884
M204 S2000.00
G0 F7200 X84.548 Y3.132
M204 S1500.00
G1 F3600 X86.081 Y1.599 E0.2884
M204 S2000.00
G0 F7200 X87.213 Y1.599
M204 S1500.00
G1 F3600 X85.680 Y3.132 E0.2884
M204 S2000.00
G0 F7200 X86.811 Y3.132
M204 S1500.00
G1 F3600 X88.344 Y1.599 E0.2884
M204 S2000.00
G0 F7200 X89.475 Y1.599
M204 S1500.00
G1 F3600 X87.942 Y3.132 E0.2884
M204 S2000.00
G0 F7200 X89.074 Y3.132
M204 S1500.00
G1 F3600 X90.607 Y1.599 E0.2884
M204 S2000.00
G0 F7200 X91.738 Y1.599
M204 S1500.00
G1 F3600 X90.205 Y3.132 E0.2884
M204 S2000.00
G0 F7200 X91.336 Y3.132
M204 S1500.00
G1 F3600 X92.869 Y1.599 E0.2884
M204 S2000.00
G0 F7200 X94.001 Y1.599
M204 S1500.00
G1 F3600 X92.468 Y3.132 E0.2884
M204 S2000.00
G0 F7200 X93.599 Y3.132
M204 S1500.00
G1 F3600 X95.132 Y1.599 E0.2884
M204 S2000.00
G0 F7200 X96.264 Y1.599
M204 S1500.00
G1 F3600 X94.731 Y3.132 E0.2884
M204 S2000.00
G0 F7200 X95.862 Y3.132
M204 S1500.00
G1 F3600 X97.395 Y1.599 E0.2884
M204 S2000.00
G0 F7200 X98.526 Y1.599
M204 S1500.00
G1 F3600 X96.993 Y3.132 E0.2884
M204 S2000.00
G0 F7200 X98.125 Y3.132
M204 S1500.00
G1 F3600 X99.658 Y1.599 E0.2884
M204 S2000.00
G0 F7200 X100.789 Y1.599
M204 S1500.00
G1 F3600 X99.256 Y3.132 E0.2884
M204 S2000.00
G0 F7200 X100.387 Y3.132
M204 S1500.00
G1 F3600 X101.920 Y1.599 E0.2884
M204 S2000.00
G0 F7200 X103.052 Y1.599
M204 S1500.00
G1 F3600 X101.519 Y3.132 E0.2884
M204 S2000.00
G0 F7200 X102.650 Y3.132
M204 S1500.00
G1 F3600 X104.183 Y1.599 E0.2884
M204 S2000.00
G0 F7200 X105.315 Y1.599
M204 S1500.00
G1 F3600 X103.782 Y3.132 E0.2884
M204 S2000.00
G0 F7200 X104.913 Y3.132
M204 S1500.00
G1 F3600 X106.446 Y1.599 E0.2884
M204 S2000.00
G0 F7200 X107.577 Y1.599
M204 S1500.00
G1 F3600 X106.044 Y3.132 E0.2884
M204 S2000.00
G0 F7200 X107.176 Y3.132
M204 S1500.00
G1 F3600 X108.709 Y1.599 E0.2884
M204 S2000.00
G0 F7200 X109.840 Y1.599
M204 S1500.00
G1 F3600 X108.308 Y3.131 E0.2882
M204 S2000.00
G0 F7200 X109.439 Y3.131
