;Sliced by ideaMaker 4.3.2.6470, 2023-04-18 10:51:17 UTC-0500
;Dimension: 200.000 9999.000 170.000 0.800
;Plate Shape: 0
;Origin Center: 0
;Belt Printer: 1
;Belt Base Y: 5328.031
;Belt Base Z: 0.000
;Belt Offset Y: 0.000
;Belt Offset Z: 3767.486
;Belt Gantry Angle: 45
;Belt Remove Z: 0.000
;Belt Repetition: 1
;Extruder Offset #1: 25.000 0.000
;Filament Diameter #1: 1.750
;Filament Diameter #2: 1.750
;Filament Compensation #1: 100.00
;Filament Compensation #2: 90.00
;Filament Density #1: 1240.00
;Filament Density #2: 1240.00
;Filament Type #1: PLA
;Filament Type #2: 
;Filament Name #1: [Raise3D] PLA 1.75mm
;Filament Name #2: 
;Firmware: Marlin
;Bounding Box: 30.150 169.850 -0.100 26.940 0.000 228.566
;Model Gap: 0.000
;
;
M92 E203.00000
M221 T0 S100.00
M140 S60.00
M104 T0 S200.00
M109 T0 S200.00
T0
M190 S60.00
G90 ; Set to Absolute Positioning
M82 ; Set extruder to absolute mode
G21 ; Metric values
;M808 L ; This is your looping code, any number after the L is the number of repeats, leave blank for infinite loops
M104 T0 S200 ; For some reason ideamaker forces the nozzle to cooldown when the command isnt even in the endgcode, this turns it straight back on after the loop, 245 is the degrees in this case
G28; Home
G92 X0 Y0 Z0 E0 ; zero out all axes (include extruder)
M83 ; set extruder to relative coordinates
G0 Z80 E25 ; extrude short Z line
G92 E0 Z0 ; Set all axis to 0
G0 X215 E40 F800 ; Primeline placed after the loop code so every looped print will get a primeline for better adhesion
G92 E0 Z0
M82
M117 Please stick...
;end of Start GCode
;TOTAL_NUM: 1
;PRINTING_TIME: 0
;REMAINING_TIME: 20122
M83
;LAYER:0
;Z:0.800
;HEIGHT:0.800
;HEIGHT-BELT:0.566
;BELT-FIRST-Z:0.800
M106 S255
;PRINTING: little_table-shelf002.stl
;PRINTING_ID: 0
M204 S2000.00
M205 X5.00 Y5.00
G0 F7200 X62.200 Y0.300
G0 F1200 Z0.800
M204 S1500.00
;TYPE:WALL-OUTER
;WIDTH:0.800
G1 F1800 X137.800 Y0.300 E14.2319
G1 X137.800 Y0.432 E0.0248
G1 X62.468 Y0.432 E14.1814
G0 F1800 X62.200 Y0.432
G0 F1800 X62.200 Y0.300
;PRINTING_TIME: 6
;REMAINING_TIME: 20116
;LAYER:1
;Z:1.366
;HEIGHT:0.566
;HEIGHT-BELT:0.400
;PRINTING: little_table-shelf002.stl
;PRINTING_ID: 0
M204 S2000.00
G0 F1200 Z1.366
G0 F7200 X62.300 Y0.400
M204 S1500.00
;TYPE:WALL-OUTER
;WIDTH:0.800
G1 F1800 X137.700 Y0.400 E10.0313
;TYPE:WALL-OUTER
;WIDTH:0.800
G1 X137.700 Y1.132 E0.0974
G1 X62.300 Y1.132 E10.0313
G1 X62.300 Y0.800 E0.0442
G0 F1800 X62.300 Y0.662
G0 F1800 X62.300 Y0.400
;PRINTING_TIME: 11
;REMAINING_TIME: 20110
;LAYER:2
;Z:1.932
;HEIGHT:0.566
;HEIGHT-BELT:0.400
;PRINTING: little_table-shelf002.stl
;PRINTING_ID: 0
M204 S2000.00
G0 F1200 Z1.932
G0 F7200 X62.300 Y0.400
M204 S1500.00
;TYPE:WALL-OUTER
;WIDTH:0.800
G1 F1800 X137.700 Y0.400 E10.0313
G1 X137.700 Y1.362 E0.1280
;TYPE:WALL-OUTER
;WIDTH:0.800
G1 X137.700 Y1.932 E0.0758
G1 X62.300 Y1.932 E10.0313
G1 X62.300 Y1.362 E0.0758
;TYPE:WALL-OUTER
;WIDTH:0.800
G1 X62.300 Y0.800 E0.0748
G0 F1800 X62.300 Y0.400
;PRINTING_TIME: 17
;REMAINING_TIME: 20105
;LAYER:3
;Z:2.498
;HEIGHT:0.566
;HEIGHT-BELT:0.400
;PRINTING: little_table-shelf002.stl
;PRINTING_ID: 0
M204 S2000.00
G0 F1200 Z2.498
G0 F7200 X62.300 Y0.400
M204 S1500.00
;TYPE:WALL-OUTER
;WIDTH:0.800
G1 F1800 X137.700 Y0.400 E10.0313
G1 X137.700 Y2.162 E0.2344
;TYPE:WALL-OUTER
;WIDTH:0.800
G1 X137.700 Y2.732 E0.0758
G1 X62.300 Y2.732 E10.0313
G1 X62.300 Y2.162 E0.0758
;TYPE:WALL-OUTER
;WIDTH:0.800
G1 X62.300 Y0.800 E0.1812
G0 F1800 X62.300 Y0.400
;PRINTING_TIME: 22
;REMAINING_TIME: 20100
;LAYER:4
;Z:3.064
;HEIGHT:0.566
;HEIGHT-BELT:0.400
;PRINTING: little_table-shelf002.stl
;PRINTING_ID: 0
M204 S2000.00
G0 F1200 Z3.064
G0 F7200 X62.300 Y0.400
M204 S1500.00
;TYPE:WALL-OUTER
;WIDTH:0.800
G1 F1800 X137.700 Y0.400 E10.0313
G1 X137.700 Y2.962 E0.3408
;TYPE:WALL-OUTER
;WIDTH:0.800
G1 X137.700 Y3.532 E0.0758
G1 X62.300 Y3.532 E10.0313
G1 X62.300 Y2.962 E0.0758
;TYPE:WALL-OUTER
;WIDTH:0.800
G1 X62.300 Y0.800 E0.2876
G0 F1800 X62.300 Y0.400
M204 S2000.00
G0 F7200 X63.100 Y1.200
;TYPE:WALL-INNER
;WIDTH:0.800
G1 F3600 X136.900 Y1.200 E9.8184
G1 X136.900 Y2.732 E0.2038
G1 X63.100 Y2.732 E9.8184
G1 X63.100 Y1.600 E0.1506
G0 F3600 X63.100 Y1.200
;PRINTING_TIME: 30
;REMAINING_TIME: 20092
;LAYER:5
;Z:3.630
;HEIGHT:0.566
;HEIGHT-BELT:0.400
;PRINTING: little_table-shelf002.stl
;PRINTING_ID: 0
G0 F1200 Z3.630
G0 F7200 X62.300 Y0.400
M204 S1500.00
;TYPE:WALL-OUTER
;WIDTH:0.800
G1 F1800 X137.700 Y0.400 E10.0313
G1 X137.700 Y3.762 E0.4473
;TYPE:WALL-OUTER
;WIDTH:0.800
G1 X137.700 Y4.332 E0.0758
G1 X62.300 Y4.332 E10.0313
G1 X62.300 Y3.762 E0.0758
;TYPE:WALL-OUTER
;WIDTH:0.800
G1 X62.300 Y0.800 E0.3941
G0 F1800 X62.300 Y0.400
M204 S2000.00
G0 F7200 X63.100 Y1.200
;TYPE:WALL-INNER
;WIDTH:0.800
G1 F3600 X136.900 Y1.200 E9.8184
G1 X136.900 Y3.532 E0.3103
G1 X63.100 Y3.532 E9.8184
G1 X63.100 Y1.600 E0.2570
G0 F3600 X63.100 Y1.200
;PRINTING_TIME: 38
;REMAINING_TIME: 20083
;LAYER:6
;Z:4.196
;HEIGHT:0.566
;HEIGHT-BELT:0.400
;PRINTING: little_table-shelf002.stl
;PRINTING_ID: 0
G0 F1200 Z4.196
G0 F7200 X62.300 Y0.400
M204 S1500.00
;TYPE:WALL-OUTER
;WIDTH:0.800
G1 F1800 X137.700 Y0.400 E10.0313
G1 X137.700 Y4.562 E0.5537
;TYPE:WALL-OUTER
;WIDTH:0.800
G1 X137.700 Y5.132 E0.0758
G1 X62.300 Y5.132 E10.0313
G1 X62.300 Y4.562 E0.0758
;TYPE:WALL-OUTER
;WIDTH:0.800
G1 X62.300 Y0.800 E0.5005
G0 F1800 X62.300 Y0.400
M204 S2000.00
G0 F7200 X63.100 Y1.200
;TYPE:WALL-INNER
;WIDTH:0.800
G1 F3600 X136.900 Y1.200 E9.8184
G1 X136.900 Y4.332 E0.4167
G1 X63.100 Y4.332 E9.8184
G1 X63.100 Y1.600 E0.3635
G0 F3600 X63.100 Y1.200
G0 F7200 X63.900 Y2.000
G1 F3600 X136.100 Y2.000 E9.6055
G1 X136.100 Y3.532 E0.2038
G1 X63.900 Y3.532 E9.6055
G1 X63.900 Y2.400 E0.1506
G0 F3600 X63.900 Y2.000
;PRINTING_TIME: 49
;REMAINING_TIME: 20072
;LAYER:7
;Z:4.762
;HEIGHT:0.566
;HEIGHT-BELT:0.400
;PRINTING: little_table-shelf002.stl
;PRINTING_ID: 0
G0 F1200 Z4.762
G0 F7200 X62.300 Y0.400
M204 S1500.00
;TYPE:WALL-OUTER
;WIDTH:0.800
G1 F1800 X137.700 Y0.400 E10.0313
G1 X137.700 Y5.362 E0.6601
;TYPE:WALL-OUTER
;WIDTH:0.800
G1 X137.700 Y5.932 E0.0758
G1 X62.300 Y5.932 E10.0313
G1 X62.300 Y5.362 E0.0758
;TYPE:WALL-OUTER
;WIDTH:0.800
G1 X62.300 Y0.800 E0.6069
G0 F1800 X62.300 Y0.400
M204 S2000.00
G0 F7200 X63.100 Y1.200
;TYPE:WALL-INNER
;WIDTH:0.800
G1 F3600 X136.900 Y1.200 E9.8184
G1 X136.900 Y5.132 E0.5231
G1 X63.100 Y5.132 E9.8184
G1 X63.100 Y1.600 E0.4699
G0 F3600 X63.100 Y1.200
G0 F7200 X63.900 Y2.000
G1 F3600 X136.100 Y2.000 E9.6055
G1 X136.100 Y4.332 E0.3103
G1 X63.900 Y4.332 E9.6055
G1 X63.900 Y2.400 E0.2570
G0 F3600 X63.900 Y2.000
;PRINTING_TIME: 60
;REMAINING_TIME: 20061
;LAYER:8
;Z:5.328
;HEIGHT:0.566
;HEIGHT-BELT:0.400
;PRINTING: little_table-shelf002.stl
;PRINTING_ID: 0
G0 F1200 Z5.328
G0 F7200 X62.300 Y0.400
M204 S1500.00
;TYPE:WALL-OUTER
;WIDTH:0.800
G1 F1800 X137.700 Y0.400 E10.0313
G1 X137.700 Y6.162 E0.7666
;TYPE:WALL-OUTER
;WIDTH:0.800
G1 X137.700 Y6.732 E0.0758
G1 X62.300 Y6.732 E10.0313
G1 X62.300 Y6.162 E0.0758
;TYPE:WALL-OUTER
;WIDTH:0.800
G1 X62.300 Y0.800 E0.7134
G0 F1800 X62.300 Y0.400
M204 S2000.00
G0 F7200 X63.100 Y1.200
;TYPE:WALL-INNER
;WIDTH:0.800
G1 F3600 X136.900 Y1.200 E9.8184
G1 X136.900 Y5.932 E0.6295
G1 X63.100 Y5.932 E9.8184
G1 X63.100 Y1.600 E0.5763
G0 F3600 X63.100 Y1.200
G0 F7200 X63.900 Y2.000
G1 F3600 X136.100 Y2.000 E9.6055
G1 X136.100 Y5.132 E0.4167
G1 X63.900 Y5.132 E9.6055
G1 X63.900 Y2.400 E0.3635
G0 F3600 X63.900 Y2.000
G0 F7200 X64.299 Y3.294
;TYPE:FILL
;WIDTH:0.800
G1 F3600 X65.849 Y2.399 E0.2381
G0 F7200 X65.901 Y2.400
G1 F3600 X69.941 Y4.732 E0.6206
G0 F7200 X69.062 Y4.732
G1 F3600 X69.062 Y2.400 E0.3103
G0 F7200 X78.662 Y2.400
G1 F3600 X78.662 Y4.732 E0.3103
G0 F7200 X81.009 Y4.732
G1 F3600 X85.049 Y2.399 E0.6207
G0 F7200 X85.101 Y2.400
G1 F3600 X89.140 Y4.732 E0.6205
G0 F7200 X88.262 Y4.732
G1 F3600 X88.262 Y2.400 E0.3103
G0 F7200 X97.862 Y2.400
G1 F3600 X97.862 Y4.732 E0.3103
G0 F7200 X100.208 Y4.732
G1 F3600 X104.249 Y2.399 E0.6208
G0 F7200 X104.301 Y2.400
G1 F3600 X108.340 Y4.732 E0.6205
G0 F7200 X107.462 Y4.732
G1 F3600 X107.462 Y2.400 E0.3103
G0 F7200 X117.062 Y2.400
G1 F3600 X117.062 Y4.732 E0.3103
G0 F7200 X119.409 Y4.732
G1 F3600 X123.449 Y2.399 E0.6207
G0 F7200 X123.501 Y2.400
G1 F3600 X127.540 Y4.732 E0.6205
G0 F7200 X126.662 Y4.732
G1 F3600 X126.662 Y2.400 E0.3103
;PRINTING_TIME: 74
;REMAINING_TIME: 20048
;LAYER:9
;Z:5.894
;HEIGHT:0.566
;HEIGHT-BELT:0.400
;PRINTING: little_table-shelf002.stl
;PRINTING_ID: 0
G0 F1200 Z5.894
G0 F7200 X62.300 Y0.400
M204 S1500.00
;TYPE:WALL-OUTER
;WIDTH:0.800
G1 F1800 X137.700 Y0.400 E10.0313
G1 X137.700 Y6.962 E0.8730
;TYPE:WALL-OUTER
;WIDTH:0.800
G1 X137.700 Y7.532 E0.0758
G1 X62.300 Y7.532 E10.0313
G1 X62.300 Y6.962 E0.0758
;TYPE:WALL-OUTER
;WIDTH:0.800
G1 X62.300 Y0.800 E0.8198
G0 F1800 X62.300 Y0.400
M204 S2000.00
G0 F7200 X63.100 Y1.200
;TYPE:WALL-INNER
;WIDTH:0.800
G1 F3600 X136.900 Y1.200 E9.8184
G1 X136.900 Y6.732 E0.7360
G1 X63.100 Y6.732 E9.8184
G1 X63.100 Y1.600 E0.6828
G0 F3600 X63.100 Y1.200
G0 F7200 X63.900 Y2.000
G1 F3600 X136.100 Y2.000 E9.6055
G1 X136.100 Y5.932 E0.5231
G1 X63.900 Y5.932 E9.6055
G1 X63.900 Y2.400 E0.4699
G0 F3600 X63.900 Y2.000
G0 F7200 X64.299 Y2.967
;TYPE:FILL
;WIDTH:0.800
G1 F3600 X65.284 Y2.399 E0.1513
G0 F7200 X65.336 Y2.400
G1 F3600 X70.759 Y5.531 E0.8331
G0 F7200 X69.345 Y5.532
G1 F3600 X69.345 Y2.400 E0.4167
G0 F7200 X78.945 Y2.400
G1 F3600 X78.945 Y5.532 E0.4167
G0 F7200 X79.058 Y5.531
G1 F3600 X84.483 Y2.399 E0.8334
G0 F7200 X84.535 Y2.400
G1 F3600 X89.959 Y5.531 E0.8332
G0 F7200 X88.545 Y5.532
G1 F3600 X88.545 Y2.400 E0.4167
G0 F7200 X98.145 Y2.400
G1 F3600 X98.145 Y5.532 E0.4167
G0 F7200 X98.259 Y5.531
G1 F3600 X103.683 Y2.399 E0.8333
G0 F7200 X103.735 Y2.400
G1 F3600 X109.158 Y5.531 E0.8331
G0 F7200 X107.745 Y5.532
G1 F3600 X107.745 Y2.400 E0.4167
G0 F7200 X117.345 Y2.400
G1 F3600 X117.345 Y5.532 E0.4167
G0 F7200 X117.458 Y5.531
G1 F3600 X122.884 Y2.399 E0.8335
G0 F7200 X122.935 Y2.400
G1 F3600 X128.359 Y5.531 E0.8332
G0 F7200 X126.945 Y5.532
G1 F3600 X126.945 Y2.400 E0.4167
;PRINTING_TIME: 88
;REMAINING_TIME: 20034
;LAYER:10
;Z:6.460
;HEIGHT:0.566
;HEIGHT-BELT:0.400
;PRINTING: little_table-shelf002.stl
;PRINTING_ID: 0
G0 F1200 Z6.460
G0 F7200 X62.300 Y0.400
M204 S1500.00
;TYPE:WALL-OUTER
;WIDTH:0.800
G1 F1800 X137.700 Y0.400 E10.0313
G1 X137.700 Y7.762 E0.9794
;TYPE:WALL-OUTER
;WIDTH:0.800
G1 X137.700 Y8.332 E0.0758
G1 X62.300 Y8.332 E10.0313
G1 X62.300 Y7.762 E0.0758
;TYPE:WALL-OUTER
;WIDTH:0.800
G1 X62.300 Y0.800 E0.9262
G0 F1800 X62.300 Y0.400
M204 S2000.00
G0 F7200 X63.100 Y1.200
;TYPE:WALL-INNER
;WIDTH:0.800
G1 F3600 X136.900 Y1.200 E9.8184
G1 X136.900 Y7.532 E0.8424
G1 X63.100 Y7.532 E9.8184
G1 X63.100 Y1.600 E0.7892
G0 F3600 X63.100 Y1.200
G0 F7200 X63.900 Y2.000
G1 F3600 X136.100 Y2.000 E9.6055
G1 X136.100 Y6.732 E0.6295
G1 X63.900 Y6.732 E9.6055
G1 X63.900 Y2.400 E0.5763
G0 F3600 X63.900 Y2.000
G0 F7200 X64.299 Y2.640
;TYPE:FILL
;WIDTH:0.800
G1 F3600 X64.717 Y2.399 E0.0642
G0 F7200 X64.770 Y2.400
G1 F3600 X71.578 Y6.331 E1.0459
G0 F7200 X69.628 Y6.332
G1 F3600 X69.628 Y2.400 E0.5231
G0 F7200 X77.107 Y6.331
G1 F3600 X83.917 Y2.399 E1.0462
G0 F7200 X83.969 Y2.400
G1 F3600 X90.779 Y6.331 E1.0461
G0 F7200 X88.828 Y6.332
G1 F3600 X88.828 Y2.400 E0.5231
G0 F7200 X96.306 Y6.332
G1 F3600 X103.117 Y2.399 E1.0464
G0 F7200 X103.169 Y2.400
G1 F3600 X109.978 Y6.331 E1.0460
G0 F7200 X108.028 Y6.332
G1 F3600 X108.028 Y2.400 E0.5231
G0 F7200 X115.506 Y6.331
G1 F3600 X122.317 Y2.399 E1.0463
G0 F7200 X122.369 Y2.400
G1 F3600 X129.178 Y6.331 E1.0460
G0 F7200 X127.228 Y6.332
G1 F3600 X127.228 Y2.400 E0.5231
G0 F7200 X134.706 Y6.332
G1 F3600 X135.698 Y5.759 E0.1524
G0 F7200 X117.628 Y6.332
G1 F3600 X117.628 Y2.400 E0.5231
G0 F7200 X98.428 Y2.400
G1 F3600 X98.428 Y6.332 E0.5231
G0 F7200 X79.228 Y6.332
G1 F3600 X79.228 Y2.400 E0.5231
;PRINTING_TIME: 103
;REMAINING_TIME: 20019
;LAYER:11
;Z:7.026
;HEIGHT:0.566
;HEIGHT-BELT:0.400
;PRINTING: little_table-shelf002.stl
;PRINTING_ID: 0
G0 F1200 Z7.026
G0 F7200 X62.300 Y0.400
M204 S1500.00
;TYPE:WALL-OUTER
;WIDTH:0.800
G1 F1800 X137.700 Y0.400 E10.0313
G1 X137.700 Y8.562 E1.0859
;TYPE:WALL-OUTER
;WIDTH:0.800
G1 X137.700 Y9.132 E0.0758
G1 X62.300 Y9.132 E10.0313
G1 X62.300 Y8.562 E0.0758
;TYPE:WALL-OUTER
;WIDTH:0.800
G1 X62.300 Y0.800 E1.0327
G0 F1800 X62.300 Y0.400
M204 S2000.00
G0 F7200 X63.100 Y1.200
;TYPE:WALL-INNER
;WIDTH:0.800
G1 F3600 X136.900 Y1.200 E9.8184
G1 X136.900 Y8.332 E0.9488
G1 X63.100 Y8.332 E9.8184
G1 X63.100 Y1.600 E0.8956
G0 F3600 X63.100 Y1.200
G0 F7200 X63.900 Y2.000
G1 F3600 X136.100 Y2.000 E9.6055
G1 X136.100 Y7.532 E0.7360
G1 X63.900 Y7.532 E9.6055
G1 X63.900 Y2.400 E0.6828
G0 F3600 X63.900 Y2.000
G0 F7200 X64.298 Y2.455
;TYPE:FILL
;WIDTH:0.800
G1 F3600 X72.398 Y7.131 E1.2443
G0 F7200 X69.911 Y7.132
G1 F3600 X69.911 Y2.400 E0.6295
G0 F7200 X75.154 Y7.132
G1 F3600 X83.351 Y2.399 E1.2593
G0 F7200 X83.403 Y2.400
G1 F3600 X91.598 Y7.131 E1.2589
G0 F7200 X89.111 Y7.132
G1 F3600 X89.111 Y2.400 E0.6295
G0 F7200 X94.355 Y7.131
G1 F3600 X102.552 Y2.399 E1.2592
G0 F7200 X102.604 Y2.400
G1 F3600 X110.799 Y7.132 E1.2590
G0 F7200 X108.311 Y7.132
G1 F3600 X108.311 Y2.400 E0.6295
G0 F7200 X113.554 Y7.132
G1 F3600 X121.751 Y2.399 E1.2593
G0 F7200 X121.803 Y2.400
G1 F3600 X129.998 Y7.131 E1.2589
G0 F7200 X127.511 Y7.132
G1 F3600 X127.511 Y2.400 E0.6295
G0 F7200 X132.754 Y7.132
G1 F3600 X135.698 Y5.432 E0.4523
G0 F7200 X117.911 Y7.132
G1 F3600 X117.911 Y2.400 E0.6295
G0 F7200 X98.711 Y2.400
G1 F3600 X98.711 Y7.132 E0.6295
G0 F7200 X79.511 Y7.132
G1 F3600 X79.511 Y2.400 E0.6295
;PRINTING_TIME: 118
;REMAINING_TIME: 20004
;LAYER:12
;Z:7.592
;HEIGHT:0.566
;HEIGHT-BELT:0.400
;PRINTING: little_table-shelf002.stl
;PRINTING_ID: 0
G0 F1200 Z7.592
G0 F7200 X62.300 Y0.400
M204 S1500.00
;TYPE:WALL-OUTER
;WIDTH:0.800
G1 F1800 X137.700 Y0.400 E10.0313
G1 X137.700 Y9.362 E1.1923
;TYPE:WALL-OUTER
;WIDTH:0.800
G1 X137.700 Y9.932 E0.0758
G1 X62.300 Y9.932 E10.0313
G1 X62.300 Y9.362 E0.0758
;TYPE:WALL-OUTER
;WIDTH:0.800
G1 X62.300 Y0.800 E1.1391
G0 F1800 X62.300 Y0.400
M204 S2000.00
G0 F7200 X63.100 Y1.200
;TYPE:WALL-INNER
;WIDTH:0.800
G1 F3600 X136.900 Y1.200 E9.8184
G1 X136.900 Y9.132 E1.0553
G1 X63.100 Y9.132 E9.8184
G1 X63.100 Y1.600 E1.0021
G0 F3600 X63.100 Y1.200
G0 F7200 X63.900 Y2.000
G1 F3600 X136.100 Y2.000 E9.6055
G1 X136.100 Y8.332 E0.8424
G1 X63.900 Y8.332 E9.6055
G1 X63.900 Y2.400 E0.7892
G0 F3600 X63.900 Y2.000
G0 F7200 X64.299 Y2.782
;TYPE:FILL
;WIDTH:0.800
G1 F3600 X73.218 Y7.931 E1.3701
G0 F7200 X73.203 Y7.931
G1 F3600 X82.785 Y2.399 E1.4720
G0 F7200 X82.837 Y2.400
G1 F3600 X92.418 Y7.932 E1.4719
G0 F7200 X92.402 Y7.932
G1 F3600 X101.985 Y2.399 E1.4722
G0 F7200 X102.037 Y2.400
G1 F3600 X111.619 Y7.932 E1.4720
G0 F7200 X111.603 Y7.932
G1 F3600 X121.185 Y2.399 E1.4721
G0 F7200 X121.237 Y2.400
G1 F3600 X130.818 Y7.931 E1.4718
G0 F7200 X130.802 Y7.932
G1 F3600 X135.698 Y5.105 E0.7522
G0 F7200 X127.794 Y2.400
G1 F3600 X127.794 Y7.932 E0.7360
G0 F7200 X118.194 Y7.932
G1 F3600 X118.194 Y2.400 E0.7360
G0 F7200 X108.594 Y2.400
G1 F3600 X108.594 Y7.932 E0.7360
G0 F7200 X98.994 Y7.932
G1 F3600 X98.994 Y2.400 E0.7360
G0 F7200 X89.394 Y2.400
G1 F3600 X89.394 Y7.932 E0.7360
G0 F7200 X79.794 Y7.932
G1 F3600 X79.794 Y2.400 E0.7360
G0 F7200 X70.194 Y2.400
G1 F3600 X70.194 Y7.932 E0.7360
;PRINTING_TIME: 133
;REMAINING_TIME: 19989
;LAYER:13
;Z:8.158
;HEIGHT:0.566
;HEIGHT-BELT:0.400
;PRINTING: little_table-shelf002.stl
;PRINTING_ID: 0
G0 F1200 Z8.158
G0 F7200 X62.300 Y0.400
M204 S1500.00
;TYPE:WALL-OUTER
;WIDTH:0.800
G1 F1800 X137.700 Y0.400 E10.0313
G1 X137.700 Y10.162 E1.2987
;TYPE:WALL-OUTER
;WIDTH:0.800
G1 X137.700 Y10.732 E0.0758
G1 X62.300 Y10.732 E10.0313
G1 X62.300 Y10.162 E0.0758
;TYPE:WALL-OUTER
;WIDTH:0.800
G1 X62.300 Y0.800 E1.2455
G0 F1800 X62.300 Y0.400
M204 S2000.00
G0 F7200 X63.100 Y1.200
;TYPE:WALL-INNER
;WIDTH:0.800
G1 F3600 X136.900 Y1.200 E9.8184
G1 X136.900 Y9.932 E1.1617
G1 X63.100 Y9.932 E9.8184
G1 X63.100 Y1.600 E1.1085
G0 F3600 X63.100 Y1.200
G0 F7200 X63.900 Y2.000
G1 F3600 X136.100 Y2.000 E9.6055
G1 X136.100 Y9.132 E0.9488
G1 X63.900 Y9.132 E9.6055
