;Sliced by ideaMaker 4.3.2.6470, 2023-04-05 14:20:46 UTC-0500
;Dimension: 200.000 9999.000 170.000 1.200
;Plate Shape: 0
;Origin Center: 0
;Belt Printer: 1
;Belt Base Y: 5049.500
;Belt Base Z: 0.000
;Belt Offset Y: 0.000
;Belt Offset Z: 3570.535
;Belt Gantry Angle: 45
;Belt Remove Z: 0.724
;Belt Repetition: 1
;Extruder Offset #1: 25.000 0.000
;Filament Diameter #1: 1.750
;Filament Diameter #2: 1.750
;Filament Compensation #1: 100.00
;Filament Compensation #2: 90.00
;Filament Density #1: 1240.00
;Filament Density #2: 1240.00
;Filament Type #1: PLA
;Filament Type #2: 
;Filament Name #1: [Raise3D] PLA 1.75mm
;Filament Name #2: 
;Firmware: Marlin
;Bounding Box: 90.000 110.000 0.000 28.284 0.600 27.724
;Model Gap: 0.000
;
;
M221 T0 S100.00
M140 S60.00
M104 T0 S200.00
M109 T0 S200.00
T0
M190 S60.00
G90 ; Set to Absolute Positioning
M82 ; Set extruder to absolute mode
G21 ; Metric values
;M808 L ; This is your looping code, any number after the L is the number of repeats, leave blank for infinite loops
M104 T0 S200 ; For some reason ideamaker forces the nozzle to cooldown when the command isnt even in the endgcode, this turns it straight back on after the loop, 245 is the degrees in this case
G28; Home
G92 X0 Y0 Z0 E0 ; zero out all axes (include extruder)
M83 ; set extruder to relative coordinates
G0 Z80 E25 ; extrude short Z line
G92 E0 Z0 ; Set all axis to 0
G0 X215 E40 F800 ; Primeline placed after the loop code so every looped print will get a primeline for better adhesion
G92 E0 Z0
M82
M117 Please stick...
;end of Start GCode
;TOTAL_NUM: 1
;PRINTING_TIME: 0
;REMAINING_TIME: 450
M83
;LAYER:0
;Z:0.600
;HEIGHT:0.600
;HEIGHT-BELT:0.424
;BELT-FIRST-Z:0.600
M106 S0
;PRINTING: default-box.3mf
;PRINTING_ID: 0
G1 F2700 E-7.0000
M204 S2000.00
M205 X5.00 Y5.00
G0 F9000 X90.600 Y0.600
G0 F1200 Z0.600
M204 S1500.00
;TYPE:WALL-OUTER
;WIDTH:1.200
;HEIGHT:0.600
;HEIGHT-BELT:0.424
M106 S255
G1 F1200 E7.0000
G1 F1800 X109.400 Y0.600 E2.8138
G1 X109.400 Y1.148 E0.0820
G1 X90.600 Y1.148 E2.8138
G1 X90.600 Y1.000 E0.0222
G0 F1800 X90.600 Y0.600
M106 S0
;PRINTING_TIME: 3
;REMAINING_TIME: 447
;LAYER:1
;Z:1.024
;HEIGHT:0.424
;HEIGHT-BELT:0.300
;PRINTING: default-box.3mf
;PRINTING_ID: 0
M204 S2000.00
G0 F1200 Z1.024
G0 F9000 X90.600 Y0.600
M204 S1500.00
;TYPE:WALL-OUTER
;WIDTH:1.200
G1 F2175 X109.400 Y0.600 E2.8138
G1 X109.400 Y1.321 E0.1079
;TYPE:WALL-OUTER
;WIDTH:1.200
M106 S255
G1 F1800 X109.400 Y1.748 E0.0639
G1 X90.600 Y1.748 E2.8138
G1 X90.600 Y1.321 E0.0639
;TYPE:WALL-OUTER
;WIDTH:1.200
M106 S0
G1 F2175 X90.600 Y1.000 E0.0480
G0 F2175 X90.600 Y0.600
;PRINTING_TIME: 4
;REMAINING_TIME: 445
;LAYER:2
;Z:1.448
;HEIGHT:0.424
;HEIGHT-BELT:0.300
;PRINTING: default-box.3mf
;PRINTING_ID: 0
M204 S2000.00
G0 F1200 Z1.448
G0 F9000 X90.600 Y0.600
M204 S1500.00
;TYPE:WALL-OUTER
;WIDTH:1.200
G1 F2700 X109.400 Y0.600 E2.8138
G1 X109.400 Y1.921 E0.1977
;TYPE:WALL-OUTER
;WIDTH:1.200
M106 S255
G1 F1800 X109.400 Y2.348 E0.0639
G1 X90.600 Y2.348 E2.8138
G1 X90.600 Y1.921 E0.0639
;TYPE:WALL-OUTER
;WIDTH:1.200
M106 S0
G1 F2700 X90.600 Y1.000 E0.1378
G0 F2700 X90.600 Y0.600
M204 S2000.00
G0 F9000 X90.700 Y0.610
G0 X91.628 Y1.033
G0 F9000 X91.992 Y1.199
M204 S1500.00
;TYPE:SOLID-FILL
;WIDTH:1.200
G1 F3600 X93.114 Y1.473 E0.1158
G1 X94.811 Y1.473 E0.1158
G1 X96.508 Y1.473 E0.1158
G1 X98.205 Y1.473 E0.1158
G1 X99.902 Y1.473 E0.1158
G1 X101.599 Y1.473 E0.1158
G1 X103.296 Y1.473 E0.1158
G1 X104.993 Y1.473 E0.1158
G1 X106.690 Y1.473 E0.1158
G1 X107.813 Y1.747 E0.1730
;PRINTING_TIME: 6
;REMAINING_TIME: 444
;LAYER:3
;Z:1.872
;HEIGHT:0.424
;HEIGHT-BELT:0.300
;PRINTING: default-box.3mf
;PRINTING_ID: 0
M204 S2000.00
G0 F1200 Z1.872
G0 F9000 X107.813 Y1.747
G0 X90.999 Y0.629
G0 F9000 X90.700 Y0.610
G0 F9000 X90.600 Y0.600
M204 S1500.00
;TYPE:WALL-OUTER
;WIDTH:1.200
G1 F2700 X109.400 Y0.600 E2.8138
G1 X109.400 Y2.521 E0.2875
;TYPE:WALL-OUTER
;WIDTH:1.200
M106 S255
G1 F1800 X109.400 Y2.948 E0.0639
G1 X90.600 Y2.948 E2.8138
G1 X90.600 Y2.521 E0.0639
;TYPE:WALL-OUTER
;WIDTH:1.200
M106 S0
G1 F2700 X90.600 Y1.000 E0.2276
G0 F2700 X90.600 Y0.600
M204 S2000.00
G0 F9000 X90.700 Y0.610
G0 X91.619 Y2.014
G0 F9000 X91.838 Y2.348
M204 S1500.00
;TYPE:SOLID-FILL
;WIDTH:1.200
G1 F3600 X93.260 Y1.773 E0.2432
G1 X94.957 Y1.773 E0.2430
G1 X96.654 Y1.773 E0.2430
G1 X98.351 Y1.773 E0.2430
G1 X100.048 Y1.773 E0.2430
G1 X101.745 Y1.773 E0.2430
G1 X103.443 Y1.773 E0.2429
G1 X105.140 Y1.773 E0.2430
G1 X106.837 Y1.773 E0.2430
G1 X108.260 Y1.199 E0.2297
;PRINTING_TIME: 8
;REMAINING_TIME: 442
;LAYER:4
;Z:2.296
;HEIGHT:0.424
;HEIGHT-BELT:0.300
;PRINTING: default-box.3mf
;PRINTING_ID: 0
M204 S2000.00
G0 F1200 Z2.296
G0 F9000 X108.260 Y1.199
G0 X90.999 Y0.620
G0 F9000 X90.700 Y0.610
G0 F9000 X90.600 Y0.600
M204 S1500.00
;TYPE:WALL-OUTER
;WIDTH:1.200
G1 F2700 X109.400 Y0.600 E2.8138
G1 X109.400 Y3.121 E0.3773
;TYPE:WALL-OUTER
;WIDTH:1.200
M106 S255
G1 F1800 X109.400 Y3.548 E0.0639
G1 X90.600 Y3.548 E2.8138
G1 X90.600 Y3.121 E0.0639
;TYPE:WALL-OUTER
;WIDTH:1.200
M106 S0
G1 F2700 X90.600 Y1.000 E0.3175
G0 F2700 X90.600 Y0.600
M204 S2000.00
G0 F9000 X90.700 Y0.610
G0 X91.073 Y1.724
G0 F9000 X91.199 Y2.103
M204 S1500.00
;TYPE:SOLID-FILL
;WIDTH:1.200
G1 F3600 X92.043 Y2.947 E0.1786
M204 S2000.00
G0 F9000 X93.740 Y2.947
M204 S1500.00
G1 F3600 X91.992 Y1.199 E0.3700
M204 S2000.00
G0 F9000 X93.689 Y1.199
M204 S1500.00
G1 F3600 X95.437 Y2.947 E0.3700
M204 S2000.00
G0 F9000 X97.134 Y2.947
M204 S1500.00
G1 F3600 X95.386 Y1.199 E0.3700
M204 S2000.00
G0 F9000 X97.083 Y1.199
M204 S1500.00
G1 F3600 X98.831 Y2.947 E0.3700
M204 S2000.00
G0 F9000 X100.528 Y2.947
M204 S1500.00
G1 F3600 X98.780 Y1.199 E0.3700
M204 S2000.00
G0 F9000 X100.477 Y1.199
M204 S1500.00
G1 F3600 X102.225 Y2.947 E0.3700
M204 S2000.00
G0 F9000 X103.922 Y2.947
M204 S1500.00
G1 F3600 X102.174 Y1.199 E0.3700
M204 S2000.00
G0 F9000 X103.871 Y1.199
M204 S1500.00
G1 F3600 X105.619 Y2.947 E0.3700
M204 S2000.00
G0 F9000 X107.316 Y2.947
M204 S1500.00
G1 F3600 X105.568 Y1.199 E0.3700
M204 S2000.00
G0 F9000 X107.265 Y1.199
M204 S1500.00
G1 F3600 X108.798 Y2.732 E0.3245
;PRINTING_TIME: 11
;REMAINING_TIME: 439
;LAYER:5
;Z:2.720
;HEIGHT:0.424
;HEIGHT-BELT:0.300
;PRINTING: default-box.3mf
;PRINTING_ID: 0
M204 S2000.00
G0 F1200 Z2.720
G0 F9000 X91.800 Y1.800
;TYPE:WALL-INNER
;WIDTH:1.200
G1 F2700 X108.200 Y1.800 E2.4546
G1 X108.200 Y2.948 E0.1718
G1 X91.800 Y2.948 E2.4546
G1 X91.800 Y2.200 E0.1120
G0 F2700 X91.800 Y1.800
G0 F9000 X90.903 Y0.830
G0 F9000 X90.700 Y0.610
G0 F9000 X90.600 Y0.600
M204 S1500.00
;TYPE:WALL-OUTER
;WIDTH:1.200
G1 F2700 X109.400 Y0.600 E2.8138
G1 X109.400 Y3.721 E0.4671
;TYPE:WALL-OUTER
;WIDTH:1.200
M106 S255
G1 F1800 X109.400 Y4.148 E0.0639
G1 X90.600 Y4.148 E2.8138
G1 X90.600 Y3.721 E0.0639
;TYPE:WALL-OUTER
;WIDTH:1.200
M106 S0
G1 F2700 X90.600 Y1.000 E0.4073
G0 F2700 X90.600 Y0.600
G1 F2700 E-7.0000
M204 S2000.00
G0 F9000 X90.700 Y0.610
G0 X92.723 Y2.712
G0 F9000 X93.000 Y3.000
;PRINTING_TIME: 14
;REMAINING_TIME: 436
;LAYER:6
;Z:3.144
;HEIGHT:0.424
;HEIGHT-BELT:0.300
;PRINTING: default-box.3mf
;PRINTING_ID: 0
G0 F1200 Z3.144
G0 F9000 X91.800 Y1.800
;TYPE:WALL-INNER
;WIDTH:1.200
G1 F1200 E7.0000
G1 F2700 X108.200 Y1.800 E2.4546
G1 X108.200 Y3.548 E0.2616
G1 X91.800 Y3.548 E2.4546
G1 X91.800 Y2.200 E0.2018
G0 F2700 X91.800 Y1.800
G0 F9000 X90.903 Y0.830
G0 F9000 X90.700 Y0.610
G0 F9000 X90.600 Y0.600
M204 S1500.00
;TYPE:WALL-OUTER
;WIDTH:1.200
G1 F2700 X109.400 Y0.600 E2.8138
G1 X109.400 Y4.321 E0.5569
;TYPE:WALL-OUTER
;WIDTH:1.200
M106 S255
G1 F1800 X109.400 Y4.748 E0.0639
G1 X90.600 Y4.748 E2.8138
G1 X90.600 Y4.321 E0.0639
;TYPE:WALL-OUTER
;WIDTH:1.200
M106 S0
G1 F2700 X90.600 Y1.000 E0.4971
G0 F2700 X90.600 Y0.600
M204 S2000.00
G0 F9000 X90.700 Y0.610
G0 X92.867 Y2.166
G0 F9000 X93.192 Y2.399
M204 S1500.00
;TYPE:SOLID-FILL
;WIDTH:1.200
G1 F3600 X94.314 Y2.673 E0.1158
G1 X96.011 Y2.673 E0.1158
G1 X97.708 Y2.673 E0.1158
G1 X99.405 Y2.673 E0.1158
G1 X101.102 Y2.673 E0.1158
G1 X102.799 Y2.673 E0.1158
G1 X104.496 Y2.673 E0.1158
G1 X106.193 Y2.673 E0.1158
G1 X107.316 Y2.947 E0.1730
;PRINTING_TIME: 17
;REMAINING_TIME: 432
;LAYER:7
;Z:3.568
;HEIGHT:0.424
;HEIGHT-BELT:0.300
;PRINTING: default-box.3mf
;PRINTING_ID: 0
M204 S2000.00
G0 F1200 Z3.568
G0 F9000 X91.800 Y1.800
;TYPE:WALL-INNER
;WIDTH:1.200
G1 F2700 X108.200 Y1.800 E2.4546
G1 X108.200 Y4.148 E0.3514
G1 X91.800 Y4.148 E2.4546
G1 X91.800 Y2.200 E0.2916
G0 F2700 X91.800 Y1.800
G0 F9000 X90.903 Y0.830
G0 F9000 X90.700 Y0.610
G0 F9000 X90.600 Y0.600
M204 S1500.00
;TYPE:WALL-OUTER
;WIDTH:1.200
G1 F2700 X109.400 Y0.600 E2.8138
G1 X109.400 Y4.921 E0.6467
;TYPE:WALL-OUTER
;WIDTH:1.200
M106 S255
G1 F1800 X109.400 Y5.348 E0.0639
G1 X90.600 Y5.348 E2.8138
G1 X90.600 Y4.921 E0.0639
;TYPE:WALL-OUTER
;WIDTH:1.200
M106 S0
G1 F2700 X90.600 Y1.000 E0.5869
G0 F2700 X90.600 Y0.600
M204 S2000.00
G0 F9000 X90.700 Y0.610
G0 X93.147 Y2.183
G0 F9000 X93.483 Y2.399
M204 S1500.00
;TYPE:SOLID-FILL
;WIDTH:1.200
G1 F3600 X93.215 Y3.516 E0.2295
G1 X95.454 Y2.973 E0.2431
G1 X97.151 Y2.973 E0.2430
G1 X98.848 Y2.973 E0.2430
G1 X100.545 Y2.973 E0.2430
G1 X102.243 Y2.973 E0.2429
G1 X103.940 Y2.973 E0.2430
G1 X105.637 Y2.973 E0.2430
G1 X107.060 Y2.399 E0.2297
;PRINTING_TIME: 20
;REMAINING_TIME: 429
;LAYER:8
;Z:3.992
;HEIGHT:0.424
;HEIGHT-BELT:0.300
;PRINTING: default-box.3mf
;PRINTING_ID: 0
M204 S2000.00
G0 F1200 Z3.992
G0 F9000 X91.800 Y1.800
;TYPE:WALL-INNER
;WIDTH:1.200
G1 F2700 X108.200 Y1.800 E2.4546
G1 X108.200 Y4.748 E0.4412
G1 X91.800 Y4.748 E2.4546
G1 X91.800 Y2.200 E0.3814
G0 F2700 X91.800 Y1.800
G0 F9000 X90.903 Y0.830
G0 F9000 X90.700 Y0.610
G0 F9000 X90.600 Y0.600
M204 S1500.00
;TYPE:WALL-OUTER
;WIDTH:1.200
G1 F2700 X109.400 Y0.600 E2.8138
G1 X109.400 Y5.521 E0.7365
;TYPE:WALL-OUTER
;WIDTH:1.200
M106 S255
G1 F1800 X109.400 Y5.948 E0.0639
G1 X90.600 Y5.948 E2.8138
G1 X90.600 Y5.521 E0.0639
;TYPE:WALL-OUTER
;WIDTH:1.200
M106 S0
G1 F2700 X90.600 Y1.000 E0.6767
G0 F2700 X90.600 Y0.600
M204 S2000.00
G0 F9000 X90.700 Y0.610
G0 X92.186 Y2.965
G0 F9000 X92.399 Y3.303
M204 S1500.00
;TYPE:SOLID-FILL
;WIDTH:1.200
G1 F3600 X93.243 Y4.147 E0.1786
M204 S2000.00
G0 F9000 X94.940 Y4.147
M204 S1500.00
G1 F3600 X93.192 Y2.399 E0.3700
M204 S2000.00
G0 F9000 X94.889 Y2.399
M204 S1500.00
G1 F3600 X96.637 Y4.147 E0.3700
M204 S2000.00
G0 F9000 X98.334 Y4.147
M204 S1500.00
G1 F3600 X96.586 Y2.399 E0.3700
M204 S2000.00
G0 F9000 X98.283 Y2.399
M204 S1500.00
G1 F3600 X100.031 Y4.147 E0.3700
M204 S2000.00
G0 F9000 X101.728 Y4.147
M204 S1500.00
G1 F3600 X99.980 Y2.399 E0.3700
M204 S2000.00
G0 F9000 X101.677 Y2.399
M204 S1500.00
G1 F3600 X103.425 Y4.147 E0.3700
M204 S2000.00
G0 F9000 X105.122 Y4.147
M204 S1500.00
G1 F3600 X103.374 Y2.399 E0.3700
M204 S2000.00
G0 F9000 X105.071 Y2.399
M204 S1500.00
G1 F3600 X106.819 Y4.147 E0.3700
M204 S2000.00
G0 F9000 X107.599 Y3.230
M204 S1500.00
G1 F3600 X106.768 Y2.399 E0.1759
;PRINTING_TIME: 24
;REMAINING_TIME: 425
;LAYER:9
;Z:4.416
;HEIGHT:0.424
;HEIGHT-BELT:0.300
;PRINTING: default-box.3mf
;PRINTING_ID: 0
M204 S2000.00
G0 F1200 Z4.416
G0 F9000 X91.800 Y1.800
;TYPE:WALL-INNER
;WIDTH:1.200
G1 F2700 X108.200 Y1.800 E2.4546
G1 X108.200 Y5.348 E0.5310
G1 X91.800 Y5.348 E2.4546
G1 X91.800 Y2.200 E0.4712
G0 F2700 X91.800 Y1.800
G0 F9000 X90.903 Y0.830
G0 F9000 X90.700 Y0.610
G0 F9000 X90.600 Y0.600
M204 S1500.00
;TYPE:WALL-OUTER
;WIDTH:1.200
G1 F2700 X109.400 Y0.600 E2.8138
G1 X109.400 Y6.121 E0.8263
;TYPE:WALL-OUTER
;WIDTH:1.200
M106 S255
G1 F1800 X109.400 Y6.548 E0.0639
G1 X90.600 Y6.548 E2.8138
G1 X90.600 Y6.121 E0.0639
;TYPE:WALL-OUTER
;WIDTH:1.200
M106 S0
G1 F2700 X90.600 Y1.000 E0.7665
G0 F2700 X90.600 Y0.600
M204 S2000.00
G0 F9000 X90.700 Y0.610
G0 X97.741 Y2.022
G0 F9000 X98.133 Y2.100
;TYPE:FILL
;WIDTH:1.200
G1 F2700 X98.133 Y5.048 E0.4412
G0 F9000 X101.484 Y5.048
G1 F2700 X106.592 Y2.099 E0.8828
G0 F9000 X107.133 Y2.100
G1 F2700 X107.133 Y5.048 E0.4412
G0 F9000 X105.980 Y5.047
G1 F2700 X100.875 Y2.100 E0.8822
;PRINTING_TIME: 28
;REMAINING_TIME: 422
;LAYER:10
;Z:4.840
;HEIGHT:0.424
;HEIGHT-BELT:0.300
;PRINTING: default-box.3mf
;PRINTING_ID: 0
G0 F1200 Z4.840
G0 F9000 X91.800 Y1.800
;TYPE:WALL-INNER
;WIDTH:1.200
G1 F2700 X108.200 Y1.800 E2.4546
G1 X108.200 Y5.948 E0.6208
G1 X91.800 Y5.948 E2.4546
G1 X91.800 Y2.200 E0.5610
G0 F2700 X91.800 Y1.800
G0 F9000 X90.903 Y0.830
G0 F9000 X90.700 Y0.610
G0 F9000 X90.600 Y0.600
M204 S1500.00
;TYPE:WALL-OUTER
;WIDTH:1.200
G1 F2700 X109.400 Y0.600 E2.8138
G1 X109.400 Y6.721 E0.9161
;TYPE:WALL-OUTER
;WIDTH:1.200
M106 S255
G1 F1800 X109.400 Y7.148 E0.0639
G1 X90.600 Y7.148 E2.8138
G1 X90.600 Y6.721 E0.0639
;TYPE:WALL-OUTER
;WIDTH:1.200
M106 S0
G1 F2700 X90.600 Y1.000 E0.8563
G0 F2700 X90.600 Y0.600
M204 S2000.00
G0 F9000 X90.700 Y0.610
G0 X97.953 Y2.024
G0 F9000 X98.345 Y2.100
;TYPE:FILL
;WIDTH:1.200
G1 F2700 X98.345 Y5.648 E0.5310
G0 F9000 X100.021 Y5.648
G1 F2700 X106.167 Y2.099 E1.0622
G0 F9000 X107.345 Y2.100
G1 F2700 X107.345 Y5.648 E0.5310
G0 F9000 X106.597 Y5.648
G1 F2700 X100.451 Y2.100 E1.0622
;PRINTING_TIME: 31
;REMAINING_TIME: 418
;LAYER:11
;Z:5.264
;HEIGHT:0.424
;HEIGHT-BELT:0.300
;PRINTING: default-box.3mf
;PRINTING_ID: 0
G0 F1200 Z5.264
G0 F9000 X91.800 Y1.800
;TYPE:WALL-INNER
;WIDTH:1.200
G1 F2700 X108.200 Y1.800 E2.4546
G1 X108.200 Y6.548 E0.7106
G1 X91.800 Y6.548 E2.4546
G1 X91.800 Y2.200 E0.6508
G0 F2700 X91.800 Y1.800
G0 F9000 X90.903 Y0.830
G0 F9000 X90.700 Y0.610
G0 F9000 X90.600 Y0.600
M204 S1500.00
;TYPE:WALL-OUTER
;WIDTH:1.200
G1 F2700 X109.400 Y0.600 E2.8138
G1 X109.400 Y7.321 E1.0059
;TYPE:WALL-OUTER
;WIDTH:1.200
M106 S255
G1 F1800 X109.400 Y7.748 E0.0639
G1 X90.600 Y7.748 E2.8138
G1 X90.600 Y7.321 E0.0639
;TYPE:WALL-OUTER
;WIDTH:1.200
M106 S0
G1 F2700 X90.600 Y1.000 E0.9461
G0 F2700 X90.600 Y0.600
M204 S2000.00
G0 F9000 X90.700 Y0.610
G0 X98.165 Y2.026
G0 F9000 X98.557 Y2.100
;TYPE:FILL
;WIDTH:1.200
G1 F2700 X98.557 Y6.248 E0.6208
G0 F9000 X98.558 Y6.247
G1 F2700 X105.743 Y2.099 E1.2417
G0 F9000 X107.557 Y2.100
G1 F2700 X107.557 Y6.248 E0.6208
G0 F9000 X107.211 Y6.247
G1 F2700 X100.028 Y2.100 E1.2414
;PRINTING_TIME: 35
;REMAINING_TIME: 415
;LAYER:12
;Z:5.688
;HEIGHT:0.424
;HEIGHT-BELT:0.300
;PRINTING: default-box.3mf
;PRINTING_ID: 0
G0 F1200 Z5.688
G0 F9000 X91.800 Y1.800
;TYPE:WALL-INNER
;WIDTH:1.200
G1 F2700 X108.200 Y1.800 E2.4546
G1 X108.200 Y7.148 E0.8004
G1 X91.800 Y7.148 E2.4546
G1 X91.800 Y2.200 E0.7406
G0 F2700 X91.800 Y1.800
G0 F9000 X90.903 Y0.830
G0 F9000 X90.700 Y0.610
G0 F9000 X90.600 Y0.600
M204 S1500.00
;TYPE:WALL-OUTER
;WIDTH:1.200
G1 F2700 X109.400 Y0.600 E2.8138
G1 X109.400 Y7.921 E1.0957
;TYPE:WALL-OUTER
;WIDTH:1.200
M106 S255
G1 F1800 X109.400 Y8.348 E0.0639
G1 X90.600 Y8.348 E2.8138
G1 X90.600 Y7.921 E0.0639
;TYPE:WALL-OUTER
;WIDTH:1.200
M106 S0
G1 F2700 X90.600 Y1.000 E1.0359
G0 F2700 X90.600 Y0.600
M204 S2000.00
G0 F9000 X90.700 Y0.610
G0 X98.376 Y2.028
G0 F9000 X98.769 Y2.100
;TYPE:FILL
;WIDTH:1.200
G1 F2700 X98.769 Y6.848 E0.7106
G0 F9000 X97.094 Y6.848
G1 F2700 X105.319 Y2.099 E1.4215
G0 F9000 X107.769 Y2.100
G1 F2700 X107.769 Y6.848 E0.7106
G0 F9000 X107.827 Y6.848
G1 F2700 X99.604 Y2.100 E1.4212
;PRINTING_TIME: 39
;REMAINING_TIME: 411
;LAYER:13
;Z:6.112
;HEIGHT:0.424
;HEIGHT-BELT:0.300
;PRINTING: default-box.3mf
;PRINTING_ID: 0
G0 F1200 Z6.112
G0 F9000 X91.800 Y1.800
;TYPE:WALL-INNER
;WIDTH:1.200
G1 F2700 X108.200 Y1.800 E2.4546
G1 X108.200 Y7.748 E0.8902
G1 X91.800 Y7.748 E2.4546
G1 X91.800 Y2.200 E0.8304
G0 F2700 X91.800 Y1.800
G0 F9000 X90.903 Y0.830
G0 F9000 X90.700 Y0.610
G0 F9000 X90.600 Y0.600
M204 S1500.00
;TYPE:WALL-OUTER
;WIDTH:1.200
G1 F2700 X109.400 Y0.600 E2.8138
G1 X109.400 Y8.521 E1.1855
;TYPE:WALL-OUTER
;WIDTH:1.200
M106 S255
G1 F1800 X109.400 Y8.948 E0.0639
G1 X90.600 Y8.948 E2.8138
G1 X90.600 Y8.521 E0.0639
;TYPE:WALL-OUTER
;WIDTH:1.200
M106 S0
G1 F2700 X90.600 Y1.000 E1.1257
G0 F2700 X90.600 Y0.600
M204 S2000.00
G0 F9000 X90.700 Y0.610
G0 X95.397 Y7.124
G0 F9000 X95.630 Y7.448
;TYPE:FILL
;WIDTH:1.200
G1 F2700 X104.896 Y2.099 E1.6013
G0 F9000 X99.179 Y2.100
G1 F2700 X107.899 Y7.134 E1.5070
G0 F9000 X98.981 Y7.448
G1 F2700 X98.981 Y2.100 E0.8004
;PRINTING_TIME: 43
