;Sliced by ideaMaker 4.3.2.6470, 2023-04-05 14:59:24 UTC-0500
;Dimension: 200.000 9999.000 170.000 0.800
;Plate Shape: 0
;Origin Center: 0
;Belt Printer: 1
;Belt Base Y: 5049.500
;Belt Base Z: 0.000
;Belt Offset Y: 0.000
;Belt Offset Z: 3570.535
;Belt Gantry Angle: 45
;Belt Remove Z: 0.566
;Belt Repetition: 1
;Extruder Offset #1: 25.000 0.000
;Filament Diameter #1: 1.750
;Filament Diameter #2: 1.750
;Filament Compensation #1: 100.00
;Filament Compensation #2: 90.00
;Filament Density #1: 1240.00
;Filament Density #2: 1240.00
;Filament Type #1: PLA
;Filament Type #2: 
;Filament Name #1: [Raise3D] PLA 1.75mm
;Filament Name #2: 
;Firmware: Marlin
;Bounding Box: 90.000 110.000 0.000 28.284 0.400 27.766
;Model Gap: 0.000
;
;
M92 E305.00000
M221 T0 S100.00
M140 S60.00
M104 T0 S200.00
M109 T0 S200.00
T0
M190 S60.00
G90 ; Set to Absolute Positioning
M82 ; Set extruder to absolute mode
G21 ; Metric values
;M808 L ; This is your looping code, any number after the L is the number of repeats, leave blank for infinite loops
M104 T0 S200 ; For some reason ideamaker forces the nozzle to cooldown when the command isnt even in the endgcode, this turns it straight back on after the loop, 245 is the degrees in this case
G28; Home
G92 X0 Y0 Z0 E0 ; zero out all axes (include extruder)
M83 ; set extruder to relative coordinates
G0 Z80 E25 ; extrude short Z line
G92 E0 Z0 ; Set all axis to 0
G0 X215 E40 F800 ; Primeline placed after the loop code so every looped print will get a primeline for better adhesion
G92 E0 Z0
M82
M117 Please stick...
;end of Start GCode
;TOTAL_NUM: 1
;PRINTING_TIME: 0
;REMAINING_TIME: 516
M83
;LAYER:0
;Z:0.800
;HEIGHT:0.800
;HEIGHT-BELT:0.566
;BELT-FIRST-Z:0.800
M106 S0
;PRINTING: default-box.3mf
;PRINTING_ID: 0
G1 F3600 E-7.0000
M204 S2000.00
M205 X5.00 Y5.00
G0 F9000 X90.480 Y0.480
G0 F1200 Z0.800
M204 S1500.00
;TYPE:WALL-OUTER
;WIDTH:0.960
;HEIGHT:0.800
;HEIGHT-BELT:0.566
M106 S255
G1 F1200 E7.0000
G1 F1800 X109.520 Y0.480 E3.0397
G1 X109.520 Y1.052 E0.0913
G1 X90.480 Y1.052 E3.0397
G1 X90.480 Y0.880 E0.0275
G0 F1800 X90.480 Y0.480
M106 S0
;PRINTING_TIME: 3
;REMAINING_TIME: 513
;LAYER:1
;Z:1.366
;HEIGHT:0.566
;HEIGHT-BELT:0.400
;PRINTING: default-box.3mf
;PRINTING_ID: 0
M204 S2000.00
G0 F1200 Z1.366
G0 F9000 X90.480 Y0.480
M204 S1500.00
;TYPE:WALL-OUTER
;WIDTH:0.960
G1 F2700 X109.520 Y0.480 E3.0397
G1 X109.520 Y1.282 E0.1280
;TYPE:WALL-OUTER
;WIDTH:0.960
M106 S255
G1 F1800 X109.520 Y1.852 E0.0910
G1 X90.480 Y1.852 E3.0397
G1 X90.480 Y1.282 E0.0910
;TYPE:WALL-OUTER
;WIDTH:0.960
M106 S0
G1 F2700 X90.480 Y0.880 E0.0642
G0 F2700 X90.480 Y0.480
G1 F3600 E-7.0000
M204 S2000.00
G0 F9000 X90.580 Y0.490
G0 X90.917 Y0.729
G0 F9000 X91.243 Y0.960
M204 S500.00
;TYPE:SOLID-FILL
;WIDTH:0.960
G1 F1200 E7.0000
G1 F2700 X92.128 Y1.165 E0.0928
G1 X93.485 Y1.165 E0.0928
G1 X94.843 Y1.165 E0.0926
G1 X96.201 Y1.165 E0.0926
G1 X97.558 Y1.165 E0.0928
G1 X98.916 Y1.165 E0.0926
G1 X100.274 Y1.165 E0.0926
G1 X101.631 Y1.165 E0.0928
G1 X102.989 Y1.165 E0.0926
G1 X104.346 Y1.165 E0.0928
G1 X105.704 Y1.165 E0.0926
G1 X107.062 Y1.165 E0.0926
G1 X108.419 Y1.165 E0.0928
G1 X109.039 Y1.106 E0.0994
;PRINTING_TIME: 5
;REMAINING_TIME: 511
;LAYER:2
;Z:1.932
;HEIGHT:0.566
;HEIGHT-BELT:0.400
;PRINTING: default-box.3mf
;PRINTING_ID: 0
G1 F3600 E-7.0000
M204 S2000.00
G0 F1200 Z1.932
G0 F9000 X109.039 Y1.106
G0 X90.879 Y0.500
G0 F9000 X90.580 Y0.490
G0 F9000 X90.480 Y0.480
M204 S1500.00
;TYPE:WALL-OUTER
;WIDTH:0.960
G1 F1200 E7.0000
G1 F3150 X109.520 Y0.480 E3.0397
G1 X109.520 Y2.082 E0.2558
;TYPE:WALL-OUTER
;WIDTH:0.960
M106 S255
G1 F1800 X109.520 Y2.652 E0.0910
G1 X90.480 Y2.652 E3.0397
G1 X90.480 Y2.082 E0.0910
;TYPE:WALL-OUTER
;WIDTH:0.960
M106 S0
G1 F3150 X90.480 Y0.880 E0.1919
G0 F3150 X90.480 Y0.480
G1 F3600 E-7.0000
M204 S2000.00
G0 F9000 X90.580 Y0.490
G0 X90.864 Y1.651
G0 F9000 X90.959 Y2.039
M204 S1500.00
;TYPE:SOLID-FILL
;WIDTH:0.960
G1 F1200 E7.0000
G1 F3150 X92.111 Y1.565 E0.2438
G1 X93.468 Y1.565 E0.2735
G1 X94.826 Y1.565 E0.2737
G1 X96.184 Y1.565 E0.2737
G1 X97.541 Y1.565 E0.2735
G1 X98.899 Y1.565 E0.2737
G1 X100.257 Y1.565 E0.2737
G1 X101.614 Y1.565 E0.2737
G1 X102.972 Y1.565 E0.2737
G1 X104.329 Y1.565 E0.2735
G1 X105.687 Y1.565 E0.2737
G1 X107.045 Y1.565 E0.2737
G1 X108.684 Y1.283 E0.2735
G1 X108.475 Y2.172 E0.1458
;PRINTING_TIME: 9
;REMAINING_TIME: 507
;LAYER:3
;Z:2.498
;HEIGHT:0.566
;HEIGHT-BELT:0.400
;PRINTING: default-box.3mf
;PRINTING_ID: 0
G1 F3600 E-7.0000
M204 S2000.00
G0 F1200 Z2.498
G0 F9000 X91.440 Y1.440
;TYPE:WALL-INNER
;WIDTH:0.960
G1 F1200 E7.0000
G1 F3600 X108.560 Y1.440 E2.7332
G1 X108.560 Y2.492 E0.1680
G1 X91.440 Y2.492 E2.7332
G1 X91.440 Y1.840 E0.1041
G0 F3600 X91.440 Y1.440
G1 F3600 E-7.0000
G0 F9000 X90.781 Y0.712
G0 F9000 X90.580 Y0.490
G0 F9000 X90.480 Y0.480
M204 S1500.00
;TYPE:WALL-OUTER
;WIDTH:0.960
G1 F1200 E7.0000
G1 F3600 X109.520 Y0.480 E3.0397
G1 X109.520 Y2.882 E0.3835
;TYPE:WALL-OUTER
;WIDTH:0.960
M106 S255
G1 F1800 X109.520 Y3.452 E0.0910
G1 X90.480 Y3.452 E3.0397
G1 X90.480 Y2.882 E0.0910
;TYPE:WALL-OUTER
;WIDTH:0.960
M106 S0
G1 F3600 X90.480 Y0.880 E0.3196
G0 F3600 X90.480 Y0.480
G1 F3600 E-7.0000
M204 S2000.00
G0 F9000 X90.580 Y0.490
G0 X92.125 Y2.111
G0 F9000 X92.400 Y2.400
;PRINTING_TIME: 13
;REMAINING_TIME: 503
;LAYER:4
;Z:3.064
;HEIGHT:0.566
;HEIGHT-BELT:0.400
;PRINTING: default-box.3mf
;PRINTING_ID: 0
G0 F1200 Z3.064
G0 F9000 X91.440 Y1.440
;TYPE:WALL-INNER
;WIDTH:0.960
G1 F1200 E7.0000
G1 F3600 X108.560 Y1.440 E2.7332
G1 X108.560 Y3.292 E0.2957
G1 X91.440 Y3.292 E2.7332
G1 X91.440 Y1.840 E0.2318
G0 F3600 X91.440 Y1.440
G1 F3600 E-7.0000
G0 F9000 X90.781 Y0.712
G0 F9000 X90.580 Y0.490
G0 F9000 X90.480 Y0.480
M204 S1500.00
;TYPE:WALL-OUTER
;WIDTH:0.960
G1 F1200 E7.0000
G1 F3600 X109.520 Y0.480 E3.0397
G1 X109.520 Y3.682 E0.5112
;TYPE:WALL-OUTER
;WIDTH:0.960
M106 S255
G1 F1800 X109.520 Y4.252 E0.0910
G1 X90.480 Y4.252 E3.0397
G1 X90.480 Y3.682 E0.0910
;TYPE:WALL-OUTER
;WIDTH:0.960
M106 S0
G1 F3600 X90.480 Y0.880 E0.4473
G0 F3600 X90.480 Y0.480
G1 F3600 E-7.0000
M204 S2000.00
G0 F9000 X90.580 Y0.490
G0 X92.120 Y1.675
G0 F9000 X92.436 Y1.919
M204 S1500.00
;TYPE:SOLID-FILL
;WIDTH:0.960
G1 F1200 E7.0000
G1 F3600 X92.409 Y2.624 E0.1169
G1 X94.026 Y2.365 E0.2015
G1 X95.384 Y2.365 E0.2014
G1 X96.741 Y2.365 E0.2013
G1 X98.099 Y2.365 E0.2014
G1 X99.457 Y2.365 E0.2014
G1 X100.814 Y2.365 E0.2013
G1 X102.172 Y2.365 E0.2014
G1 X103.529 Y2.365 E0.2013
G1 X104.887 Y2.365 E0.2014
G1 X106.245 Y2.365 E0.2014
G1 X107.724 Y2.243 E0.2014
G1 X107.835 Y2.812 E0.0926
;PRINTING_TIME: 17
;REMAINING_TIME: 499
;LAYER:5
;Z:3.630
;HEIGHT:0.566
;HEIGHT-BELT:0.400
;PRINTING: default-box.3mf
;PRINTING_ID: 0
G1 F3600 E-7.0000
M204 S2000.00
G0 F1200 Z3.630
G0 F9000 X91.440 Y1.440
;TYPE:WALL-INNER
;WIDTH:0.960
G1 F1200 E7.0000
G1 F3600 X108.560 Y1.440 E2.7332
G1 X108.560 Y4.092 E0.4234
G1 X91.440 Y4.092 E2.7332
G1 X91.440 Y1.840 E0.3595
G0 F3600 X91.440 Y1.440
G1 F3600 E-7.0000
G0 F9000 X90.781 Y0.712
G0 F9000 X90.580 Y0.490
G0 F9000 X90.480 Y0.480
M204 S1500.00
;TYPE:WALL-OUTER
;WIDTH:0.960
G1 F1200 E7.0000
G1 F3600 X109.520 Y0.480 E3.0397
G1 X109.520 Y4.482 E0.6389
;TYPE:WALL-OUTER
;WIDTH:0.960
M106 S255
G1 F1800 X109.520 Y5.052 E0.0910
G1 X90.480 Y5.052 E3.0397
G1 X90.480 Y4.482 E0.0910
;TYPE:WALL-OUTER
;WIDTH:0.960
M106 S0
G1 F3600 X90.480 Y0.880 E0.5751
G0 F3600 X90.480 Y0.480
G1 F3600 E-7.0000
M204 S2000.00
G0 F9000 X90.580 Y0.490
G0 X91.634 Y2.537
G0 F9000 X91.817 Y2.892
M204 S1500.00
;TYPE:SOLID-FILL
;WIDTH:0.960
G1 F1200 E7.0000
G1 F3600 X92.976 Y3.371 E0.2165
G1 X94.334 Y3.371 E0.2164
G1 X95.691 Y3.371 E0.2164
G1 X97.049 Y3.371 E0.2164
G1 X98.406 Y3.371 E0.2164
G1 X99.764 Y3.371 E0.2164
G1 X101.122 Y3.371 E0.2164
G1 X102.479 Y3.371 E0.2164
G1 X103.837 Y3.371 E0.2164
G1 X105.195 Y3.371 E0.2164
G1 X106.552 Y3.371 E0.2164
G1 X108.015 Y3.476 E0.2164
G1 X108.109 Y2.892 E0.0944
G1 F3600 E-7.0000
M204 S2000.00
G0 F9000 X105.481 Y2.653
;TYPE:FILL
;WIDTH:0.960
G1 F1200 E7.0000
G1 F3600 X104.989 Y2.161 E0.1111
G1 X101.595 Y2.161 E0.5418
G1 X102.087 Y2.653 E0.1111
G1 X98.694 Y2.653 E0.5417
G1 X98.202 Y2.161 E0.1111
G1 X94.808 Y2.161 E0.5418
G1 X95.017 Y2.370 E0.0472
G0 F3600 X95.300 Y2.653
;PRINTING_TIME: 23
;REMAINING_TIME: 493
;LAYER:6
;Z:4.196
;HEIGHT:0.566
;HEIGHT-BELT:0.400
;PRINTING: default-box.3mf
;PRINTING_ID: 0
G1 F3600 E-7.0000
G0 F1200 Z4.196
G0 F9000 X91.440 Y1.440
;TYPE:WALL-INNER
;WIDTH:0.960
G1 F1200 E7.0000
G1 F3600 X108.560 Y1.440 E2.7332
G1 X108.560 Y4.892 E0.5511
G1 X91.440 Y4.892 E2.7332
G1 X91.440 Y1.840 E0.4872
G0 F3600 X91.440 Y1.440
G1 F3600 E-7.0000
G0 F9000 X90.781 Y0.712
G0 F9000 X90.580 Y0.490
G0 F9000 X90.480 Y0.480
M204 S1500.00
;TYPE:WALL-OUTER
;WIDTH:0.960
G1 F1200 E7.0000
G1 F3600 X109.520 Y0.480 E3.0397
G1 X109.520 Y5.282 E0.7666
;TYPE:WALL-OUTER
;WIDTH:0.960
M106 S255
G1 F1800 X109.520 Y5.852 E0.0910
G1 X90.480 Y5.852 E3.0397
G1 X90.480 Y5.282 E0.0910
;TYPE:WALL-OUTER
;WIDTH:0.960
M106 S0
G1 F3600 X90.480 Y0.880 E0.7028
G0 F3600 X90.480 Y0.480
G1 F3600 E-7.0000
M204 S2000.00
G0 F9000 X90.580 Y0.490
G0 X91.858 Y3.327
G0 F9000 X92.022 Y3.691
M204 S1500.00
;TYPE:SOLID-FILL
;WIDTH:0.960
G1 F1200 E7.0000
G1 F3600 X92.049 Y4.343 E0.0775
G1 X93.578 Y4.171 E0.2167
G1 X94.935 Y4.171 E0.2166
G1 X96.293 Y4.171 E0.2168
G1 X97.651 Y4.171 E0.2168
G1 X99.008 Y4.171 E0.2166
G1 X100.366 Y4.171 E0.2168
G1 X101.724 Y4.171 E0.2168
G1 X103.081 Y4.171 E0.2166
G1 X104.439 Y4.171 E0.2168
G1 X105.797 Y4.171 E0.2168
G1 X107.154 Y4.171 E0.2166
G1 X108.313 Y3.691 E0.2003
G1 F3600 E-7.0000
M204 S2000.00
G0 F9000 X107.295 Y3.453
;TYPE:FILL
;WIDTH:0.960
G1 F1200 E7.0000
G1 F3600 X107.839 Y2.909 E0.1228
G1 X107.840 Y2.561 E0.0556
G0 F3600 X107.840 Y2.161
G1 F3600 E-7.0000
G0 F9000 X105.192 Y2.161
G1 F1200 E7.0000
G1 F3600 X103.901 Y3.453 E0.2916
G1 X100.506 Y3.453 E0.5420
G1 X101.798 Y2.161 E0.2917
G1 X98.405 Y2.161 E0.5417
G1 X97.113 Y3.453 E0.2917
G1 X93.719 Y3.453 E0.5418
G1 X94.729 Y2.443 E0.2280
G0 F3600 X95.011 Y2.161
;PRINTING_TIME: 30
;REMAINING_TIME: 486
;LAYER:7
;Z:4.762
;HEIGHT:0.566
;HEIGHT-BELT:0.400
;PRINTING: default-box.3mf
;PRINTING_ID: 0
G1 F3600 E-7.0000
G0 F1200 Z4.762
G0 F9000 X91.440 Y1.440
;TYPE:WALL-INNER
;WIDTH:0.960
G1 F1200 E7.0000
G1 F3600 X108.560 Y1.440 E2.7332
G1 X108.560 Y5.692 E0.6788
G1 X91.440 Y5.692 E2.7332
G1 X91.440 Y1.840 E0.6150
G0 F3600 X91.440 Y1.440
G1 F3600 E-7.0000
G0 F9000 X90.781 Y0.712
G0 F9000 X90.580 Y0.490
G0 F9000 X90.480 Y0.480
M204 S1500.00
;TYPE:WALL-OUTER
;WIDTH:0.960
G1 F1200 E7.0000
G1 F3600 X109.520 Y0.480 E3.0397
G1 X109.520 Y6.082 E0.8944
;TYPE:WALL-OUTER
;WIDTH:0.960
M106 S255
G1 F1800 X109.520 Y6.652 E0.0910
G1 X90.480 Y6.652 E3.0397
G1 X90.480 Y6.082 E0.0910
;TYPE:WALL-OUTER
;WIDTH:0.960
M106 S0
G1 F3600 X90.480 Y0.880 E0.8305
G0 F3600 X90.480 Y0.480
G1 F3600 E-7.0000
M204 S2000.00
G0 F9000 X90.580 Y0.490
G0 X91.922 Y4.117
G0 F9000 X92.060 Y4.492
M204 S1500.00
;TYPE:SOLID-FILL
;WIDTH:0.960
G1 F1200 E7.0000
G1 F3600 X93.218 Y4.971 E0.2163
G1 X94.576 Y4.971 E0.2164
G1 X95.934 Y4.971 E0.2164
G1 X97.291 Y4.971 E0.2164
G1 X98.649 Y4.971 E0.2164
G1 X100.007 Y4.971 E0.2164
G1 X101.364 Y4.971 E0.2164
G1 X102.722 Y4.971 E0.2164
G1 X104.080 Y4.971 E0.2164
G1 X105.437 Y4.971 E0.2164
G1 X106.795 Y4.971 E0.2164
G1 X107.953 Y5.451 E0.2001
G1 F3600 E-7.0000
M204 S2000.00
G0 F9000 X107.080 Y4.253
;TYPE:FILL
;WIDTH:0.960
G1 F1200 E7.0000
G1 F3600 X104.989 Y2.161 E0.4722
G1 X101.595 Y2.161 E0.5418
G1 X103.686 Y4.253 E0.4722
G1 X100.292 Y4.253 E0.5418
G1 X98.202 Y2.161 E0.4721
G1 X94.808 Y2.161 E0.5418
G1 X96.899 Y4.253 E0.4722
G1 X93.505 Y4.253 E0.5418
G1 X92.442 Y3.190 E0.2400
G0 F3600 X92.160 Y2.908
;PRINTING_TIME: 36
;REMAINING_TIME: 480
;LAYER:8
;Z:5.328
;HEIGHT:0.566
;HEIGHT-BELT:0.400
;PRINTING: default-box.3mf
;PRINTING_ID: 0
G1 F3600 E-7.0000
G0 F1200 Z5.328
G0 F9000 X91.440 Y1.440
;TYPE:WALL-INNER
;WIDTH:0.960
G1 F1200 E7.0000
G1 F3600 X108.560 Y1.440 E2.7332
G1 X108.560 Y6.492 E0.8065
G1 X91.440 Y6.492 E2.7332
G1 X91.440 Y1.840 E0.7427
G0 F3600 X91.440 Y1.440
G1 F3600 E-7.0000
G0 F9000 X90.781 Y0.712
G0 F9000 X90.580 Y0.490
G0 F9000 X90.480 Y0.480
M204 S1500.00
;TYPE:WALL-OUTER
;WIDTH:0.960
G1 F1200 E7.0000
G1 F3600 X109.520 Y0.480 E3.0397
G1 X109.520 Y6.882 E1.0221
;TYPE:WALL-OUTER
;WIDTH:0.960
M106 S255
G1 F1800 X109.520 Y7.452 E0.0910
G1 X90.480 Y7.452 E3.0397
G1 X90.480 Y6.882 E0.0910
;TYPE:WALL-OUTER
;WIDTH:0.960
M106 S0
G1 F3600 X90.480 Y0.880 E0.9582
G0 F3600 X90.480 Y0.480
G1 F3600 E-7.0000
M204 S2000.00
G0 F9000 X90.580 Y0.490
G0 X92.949 Y4.938
G0 F9000 X93.137 Y5.291
M204 S1500.00
;TYPE:SOLID-FILL
;WIDTH:0.960
G1 F1200 E7.0000
G1 F3600 X92.855 Y6.252 E0.2169
G1 X94.693 Y5.771 E0.2167
G1 X96.050 Y5.771 E0.2166
G1 X97.408 Y5.771 E0.2168
G1 X98.766 Y5.771 E0.2168
G1 X100.123 Y5.771 E0.2166
G1 X101.481 Y5.771 E0.2168
G1 X102.839 Y5.771 E0.2168
G1 X104.196 Y5.771 E0.2166
G1 X105.554 Y5.771 E0.2168
G1 X106.912 Y5.771 E0.2168
G1 X108.071 Y5.291 E0.2003
G1 F3600 E-7.0000
M204 S2000.00
G0 F9000 X105.695 Y5.053
;TYPE:FILL
;WIDTH:0.960
G1 F1200 E7.0000
G1 F3600 X107.840 Y2.908 E0.4843
G1 X107.840 Y2.561 E0.0554
G0 F3600 X107.840 Y2.161
G1 F3600 E-7.0000
G0 F9000 X105.192 Y2.161
G1 F1200 E7.0000
G1 F3600 X102.300 Y5.053 E0.6529
G1 X98.907 Y5.053 E0.5417
G1 X101.798 Y2.161 E0.6528
G1 X98.405 Y2.161 E0.5417
G1 X95.513 Y5.053 E0.6529
G1 X92.160 Y5.053 E0.5353
G1 X92.160 Y5.012 E0.0065
G1 X94.729 Y2.443 E0.5800
G0 F3600 X95.011 Y2.161
;PRINTING_TIME: 43
;REMAINING_TIME: 473
;LAYER:9
;Z:5.894
;HEIGHT:0.566
;HEIGHT-BELT:0.400
;PRINTING: default-box.3mf
;PRINTING_ID: 0
G1 F3600 E-7.0000
G0 F1200 Z5.894
G0 F9000 X91.440 Y1.440
;TYPE:WALL-INNER
;WIDTH:0.960
G1 F1200 E7.0000
G1 F3600 X108.560 Y1.440 E2.7332
G1 X108.560 Y7.292 E0.9343
G1 X91.440 Y7.292 E2.7332
G1 X91.440 Y1.840 E0.8704
G0 F3600 X91.440 Y1.440
G1 F3600 E-7.0000
G0 F9000 X90.781 Y0.712
G0 F9000 X90.580 Y0.490
G0 F9000 X90.480 Y0.480
M204 S1500.00
;TYPE:WALL-OUTER
;WIDTH:0.960
G1 F1200 E7.0000
G1 F3600 X109.520 Y0.480 E3.0397
G1 X109.520 Y7.682 E1.1498
;TYPE:WALL-OUTER
;WIDTH:0.960
M106 S255
G1 F1800 X109.520 Y8.252 E0.0910
G1 X90.480 Y8.252 E3.0397
G1 X90.480 Y7.682 E0.0910
;TYPE:WALL-OUTER
;WIDTH:0.960
M106 S0
G1 F3600 X90.480 Y0.880 E1.0859
G0 F3600 X90.480 Y0.480
G1 F3600 E-7.0000
M204 S2000.00
G0 F9000 X90.580 Y0.490
G0 X91.611 Y6.432
G0 F9000 X91.679 Y6.826
M204 S1500.00
;TYPE:SOLID-FILL
;WIDTH:0.960
G1 F1200 E7.0000
G1 F3600 X92.103 Y6.571 E0.0508
G1 X93.461 Y6.571 E0.2164
G1 X94.819 Y6.571 E0.2164
G1 X96.176 Y6.571 E0.2164
G1 X97.534 Y6.571 E0.2164
G1 X98.892 Y6.571 E0.2164
G1 X100.249 Y6.571 E0.2164
G1 X101.607 Y6.571 E0.2164
G1 X102.964 Y6.571 E0.2164
G1 X104.322 Y6.571 E0.2164
G1 X105.680 Y6.571 E0.2164
G1 X107.037 Y6.571 E0.2164
G1 X108.196 Y7.051 E0.2003
G1 F3600 E-7.0000
M204 S2000.00
G0 F9000 X107.840 Y5.012
;TYPE:FILL
;WIDTH:0.960
G1 F1200 E7.0000
G1 F3600 X104.989 Y2.161 E0.6437
G1 X101.595 Y2.161 E0.5418
G1 X105.287 Y5.853 E0.8336
G1 X101.892 Y5.853 E0.5420
G1 X98.202 Y2.161 E0.8333
G1 X94.808 Y2.161 E0.5418
G1 X98.499 Y5.853 E0.8335
G1 X95.105 Y5.853 E0.5418
G1 X92.442 Y3.190 E0.6012
G0 F3600 X92.160 Y2.908
;PRINTING_TIME: 49
;REMAINING_TIME: 467
;LAYER:10
;Z:6.460
;HEIGHT:0.566
;HEIGHT-BELT:0.400
;PRINTING: default-box.3mf
;PRINTING_ID: 0
G1 F3600 E-7.0000
G0 F1200 Z6.460
G0 F9000 X91.440 Y1.440
;TYPE:WALL-INNER
;WIDTH:0.960
G1 F1200 E7.0000
G1 F3600 X108.560 Y1.440 E2.7332
G1 X108.560 Y8.092 E1.0620
G1 X91.440 Y8.092 E2.7332
G1 X91.440 Y1.840 E0.9981
G0 F3600 X91.440 Y1.440
G1 F3600 E-7.0000
G0 F9000 X90.781 Y0.712
G0 F9000 X90.580 Y0.490
G0 F9000 X90.480 Y0.480
M204 S1500.00
;TYPE:WALL-OUTER
;WIDTH:0.960
G1 F1200 E7.0000
G1 F3600 X109.520 Y0.480 E3.0397
G1 X109.520 Y8.482 E1.2775
;TYPE:WALL-OUTER
;WIDTH:0.960
M106 S255
G1 F1800 X109.520 Y9.052 E0.0910
G1 X90.480 Y9.052 E3.0397
G1 X90.480 Y8.482 E0.0910
;TYPE:WALL-OUTER
;WIDTH:0.960
M106 S0
G1 F3600 X90.480 Y0.880 E1.2136
G0 F3600 X90.480 Y0.480
G1 F3600 E-7.0000
M204 S2000.00
G0 F9000 X90.580 Y0.490
G0 X92.759 Y6.515
G0 F9000 X92.895 Y6.891
M204 S1500.00
;TYPE:SOLID-FILL
;WIDTH:0.960
G1 F1200 E7.0000
