;Sliced by ideaMaker 4.3.2.6470, 2023-04-05 20:58:02 UTC-0500
;Dimension: 200.000 9999.000 170.000 0.800
;Plate Shape: 0
;Origin Center: 0
;Belt Printer: 1
;Belt Base Y: 5049.500
;Belt Base Z: 0.000
;Belt Offset Y: 0.000
;Belt Offset Z: 3570.535
;Belt Gantry Angle: 45
;Belt Remove Z: 0.566
;Belt Repetition: 1
;Extruder Offset #1: 25.000 0.000
;Filament Diameter #1: 1.750
;Filament Diameter #2: 1.750
;Filament Compensation #1: 100.00
;Filament Compensation #2: 90.00
;Filament Density #1: 1240.00
;Filament Density #2: 1240.00
;Filament Type #1: PLA
;Filament Type #2: 
;Filament Name #1: [Raise3D] PLA 1.75mm
;Filament Name #2: 
;Firmware: Marlin
;Bounding Box: 90.000 110.000 0.000 28.284 0.400 27.766
;Model Gap: 0.000
;
;
M92 E305.00000
M221 T0 S100.00
M140 S60.00
M104 T0 S200.00
M109 T0 S200.00
T0
M190 S60.00
G90 ; Set to Absolute Positioning
M82 ; Set extruder to absolute mode
G21 ; Metric values
;M808 L ; This is your looping code, any number after the L is the number of repeats, leave blank for infinite loops
M104 T0 S200 ; For some reason ideamaker forces the nozzle to cooldown when the command isnt even in the endgcode, this turns it straight back on after the loop, 245 is the degrees in this case
G28; Home
G92 X0 Y0 Z0 E0 ; zero out all axes (include extruder)
M83 ; set extruder to relative coordinates
G0 Z80 E25 ; extrude short Z line
G92 E0 Z0 ; Set all axis to 0
G0 X215 E40 F800 ; Primeline placed after the loop code so every looped print will get a primeline for better adhesion
G92 E0 Z0
M82
M117 Please stick...
;end of Start GCode
;TOTAL_NUM: 1
;PRINTING_TIME: 0
;REMAINING_TIME: 430
M83
;LAYER:0
;Z:0.800
;HEIGHT:0.800
;HEIGHT-BELT:0.566
;BELT-FIRST-Z:0.800
M106 S0
;PRINTING: default-box.3mf
;PRINTING_ID: 0
M204 S2000.00
M205 X5.00 Y5.00
G0 F9000 X90.400 Y0.400
G0 F1200 Z0.800
M204 S1500.00
;TYPE:WALL-OUTER
;WIDTH:0.800
;HEIGHT:0.800
;HEIGHT-BELT:0.566
M106 S255
G1 F1800 X109.600 Y0.400 E2.5544
G1 X109.600 Y1.132 E0.0974
G1 X90.400 Y1.132 E2.5544
G1 X90.400 Y0.800 E0.0442
G0 F1800 X90.400 Y0.400
M106 S0
;PRINTING_TIME: 2
;REMAINING_TIME: 428
;LAYER:1
;Z:1.366
;HEIGHT:0.566
;HEIGHT-BELT:0.400
;PRINTING: default-box.3mf
;PRINTING_ID: 0
M204 S2000.00
G0 F1200 Z1.366
G0 F9000 X90.400 Y0.400
M204 S1500.00
;TYPE:WALL-OUTER
;WIDTH:0.800
G1 F2700 X109.600 Y0.400 E2.5544
G1 X109.600 Y1.362 E0.1280
;TYPE:WALL-OUTER
;WIDTH:0.800
M106 S255
G1 F1800 X109.600 Y1.932 E0.0758
G1 X90.400 Y1.932 E2.5544
G1 X90.400 Y1.362 E0.0758
;TYPE:WALL-OUTER
;WIDTH:0.800
M106 S0
G1 F2700 X90.400 Y0.800 E0.0748
G0 F2700 X90.400 Y0.400
M204 S2000.00
G0 F9000 X90.500 Y0.410
G0 X90.575 Y0.522
G0 F9000 X90.798 Y0.854
M204 S500.00
;TYPE:SOLID-FILL
;WIDTH:0.800
G1 F2700 X91.675 Y1.165 E0.1274
G1 X92.806 Y1.165 E0.1375
G1 X93.937 Y1.165 E0.1377
G1 X95.069 Y1.165 E0.1376
G1 X96.200 Y1.165 E0.1377
G1 X97.331 Y1.165 E0.1377
G1 X98.463 Y1.165 E0.1376
G1 X99.594 Y1.165 E0.1377
G1 X100.726 Y1.165 E0.1376
G1 X101.857 Y1.165 E0.1375
G1 X102.988 Y1.165 E0.1377
G1 X104.120 Y1.165 E0.1376
G1 X105.251 Y1.165 E0.1377
G1 X106.382 Y1.165 E0.1377
G1 X107.514 Y1.165 E0.1376
G1 X108.645 Y1.165 E0.1377
G1 X109.199 Y1.153 E0.0737
;PRINTING_TIME: 4
;REMAINING_TIME: 426
;LAYER:2
;Z:1.932
;HEIGHT:0.566
;HEIGHT-BELT:0.400
M106 S51
;PRINTING: default-box.3mf
;PRINTING_ID: 0
M204 S2000.00
G0 F1200 Z1.932
G0 F9000 X91.200 Y1.200
;TYPE:WALL-INNER
;WIDTH:0.800
G1 F3150 X108.800 Y1.200 E2.3415
G1 X108.800 Y1.932 E0.0974
G1 X91.200 Y1.932 E2.3415
G1 X91.200 Y1.600 E0.0442
G0 F3150 X91.200 Y1.200
G0 F9000 X90.699 Y0.634
G0 F9000 X90.500 Y0.410
G0 F9000 X90.400 Y0.400
M204 S1500.00
;TYPE:WALL-OUTER
;WIDTH:0.800
G1 F3150 X109.600 Y0.400 E2.5544
G1 X109.600 Y2.162 E0.2344
;TYPE:WALL-OUTER
;WIDTH:0.800
M106 S255
G1 F1800 X109.600 Y2.732 E0.0758
G1 X90.400 Y2.732 E2.5544
G1 X90.400 Y2.162 E0.0758
;TYPE:WALL-OUTER
;WIDTH:0.800
M106 S51
G1 F3150 X90.400 Y0.800 E0.1812
G0 F3150 X90.400 Y0.400
M204 S2000.00
G0 F9000 X90.500 Y0.410
G0 X91.726 Y1.709
G0 F9000 X92.000 Y2.000
;PRINTING_TIME: 7
;REMAINING_TIME: 424
;LAYER:3
;Z:2.498
;HEIGHT:0.566
;HEIGHT-BELT:0.400
;PRINTING: default-box.3mf
;PRINTING_ID: 0
G0 F1200 Z2.498
G0 F9000 X91.200 Y1.200
;TYPE:WALL-INNER
;WIDTH:0.800
G1 F3600 X108.800 Y1.200 E2.3415
G1 X108.800 Y2.732 E0.2038
G1 X91.200 Y2.732 E2.3415
G1 X91.200 Y1.600 E0.1506
G0 F3600 X91.200 Y1.200
G0 F9000 X90.699 Y0.634
G0 F9000 X90.500 Y0.410
G0 F9000 X90.400 Y0.400
M204 S1500.00
;TYPE:WALL-OUTER
;WIDTH:0.800
G1 F3600 X109.600 Y0.400 E2.5544
G1 X109.600 Y2.962 E0.3408
;TYPE:WALL-OUTER
;WIDTH:0.800
M106 S255
G1 F1800 X109.600 Y3.532 E0.0758
G1 X90.400 Y3.532 E2.5544
G1 X90.400 Y2.962 E0.0758
;TYPE:WALL-OUTER
;WIDTH:0.800
M106 S51
G1 F3600 X90.400 Y0.800 E0.2876
G0 F3600 X90.400 Y0.400
M204 S2000.00
G0 F9000 X90.500 Y0.410
G0 X91.335 Y1.355
G0 F9000 X91.599 Y1.655
M204 S1500.00
;TYPE:SOLID-FILL
;WIDTH:0.800
G1 F3600 X92.475 Y1.965 E0.1272
G1 X93.606 Y1.965 E0.1373
G1 X94.738 Y1.965 E0.1374
G1 X95.869 Y1.965 E0.1373
G1 X97.000 Y1.965 E0.1373
G1 X98.132 Y1.965 E0.1374
G1 X99.263 Y1.965 E0.1373
G1 X100.394 Y1.965 E0.1373
G1 X101.526 Y1.965 E0.1374
G1 X102.657 Y1.965 E0.1373
G1 X103.789 Y1.965 E0.1374
G1 X104.920 Y1.965 E0.1373
G1 X106.051 Y1.965 E0.1373
G1 X107.183 Y1.965 E0.1374
G1 X108.114 Y2.331 E0.1331
;PRINTING_TIME: 9
;REMAINING_TIME: 421
;LAYER:4
;Z:3.064
;HEIGHT:0.566
;HEIGHT-BELT:0.400
;PRINTING: default-box.3mf
;PRINTING_ID: 0
M204 S2000.00
G0 F1200 Z3.064
G0 F9000 X91.200 Y1.200
;TYPE:WALL-INNER
;WIDTH:0.800
G1 F3600 X108.800 Y1.200 E2.3415
G1 X108.800 Y3.532 E0.3103
G1 X91.200 Y3.532 E2.3415
G1 X91.200 Y1.600 E0.2570
G0 F3600 X91.200 Y1.200
G0 F9000 X90.699 Y0.634
G0 F9000 X90.500 Y0.410
G0 F9000 X90.400 Y0.400
M204 S1500.00
;TYPE:WALL-OUTER
;WIDTH:0.800
G1 F3600 X109.600 Y0.400 E2.5544
G1 X109.600 Y3.762 E0.4473
;TYPE:WALL-OUTER
;WIDTH:0.800
M106 S255
G1 F1800 X109.600 Y4.332 E0.0758
G1 X90.400 Y4.332 E2.5544
G1 X90.400 Y3.762 E0.0758
;TYPE:WALL-OUTER
;WIDTH:0.800
M106 S51
G1 F3600 X90.400 Y0.800 E0.3941
G0 F3600 X90.400 Y0.400
M204 S2000.00
G0 F9000 X90.500 Y0.410
G0 X92.046 Y1.858
G0 F9000 X92.337 Y2.131
M204 S1500.00
;TYPE:SOLID-FILL
;WIDTH:0.800
G1 F3600 X91.399 Y3.069 E0.1765
M204 S2000.00
G0 F9000 X92.268 Y3.331
M204 S1500.00
G1 F3600 X93.468 Y2.131 E0.2258
M204 S2000.00
G0 F9000 X94.600 Y2.131
M204 S1500.00
G1 F3600 X93.400 Y3.331 E0.2258
M204 S2000.00
G0 F9000 X94.531 Y3.331
M204 S1500.00
G1 F3600 X95.731 Y2.131 E0.2258
M204 S2000.00
G0 F9000 X96.863 Y2.131
M204 S1500.00
G1 F3600 X95.663 Y3.331 E0.2258
M204 S2000.00
G0 F9000 X96.794 Y3.331
M204 S1500.00
G1 F3600 X97.994 Y2.131 E0.2258
M204 S2000.00
G0 F9000 X99.125 Y2.131
M204 S1500.00
G1 F3600 X97.925 Y3.331 E0.2258
M204 S2000.00
G0 F9000 X99.057 Y3.331
M204 S1500.00
G1 F3600 X100.257 Y2.131 E0.2258
M204 S2000.00
G0 F9000 X101.388 Y2.131
M204 S1500.00
G1 F3600 X100.188 Y3.331 E0.2258
M204 S2000.00
G0 F9000 X101.319 Y3.331
M204 S1500.00
G1 F3600 X102.519 Y2.131 E0.2258
M204 S2000.00
G0 F9000 X103.651 Y2.131
M204 S1500.00
G1 F3600 X102.451 Y3.331 E0.2258
M204 S2000.00
G0 F9000 X103.582 Y3.331
M204 S1500.00
G1 F3600 X104.782 Y2.131 E0.2258
M204 S2000.00
G0 F9000 X105.913 Y2.131
M204 S1500.00
G1 F3600 X104.714 Y3.331 E0.2257
M204 S2000.00
G0 F9000 X105.845 Y3.331
M204 S1500.00
G1 F3600 X107.045 Y2.131 E0.2258
M204 S2000.00
G0 F9000 X108.176 Y2.131
M204 S1500.00
G1 F3600 X106.976 Y3.331 E0.2258
M204 S2000.00
G0 F9000 X108.108 Y3.331
M204 S1500.00
G1 F3600 X108.598 Y2.841 E0.0922
M204 S2000.00
G0 F9000 X106.684 Y1.801
;TYPE:FILL
;WIDTH:0.800
G1 F3600 X106.552 Y1.933 E0.0248
G1 X103.724 Y1.933 E0.3762
G1 X103.855 Y1.801 E0.0247
G1 X101.027 Y1.801 E0.3762
G1 X100.895 Y1.933 E0.0248
G1 X98.068 Y1.933 E0.3761
G1 X98.199 Y1.801 E0.0247
G1 X95.371 Y1.801 E0.3762
G1 X95.240 Y1.933 E0.0247
G1 X92.625 Y1.933 E0.3479
G0 F3600 X92.411 Y1.933
G0 F3600 X92.543 Y1.801
;PRINTING_TIME: 14
;REMAINING_TIME: 416
;LAYER:5
;Z:3.630
;HEIGHT:0.566
;HEIGHT-BELT:0.400
;PRINTING: default-box.3mf
;PRINTING_ID: 0
G0 F1200 Z3.630
G0 F9000 X91.200 Y1.200
;TYPE:WALL-INNER
;WIDTH:0.800
G1 F3600 X108.800 Y1.200 E2.3415
G1 X108.800 Y4.332 E0.4167
G1 X91.200 Y4.332 E2.3415
G1 X91.200 Y1.600 E0.3635
G0 F3600 X91.200 Y1.200
G0 F9000 X90.699 Y0.634
G0 F9000 X90.500 Y0.410
G0 F9000 X90.400 Y0.400
M204 S1500.00
;TYPE:WALL-OUTER
;WIDTH:0.800
G1 F3600 X109.600 Y0.400 E2.5544
G1 X109.600 Y4.562 E0.5537
;TYPE:WALL-OUTER
;WIDTH:0.800
M106 S255
G1 F1800 X109.600 Y5.132 E0.0758
G1 X90.400 Y5.132 E2.5544
G1 X90.400 Y4.562 E0.0758
;TYPE:WALL-OUTER
;WIDTH:0.800
M106 S51
G1 F3600 X90.400 Y0.800 E0.5005
G0 F3600 X90.400 Y0.400
M204 S2000.00
G0 F9000 X90.500 Y0.410
G0 X91.295 Y3.332
G0 F9000 X91.399 Y3.717
M204 S1500.00
;TYPE:SOLID-FILL
;WIDTH:0.800
G1 F3600 X91.812 Y4.131 E0.0778
M204 S2000.00
G0 F9000 X92.944 Y4.131
M204 S1500.00
G1 F3600 X91.744 Y2.932 E0.2257
M204 S2000.00
G0 F9000 X92.876 Y2.932
M204 S1500.00
G1 F3600 X94.075 Y4.131 E0.2256
M204 S2000.00
G0 F9000 X95.206 Y4.131
M204 S1500.00
G1 F3600 X94.007 Y2.932 E0.2256
M204 S2000.00
G0 F9000 X95.139 Y2.932
M204 S1500.00
G1 F3600 X96.338 Y4.131 E0.2256
M204 S2000.00
G0 F9000 X97.469 Y4.131
M204 S1500.00
G1 F3600 X96.270 Y2.932 E0.2256
M204 S2000.00
G0 F9000 X97.401 Y2.932
M204 S1500.00
G1 F3600 X98.601 Y4.131 E0.2257
M204 S2000.00
G0 F9000 X99.732 Y4.131
M204 S1500.00
G1 F3600 X98.533 Y2.932 E0.2256
M204 S2000.00
G0 F9000 X99.664 Y2.932
M204 S1500.00
G1 F3600 X100.863 Y4.131 E0.2256
M204 S2000.00
G0 F9000 X101.995 Y4.131
M204 S1500.00
G1 F3600 X100.795 Y2.932 E0.2257
M204 S2000.00
G0 F9000 X101.927 Y2.932
M204 S1500.00
G1 F3600 X103.126 Y4.131 E0.2256
M204 S2000.00
G0 F9000 X104.257 Y4.131
M204 S1500.00
G1 F3600 X103.058 Y2.932 E0.2256
M204 S2000.00
G0 F9000 X104.190 Y2.932
M204 S1500.00
G1 F3600 X105.389 Y4.131 E0.2256
M204 S2000.00
G0 F9000 X106.520 Y4.131
M204 S1500.00
G1 F3600 X105.321 Y2.932 E0.2256
M204 S2000.00
G0 F9000 X106.452 Y2.932
M204 S1500.00
G1 F3600 X107.652 Y4.131 E0.2257
M204 S2000.00
G0 F9000 X108.599 Y3.947
M204 S1500.00
G1 F3600 X107.584 Y2.932 E0.1910
M204 S2000.00
G0 F9000 X108.200 Y2.544
;TYPE:FILL
;WIDTH:0.800
G1 F3600 X107.457 Y1.801 E0.1398
G1 X104.629 Y1.801 E0.3762
G1 X105.561 Y2.733 E0.1754
G1 X102.732 Y2.733 E0.3764
G1 X101.801 Y1.801 E0.1753
G1 X98.973 Y1.801 E0.3762
G1 X99.905 Y2.733 E0.1754
G1 X97.077 Y2.733 E0.3762
G1 X96.145 Y1.801 E0.1754
G1 X93.316 Y1.801 E0.3764
G1 X93.966 Y2.451 E0.1223
G0 F3600 X94.248 Y2.733
;PRINTING_TIME: 19
;REMAINING_TIME: 411
;LAYER:6
;Z:4.196
;HEIGHT:0.566
;HEIGHT-BELT:0.400
M106 S128
;PRINTING: default-box.3mf
;PRINTING_ID: 0
G0 F1200 Z4.196
G0 F9000 X91.200 Y1.200
;TYPE:WALL-INNER
;WIDTH:0.800
G1 F3600 X108.800 Y1.200 E2.3415
G1 X108.800 Y5.132 E0.5231
G1 X91.200 Y5.132 E2.3415
G1 X91.200 Y1.600 E0.4699
G0 F3600 X91.200 Y1.200
G0 F9000 X90.699 Y0.634
G0 F9000 X90.500 Y0.410
G0 F9000 X90.400 Y0.400
M204 S1500.00
;TYPE:WALL-OUTER
;WIDTH:0.800
G1 F3600 X109.600 Y0.400 E2.5544
G1 X109.600 Y5.362 E0.6601
;TYPE:WALL-OUTER
;WIDTH:0.800
M106 S255
G1 F1800 X109.600 Y5.932 E0.0758
G1 X90.400 Y5.932 E2.5544
G1 X90.400 Y5.362 E0.0758
;TYPE:WALL-OUTER
;WIDTH:0.800
M106 S128
G1 F3600 X90.400 Y0.800 E0.6069
G0 F3600 X90.400 Y0.400
M204 S2000.00
G0 F9000 X90.500 Y0.410
G0 X91.716 Y3.363
G0 F9000 X91.868 Y3.732
M204 S1500.00
;TYPE:SOLID-FILL
;WIDTH:0.800
G1 F3600 X91.399 Y4.200 E0.0881
M204 S2000.00
G0 F9000 X91.800 Y4.932
M204 S1500.00
G1 F3600 X93.000 Y3.732 E0.2258
M204 S2000.00
G0 F9000 X94.131 Y3.732
M204 S1500.00
G1 F3600 X92.931 Y4.932 E0.2258
M204 S2000.00
G0 F9000 X94.062 Y4.932
M204 S1500.00
G1 F3600 X95.262 Y3.732 E0.2258
M204 S2000.00
G0 F9000 X96.394 Y3.732
M204 S1500.00
G1 F3600 X95.194 Y4.932 E0.2258
M204 S2000.00
G0 F9000 X96.325 Y4.932
M204 S1500.00
G1 F3600 X97.525 Y3.732 E0.2258
M204 S2000.00
G0 F9000 X98.656 Y3.732
M204 S1500.00
G1 F3600 X97.456 Y4.932 E0.2258
M204 S2000.00
G0 F9000 X98.588 Y4.932
M204 S1500.00
G1 F3600 X99.788 Y3.732 E0.2258
M204 S2000.00
G0 F9000 X100.919 Y3.732
M204 S1500.00
G1 F3600 X99.719 Y4.932 E0.2258
M204 S2000.00
G0 F9000 X100.851 Y4.932
M204 S1500.00
G1 F3600 X102.051 Y3.732 E0.2258
M204 S2000.00
G0 F9000 X103.182 Y3.732
M204 S1500.00
G1 F3600 X101.982 Y4.932 E0.2258
M204 S2000.00
G0 F9000 X103.113 Y4.932
M204 S1500.00
G1 F3600 X104.313 Y3.732 E0.2258
M204 S2000.00
G0 F9000 X105.445 Y3.732
M204 S1500.00
G1 F3600 X104.245 Y4.932 E0.2258
M204 S2000.00
G0 F9000 X105.376 Y4.932
M204 S1500.00
G1 F3600 X106.576 Y3.732 E0.2258
M204 S2000.00
G0 F9000 X107.707 Y3.732
M204 S1500.00
G1 F3600 X106.507 Y4.932 E0.2258
M204 S2000.00
G0 F9000 X107.639 Y4.932
M204 S1500.00
G1 F3600 X108.598 Y3.972 E0.1805
M204 S2000.00
G0 F9000 X107.781 Y3.533
;TYPE:FILL
;WIDTH:0.800
G1 F3600 X108.199 Y3.114 E0.0787
G1 X108.200 Y2.201 E0.1215
G0 F3600 X108.200 Y1.801
G0 F9000 X106.684 Y1.801
G1 F3600 X104.952 Y3.533 E0.3259
G1 X102.124 Y3.533 E0.3762
G1 X103.855 Y1.801 E0.3258
G1 X101.027 Y1.801 E0.3762
G1 X99.296 Y3.533 E0.3258
G1 X96.468 Y3.533 E0.3762
G1 X98.199 Y1.801 E0.3258
G1 X95.371 Y1.801 E0.3762
G1 X93.639 Y3.533 E0.3259
G1 X91.801 Y3.533 E0.2445
G1 X91.801 Y2.543 E0.1317
G1 X92.261 Y2.083 E0.0865
G0 F3600 X92.543 Y1.801
;PRINTING_TIME: 24
;REMAINING_TIME: 406
;LAYER:7
;Z:4.762
;HEIGHT:0.566
;HEIGHT-BELT:0.400
;PRINTING: default-box.3mf
;PRINTING_ID: 0
G0 F1200 Z4.762
G0 F9000 X91.200 Y1.200
;TYPE:WALL-INNER
;WIDTH:0.800
G1 F3600 X108.800 Y1.200 E2.3415
G1 X108.800 Y5.932 E0.6295
G1 X91.200 Y5.932 E2.3415
G1 X91.200 Y1.600 E0.5763
G0 F3600 X91.200 Y1.200
G0 F9000 X90.699 Y0.634
G0 F9000 X90.500 Y0.410
G0 F9000 X90.400 Y0.400
M204 S1500.00
;TYPE:WALL-OUTER
;WIDTH:0.800
G1 F3600 X109.600 Y0.400 E2.5544
G1 X109.600 Y6.162 E0.7666
;TYPE:WALL-OUTER
;WIDTH:0.800
M106 S255
G1 F1800 X109.600 Y6.732 E0.0758
G1 X90.400 Y6.732 E2.5544
G1 X90.400 Y6.162 E0.0758
;TYPE:WALL-OUTER
;WIDTH:0.800
M106 S128
G1 F3600 X90.400 Y0.800 E0.7134
G0 F3600 X90.400 Y0.400
M204 S2000.00
G0 F9000 X90.500 Y0.410
G0 X91.320 Y4.457
G0 F9000 X91.399 Y4.849
M204 S1500.00
;TYPE:SOLID-FILL
;WIDTH:0.800
G1 F3600 X92.281 Y5.731 E0.1659
M204 S2000.00
G0 F9000 X93.413 Y5.731
M204 S1500.00
G1 F3600 X92.213 Y4.532 E0.2257
M204 S2000.00
G0 F9000 X93.345 Y4.532
M204 S1500.00
G1 F3600 X94.544 Y5.731 E0.2256
M204 S2000.00
G0 F9000 X95.675 Y5.731
M204 S1500.00
G1 F3600 X94.476 Y4.532 E0.2256
M204 S2000.00
G0 F9000 X95.607 Y4.532
M204 S1500.00
G1 F3600 X96.807 Y5.731 E0.2257
M204 S2000.00
G0 F9000 X97.938 Y5.731
M204 S1500.00
G1 F3600 X96.739 Y4.532 E0.2256
M204 S2000.00
G0 F9000 X97.870 Y4.532
M204 S1500.00
G1 F3600 X99.069 Y5.731 E0.2256
M204 S2000.00
G0 F9000 X100.201 Y5.731
M204 S1500.00
G1 F3600 X99.002 Y4.532 E0.2256
M204 S2000.00
G0 F9000 X100.133 Y4.532
M204 S1500.00
G1 F3600 X101.332 Y5.731 E0.2256
M204 S2000.00
G0 F9000 X102.464 Y5.731
M204 S1500.00
G1 F3600 X101.264 Y4.532 E0.2257
M204 S2000.00
G0 F9000 X102.396 Y4.532
M204 S1500.00
G1 F3600 X103.595 Y5.731 E0.2256
M204 S2000.00
G0 F9000 X104.726 Y5.731
M204 S1500.00
G1 F3600 X103.527 Y4.532 E0.2256
M204 S2000.00
G0 F9000 X104.658 Y4.532
M204 S1500.00
G1 F3600 X105.858 Y5.731 E0.2257
M204 S2000.00
G0 F9000 X106.989 Y5.731
M204 S1500.00
G1 F3600 X105.790 Y4.532 E0.2256
M204 S2000.00
G0 F9000 X106.921 Y4.532
M204 S1500.00
G1 F3600 X108.120 Y5.731 E0.2256
M204 S2000.00
G0 F9000 X108.599 Y5.079
M204 S1500.00
G1 F3600 X108.052 Y4.532 E0.1029
M204 S2000.00
G0 F9000 X108.200 Y2.544
;TYPE:FILL
;WIDTH:0.800
G1 F3600 X107.457 Y1.801 E0.1398
G1 X104.629 Y1.801 E0.3762
G1 X107.161 Y4.334 E0.4765
G1 X104.333 Y4.334 E0.3762
G1 X101.801 Y1.801 E0.4765
G1 X98.973 Y1.801 E0.3762
G1 X101.504 Y4.334 E0.4764
G1 X98.677 Y4.334 E0.3761
G1 X96.145 Y1.801 E0.4765
G1 X93.316 Y1.801 E0.3764
G1 X95.848 Y4.334 E0.4765
G1 X93.020 Y4.334 E0.3762
G1 X92.082 Y3.396 E0.1765
G0 F3600 X91.800 Y3.114
;PRINTING_TIME: 29
;REMAINING_TIME: 401
;LAYER:8
;Z:5.328
;HEIGHT:0.566
;HEIGHT-BELT:0.400
;PRINTING: default-box.3mf
;PRINTING_ID: 0
G0 F1200 Z5.328
G0 F9000 X91.200 Y1.200
;TYPE:WALL-INNER
;WIDTH:0.800
G1 F3600 X108.800 Y1.200 E2.3415
G1 X108.800 Y6.732 E0.7360
G1 X91.200 Y6.732 E2.3415
G1 X91.200 Y1.600 E0.6828
G0 F3600 X91.200 Y1.200
