;Sliced by ideaMaker 4.3.2.6470, 2023-04-05 14:34:35 UTC-0500
;Dimension: 200.000 9999.000 170.000 1.200
;Plate Shape: 0
;Origin Center: 0
;Belt Printer: 1
;Belt Base Y: 5049.500
;Belt Base Z: 0.000
;Belt Offset Y: 0.000
;Belt Offset Z: 3570.535
;Belt Gantry Angle: 45
;Belt Remove Z: 1.024
;Belt Repetition: 1
;Extruder Offset #1: 25.000 0.000
;Filament Diameter #1: 1.750
;Filament Diameter #2: 1.750
;Filament Compensation #1: 100.00
;Filament Compensation #2: 90.00
;Filament Density #1: 1240.00
;Filament Density #2: 1240.00
;Filament Type #1: PLA
;Filament Type #2: 
;Filament Name #1: [Raise3D] PLA 1.75mm
;Filament Name #2: 
;Firmware: Marlin
;Bounding Box: 90.000 110.000 0.000 28.284 0.900 27.124
;Model Gap: 0.000
;
;
M221 T0 S100.00
M140 S60.00
M104 T0 S200.00
M109 T0 S200.00
T0
M190 S60.00
G90 ; Set to Absolute Positioning
M82 ; Set extruder to absolute mode
G21 ; Metric values
;M808 L ; This is your looping code, any number after the L is the number of repeats, leave blank for infinite loops
M104 T0 S200 ; For some reason ideamaker forces the nozzle to cooldown when the command isnt even in the endgcode, this turns it straight back on after the loop, 245 is the degrees in this case
G28; Home
G92 X0 Y0 Z0 E0 ; zero out all axes (include extruder)
M83 ; set extruder to relative coordinates
G0 Z80 E25 ; extrude short Z line
G92 E0 Z0 ; Set all axis to 0
G0 X215 E40 F800 ; Primeline placed after the loop code so every looped print will get a primeline for better adhesion
G92 E0 Z0
M82
M117 Please stick...
;end of Start GCode
;TOTAL_NUM: 1
;PRINTING_TIME: 0
;REMAINING_TIME: 326
M83
;LAYER:0
;Z:0.600
;HEIGHT:0.600
;HEIGHT-BELT:0.424
;BELT-FIRST-Z:0.600
M106 S0
;PRINTING: default-box.3mf
;PRINTING_ID: 0
G1 F2700 E-7.0000
M204 S2000.00
M205 X5.00 Y5.00
G0 F9000 X91.000 Y1.000
G0 F1200 Z0.600
M204 S1500.00
;TYPE:WALL-OUTER
;WIDTH:2.000
;HEIGHT:0.600
;HEIGHT-BELT:0.424
M106 S255
G1 F1200 E7.0000
G1 F1800 X109.000 Y1.000 E4.4901
G1 X109.000 Y1.348 E0.0868
G1 X91.052 Y1.348 E4.4771
G0 F1800 X91.000 Y1.348
G0 F1800 X91.000 Y1.000
M106 S0
;PRINTING_TIME: 3
;REMAINING_TIME: 324
;LAYER:1
;Z:1.024
;HEIGHT:0.424
;HEIGHT-BELT:0.300
;PRINTING: default-box.3mf
;PRINTING_ID: 0
M204 S2000.00
G0 F1200 Z1.024
G0 F9000 X91.000 Y1.000
M204 S1500.00
;TYPE:WALL-OUTER
;WIDTH:2.000
G1 F2700 X109.000 Y1.000 E4.4901
;TYPE:WALL-OUTER
;WIDTH:2.000
M106 S255
G1 F1800 X109.000 Y1.948 E0.2365
G1 X91.000 Y1.948 E4.4901
G1 X91.000 Y1.521 E0.1065
G1 X91.000 Y1.400 E0.0302
G0 F1800 X91.000 Y1.000
M106 S0
;PRINTING_TIME: 4
;REMAINING_TIME: 322
;LAYER:2
;Z:1.448
;HEIGHT:0.424
;HEIGHT-BELT:0.300
;PRINTING: default-box.3mf
;PRINTING_ID: 0
M204 S2000.00
G0 F1200 Z1.448
G0 F9000 X91.000 Y1.000
M204 S1500.00
;TYPE:WALL-OUTER
;WIDTH:2.000
G1 F2700 X109.000 Y1.000 E4.4901
G1 X109.000 Y2.121 E0.2796
;TYPE:WALL-OUTER
;WIDTH:2.000
M106 S255
G1 F1800 X109.000 Y2.548 E0.1065
G1 X91.000 Y2.548 E4.4901
G1 X91.000 Y2.121 E0.1065
;TYPE:WALL-OUTER
;WIDTH:2.000
M106 S0
G1 F2700 X91.000 Y1.400 E0.1799
G0 F2700 X91.000 Y1.000
;PRINTING_TIME: 5
;REMAINING_TIME: 321
;LAYER:3
;Z:1.872
;HEIGHT:0.424
;HEIGHT-BELT:0.300
;PRINTING: default-box.3mf
;PRINTING_ID: 0
M204 S2000.00
G0 F1200 Z1.872
G0 F9000 X91.000 Y1.000
M204 S1500.00
;TYPE:WALL-OUTER
;WIDTH:2.000
G1 F2700 X109.000 Y1.000 E4.4901
G1 X109.000 Y2.721 E0.4293
;TYPE:WALL-OUTER
;WIDTH:2.000
M106 S255
G1 F1800 X109.000 Y3.148 E0.1065
G1 X91.000 Y3.148 E4.4901
G1 X91.000 Y2.721 E0.1065
;TYPE:WALL-OUTER
;WIDTH:2.000
M106 S0
G1 F2700 X91.000 Y1.400 E0.3295
G0 F2700 X91.000 Y1.000
;PRINTING_TIME: 7
;REMAINING_TIME: 320
;LAYER:4
;Z:2.296
;HEIGHT:0.424
;HEIGHT-BELT:0.300
;PRINTING: default-box.3mf
;PRINTING_ID: 0
M204 S2000.00
G0 F1200 Z2.296
G0 F9000 X91.000 Y1.000
M204 S1500.00
;TYPE:WALL-OUTER
;WIDTH:2.000
G1 F2700 X109.000 Y1.000 E4.4901
G1 X109.000 Y3.321 E0.5790
;TYPE:WALL-OUTER
;WIDTH:2.000
M106 S255
G1 F1800 X109.000 Y3.748 E0.1065
G1 X91.000 Y3.748 E4.4901
G1 X91.000 Y3.321 E0.1065
;TYPE:WALL-OUTER
;WIDTH:2.000
M106 S0
G1 F2700 X91.000 Y1.400 E0.4792
G0 F2700 X91.000 Y1.000
M204 S2000.00
G0 F9000 X91.100 Y1.010
G0 X91.820 Y2.393
G0 F9000 X92.004 Y2.747
M204 S1500.00
;TYPE:SOLID-FILL
;WIDTH:2.000
G1 F3600 X93.792 Y2.373 E0.2636
G1 X96.621 Y2.373 E0.2636
G1 X99.449 Y2.373 E0.2635
G1 X102.277 Y2.373 E0.2635
G1 X105.106 Y2.373 E0.2636
G1 X106.894 Y1.999 E0.4557
;PRINTING_TIME: 8
;REMAINING_TIME: 318
;LAYER:5
;Z:2.720
;HEIGHT:0.424
;HEIGHT-BELT:0.300
;PRINTING: default-box.3mf
;PRINTING_ID: 0
M204 S2000.00
G0 F1200 Z2.720
G0 F9000 X106.894 Y1.999
G0 X91.399 Y1.028
G0 F9000 X91.100 Y1.010
G0 F9000 X91.000 Y1.000
M204 S1500.00
;TYPE:WALL-OUTER
;WIDTH:2.000
G1 F2700 X109.000 Y1.000 E4.4901
G1 X109.000 Y3.921 E0.7286
;TYPE:WALL-OUTER
;WIDTH:2.000
M106 S255
G1 F1800 X109.000 Y4.348 E0.1065
G1 X91.000 Y4.348 E4.4901
G1 X91.000 Y3.921 E0.1065
;TYPE:WALL-OUTER
;WIDTH:2.000
M106 S0
G1 F2700 X91.000 Y1.400 E0.6289
G0 F2700 X91.000 Y1.000
M204 S2000.00
G0 F9000 X91.100 Y1.010
G0 X91.828 Y2.543
G0 F9000 X91.999 Y2.904
M204 S1500.00
;TYPE:SOLID-FILL
;WIDTH:2.000
G1 F3600 X93.183 Y2.673 E0.1562
G1 X96.011 Y2.673 E0.4748
G1 X98.840 Y2.673 E0.4749
G1 X101.668 Y2.673 E0.4748
G1 X104.496 Y2.673 E0.4748
G1 X106.585 Y3.347 E0.5476
;PRINTING_TIME: 10
;REMAINING_TIME: 316
;LAYER:6
;Z:3.144
;HEIGHT:0.424
;HEIGHT-BELT:0.300
;PRINTING: default-box.3mf
;PRINTING_ID: 0
M204 S2000.00
G0 F1200 Z3.144
G0 F9000 X106.585 Y3.347
G0 X91.396 Y1.054
G0 F9000 X91.100 Y1.010
G0 F9000 X91.000 Y1.000
M204 S1500.00
;TYPE:WALL-OUTER
;WIDTH:2.000
G1 F2700 X109.000 Y1.000 E4.4901
G1 X109.000 Y4.521 E0.8783
;TYPE:WALL-OUTER
;WIDTH:2.000
M106 S255
G1 F1800 X109.000 Y4.948 E0.1065
G1 X91.000 Y4.948 E4.4901
G1 X91.000 Y4.521 E0.1065
;TYPE:WALL-OUTER
;WIDTH:2.000
M106 S0
G1 F2700 X91.000 Y1.400 E0.7785
G0 F2700 X91.000 Y1.000
M204 S2000.00
G0 F9000 X91.100 Y1.010
G0 X91.816 Y2.397
G0 F9000 X91.999 Y2.752
M204 S1500.00
;TYPE:SOLID-FILL
;WIDTH:2.000
G1 F3600 X93.192 Y2.973 E0.2654
G1 X96.020 Y2.973 E0.6875
G1 X98.849 Y2.973 E0.6873
G1 X101.677 Y2.973 E0.6871
G1 X104.505 Y2.973 E0.6875
G1 X106.894 Y1.999 E0.6436
;PRINTING_TIME: 12
;REMAINING_TIME: 314
;LAYER:7
;Z:3.568
;HEIGHT:0.424
;HEIGHT-BELT:0.300
;PRINTING: default-box.3mf
;PRINTING_ID: 0
M204 S2000.00
G0 F1200 Z3.568
G0 F9000 X106.894 Y1.999
G0 X91.399 Y1.028
G0 F9000 X91.100 Y1.010
G0 F9000 X91.000 Y1.000
M204 S1500.00
;TYPE:WALL-OUTER
;WIDTH:2.000
G1 F2700 X109.000 Y1.000 E4.4901
G1 X109.000 Y5.121 E1.0280
;TYPE:WALL-OUTER
;WIDTH:2.000
M106 S255
G1 F1800 X109.000 Y5.548 E0.1065
G1 X91.000 Y5.548 E4.4901
G1 X91.000 Y5.121 E0.1065
;TYPE:WALL-OUTER
;WIDTH:2.000
M106 S0
G1 F2700 X91.000 Y1.400 E0.9282
G0 F2700 X91.000 Y1.000
M204 S2000.00
G0 F9000 X91.100 Y1.010
G0 X91.827 Y2.542
G0 F9000 X91.998 Y2.903
M204 S1500.00
;TYPE:SOLID-FILL
;WIDTH:2.000
G1 F3600 X93.783 Y3.274 E0.5801
G1 X96.611 Y3.274 E0.8984
G1 X99.440 Y3.274 E0.8987
G1 X102.268 Y3.274 E0.8984
G1 X105.097 Y3.274 E0.8987
G1 X107.785 Y4.548 E0.7420
;PRINTING_TIME: 14
;REMAINING_TIME: 312
;LAYER:8
;Z:3.992
;HEIGHT:0.424
;HEIGHT-BELT:0.300
;PRINTING: default-box.3mf
;PRINTING_ID: 0
M204 S2000.00
G0 F1200 Z3.992
G0 F9000 X107.785 Y4.548
G0 X91.393 Y1.072
G0 F9000 X91.100 Y1.010
G0 F9000 X91.000 Y1.000
M204 S1500.00
;TYPE:WALL-OUTER
;WIDTH:2.000
G1 F2700 X109.000 Y1.000 E4.4901
G1 X109.000 Y5.721 E1.1777
;TYPE:WALL-OUTER
;WIDTH:2.000
M106 S255
G1 F1800 X109.000 Y6.148 E0.1065
G1 X91.000 Y6.148 E4.4901
G1 X91.000 Y5.721 E0.1065
;TYPE:WALL-OUTER
;WIDTH:2.000
M106 S0
G1 F2700 X91.000 Y1.400 E1.0779
G0 F2700 X91.000 Y1.000
M204 S2000.00
G0 F9000 X91.100 Y1.010
G0 X91.816 Y2.397
G0 F9000 X91.999 Y2.752
M204 S1500.00
;TYPE:SOLID-FILL
;WIDTH:2.000
G1 F3600 X92.752 Y1.999 E0.2656
M204 S2000.00
G0 F9000 X95.581 Y1.999
M204 S1500.00
G1 F3600 X92.432 Y5.148 E1.1109
M204 S2000.00
G0 F9000 X95.260 Y5.148
M204 S1500.00
G1 F3600 X98.409 Y1.999 E1.1109
M204 S2000.00
G0 F9000 X101.237 Y1.999
M204 S1500.00
G1 F3600 X98.089 Y5.148 E1.1107
M204 S2000.00
G0 F9000 X100.917 Y5.148
M204 S1500.00
G1 F3600 X104.066 Y1.999 E1.1109
M204 S2000.00
G0 F9000 X106.894 Y1.999
M204 S1500.00
G1 F3600 X103.745 Y5.148 E1.1109
M204 S2000.00
G0 F9000 X106.574 Y5.148
M204 S1500.00
G1 F3600 X107.999 Y3.723 E0.5027
;PRINTING_TIME: 17
;REMAINING_TIME: 309
;LAYER:9
;Z:4.416
;HEIGHT:0.424
;HEIGHT-BELT:0.300
;PRINTING: default-box.3mf
;PRINTING_ID: 0
M204 S2000.00
G0 F1200 Z4.416
G0 F9000 X93.000 Y3.000
;TYPE:WALL-INNER
;WIDTH:2.000
G1 F2700 X107.000 Y3.000 E3.4923
G1 X107.000 Y4.748 E0.4360
G1 X93.000 Y4.748 E3.4923
G1 X93.000 Y3.400 E0.3363
G0 F2700 X93.000 Y3.000
G0 F9000 X91.307 Y1.227
G0 F9000 X91.100 Y1.010
G0 F9000 X91.000 Y1.000
M204 S1500.00
;TYPE:WALL-OUTER
;WIDTH:2.000
G1 F2700 X109.000 Y1.000 E4.4901
G1 X109.000 Y6.321 E1.3273
;TYPE:WALL-OUTER
;WIDTH:2.000
M106 S255
G1 F1800 X109.000 Y6.748 E0.1065
G1 X91.000 Y6.748 E4.4901
G1 X91.000 Y6.321 E0.1065
;TYPE:WALL-OUTER
;WIDTH:2.000
M106 S0
G1 F2700 X91.000 Y1.400 E1.2275
G0 F2700 X91.000 Y1.000
G1 F2700 E-7.0000
M204 S2000.00
G0 F9000 X91.100 Y1.010
G0 X94.721 Y4.714
G0 F9000 X95.000 Y5.000
;PRINTING_TIME: 20
;REMAINING_TIME: 306
;LAYER:10
;Z:4.840
;HEIGHT:0.424
;HEIGHT-BELT:0.300
;PRINTING: default-box.3mf
;PRINTING_ID: 0
G0 F1200 Z4.840
G0 F9000 X93.000 Y3.000
;TYPE:WALL-INNER
;WIDTH:2.000
G1 F1200 E7.0000
G1 F2700 X107.000 Y3.000 E3.4923
G1 X107.000 Y5.348 E0.5857
G1 X93.000 Y5.348 E3.4923
G1 X93.000 Y3.400 E0.4859
G0 F2700 X93.000 Y3.000
G0 F9000 X91.307 Y1.227
G0 F9000 X91.100 Y1.010
G0 F9000 X91.000 Y1.000
M204 S1500.00
;TYPE:WALL-OUTER
;WIDTH:2.000
G1 F2700 X109.000 Y1.000 E4.4901
G1 X109.000 Y6.921 E1.4770
;TYPE:WALL-OUTER
;WIDTH:2.000
M106 S255
G1 F1800 X109.000 Y7.348 E0.1065
G1 X91.000 Y7.348 E4.4901
G1 X91.000 Y6.921 E0.1065
;TYPE:WALL-OUTER
;WIDTH:2.000
M106 S0
G1 F2700 X91.000 Y1.400 E1.3772
G0 F2700 X91.000 Y1.000
M204 S2000.00
G0 F9000 X91.100 Y1.010
G0 X95.730 Y4.124
G0 F9000 X96.061 Y4.347
M204 S1500.00
;TYPE:SOLID-FILL
;WIDTH:2.000
G1 F3600 X97.649 Y4.173 E0.1223
G1 X100.477 Y4.173 E0.1224
G1 X103.305 Y4.173 E0.1220
G1 X104.894 Y4.000 E0.3987
;PRINTING_TIME: 23
;REMAINING_TIME: 303
;LAYER:11
;Z:5.264
;HEIGHT:0.424
;HEIGHT-BELT:0.300
;PRINTING: default-box.3mf
;PRINTING_ID: 0
M204 S2000.00
G0 F1200 Z5.264
G0 F9000 X93.000 Y3.000
;TYPE:WALL-INNER
;WIDTH:2.000
G1 F2700 X107.000 Y3.000 E3.4923
G1 X107.000 Y5.948 E0.7354
G1 X93.000 Y5.948 E3.4923
G1 X93.000 Y3.400 E0.6356
G0 F2700 X93.000 Y3.000
G0 F9000 X91.307 Y1.227
G0 F9000 X91.100 Y1.010
G0 F9000 X91.000 Y1.000
M204 S1500.00
;TYPE:WALL-OUTER
;WIDTH:2.000
G1 F2700 X109.000 Y1.000 E4.4901
G1 X109.000 Y7.521 E1.6267
;TYPE:WALL-OUTER
;WIDTH:2.000
M106 S255
G1 F1800 X109.000 Y7.948 E0.1065
G1 X91.000 Y7.948 E4.4901
G1 X91.000 Y7.521 E0.1065
;TYPE:WALL-OUTER
;WIDTH:2.000
M106 S0
G1 F2700 X91.000 Y1.400 E1.5269
G0 F2700 X91.000 Y1.000
M204 S2000.00
G0 F9000 X91.100 Y1.010
G0 X95.583 Y3.790
G0 F9000 X95.923 Y4.000
M204 S1500.00
;TYPE:SOLID-FILL
;WIDTH:2.000
G1 F3600 X97.811 Y4.473 E0.3340
G1 X100.639 Y4.473 E0.3337
G1 X103.468 Y4.473 E0.3338
G1 X105.356 Y4.947 E0.4856
;PRINTING_TIME: 26
;REMAINING_TIME: 300
;LAYER:12
;Z:5.688
;HEIGHT:0.424
;HEIGHT-BELT:0.300
;PRINTING: default-box.3mf
;PRINTING_ID: 0
M204 S2000.00
G0 F1200 Z5.688
G0 F9000 X93.000 Y3.000
;TYPE:WALL-INNER
;WIDTH:2.000
G1 F2700 X107.000 Y3.000 E3.4923
G1 X107.000 Y6.548 E0.8851
G1 X93.000 Y6.548 E3.4923
G1 X93.000 Y3.400 E0.7853
G0 F2700 X93.000 Y3.000
G0 F9000 X91.307 Y1.227
G0 F9000 X91.100 Y1.010
G0 F9000 X91.000 Y1.000
M204 S1500.00
;TYPE:WALL-OUTER
;WIDTH:2.000
G1 F2700 X109.000 Y1.000 E4.4901
G1 X109.000 Y8.121 E1.7763
;TYPE:WALL-OUTER
;WIDTH:2.000
M106 S255
G1 F1800 X109.000 Y8.548 E0.1065
G1 X91.000 Y8.548 E4.4901
G1 X91.000 Y8.121 E0.1065
;TYPE:WALL-OUTER
;WIDTH:2.000
M106 S0
G1 F2700 X91.000 Y1.400 E1.6766
G0 F2700 X91.000 Y1.000
M204 S2000.00
G0 F9000 X91.100 Y1.010
G0 X94.606 Y5.240
G0 F9000 X94.861 Y5.547
M204 S1500.00
;TYPE:SOLID-FILL
;WIDTH:2.000
G1 F3600 X97.049 Y4.773 E0.5459
G1 X99.877 Y4.773 E0.5457
G1 X102.705 Y4.773 E0.5453
G1 X104.894 Y4.000 E0.5791
;PRINTING_TIME: 29
;REMAINING_TIME: 297
;LAYER:13
;Z:6.112
;HEIGHT:0.424
;HEIGHT-BELT:0.300
;PRINTING: default-box.3mf
;PRINTING_ID: 0
M204 S2000.00
G0 F1200 Z6.112
G0 F9000 X93.000 Y3.000
;TYPE:WALL-INNER
;WIDTH:2.000
G1 F2700 X107.000 Y3.000 E3.4923
G1 X107.000 Y7.148 E1.0347
G1 X93.000 Y7.148 E3.4923
G1 X93.000 Y3.400 E0.9349
G0 F2700 X93.000 Y3.000
G0 F9000 X91.307 Y1.227
G0 F9000 X91.100 Y1.010
G0 F9000 X91.000 Y1.000
M204 S1500.00
;TYPE:WALL-OUTER
;WIDTH:2.000
G1 F2700 X109.000 Y1.000 E4.4901
G1 X109.000 Y8.721 E1.9260
;TYPE:WALL-OUTER
;WIDTH:2.000
M106 S255
G1 F1800 X109.000 Y9.148 E0.1065
G1 X91.000 Y9.148 E4.4901
G1 X91.000 Y8.721 E0.1065
;TYPE:WALL-OUTER
;WIDTH:2.000
M106 S0
G1 F2700 X91.000 Y1.400 E1.8262
G0 F2700 X91.000 Y1.000
M204 S2000.00
G0 F9000 X91.100 Y1.010
G0 X93.761 Y4.583
G0 F9000 X93.999 Y4.903
M204 S1500.00
;TYPE:SOLID-FILL
;WIDTH:2.000
G1 F3600 X95.583 Y5.073 E0.4387
G1 X98.411 Y5.073 E0.7573
G1 X101.239 Y5.073 E0.7573
G1 X104.068 Y5.073 E0.7576
G1 X105.999 Y5.590 E0.4987
;PRINTING_TIME: 32
;REMAINING_TIME: 294
;LAYER:14
;Z:6.536
;HEIGHT:0.424
;HEIGHT-BELT:0.300
;PRINTING: default-box.3mf
;PRINTING_ID: 0
M204 S2000.00
G0 F1200 Z6.536
G0 F9000 X93.000 Y3.000
;TYPE:WALL-INNER
;WIDTH:2.000
G1 F2700 X107.000 Y3.000 E3.4923
G1 X107.000 Y7.748 E1.1844
G1 X93.000 Y7.748 E3.4923
G1 X93.000 Y3.400 E1.0846
G0 F2700 X93.000 Y3.000
G0 F9000 X91.307 Y1.227
G0 F9000 X91.100 Y1.010
G0 F9000 X91.000 Y1.000
M204 S1500.00
;TYPE:WALL-OUTER
;WIDTH:2.000
G1 F2700 X109.000 Y1.000 E4.4901
G1 X109.000 Y9.321 E2.0757
;TYPE:WALL-OUTER
;WIDTH:2.000
M106 S255
G1 F1800 X109.000 Y9.748 E0.1065
G1 X91.000 Y9.748 E4.4901
G1 X91.000 Y9.321 E0.1065
;TYPE:WALL-OUTER
;WIDTH:2.000
M106 S0
G1 F2700 X91.000 Y1.400 E1.9759
G0 F2700 X91.000 Y1.000
M204 S2000.00
G0 F9000 X91.100 Y1.010
G0 X93.810 Y6.057
G0 F9000 X93.999 Y6.409
M204 S1500.00
;TYPE:SOLID-FILL
;WIDTH:2.000
G1 F3600 X96.449 Y5.373 E0.8497
G1 X99.277 Y5.373 E0.9689
G1 X102.105 Y5.373 E0.9686
G1 X105.446 Y4.862 E0.9692
G1 X104.974 Y6.747 E0.4847
;PRINTING_TIME: 36
;REMAINING_TIME: 291
;LAYER:15
;Z:6.960
;HEIGHT:0.424
;HEIGHT-BELT:0.300
;PRINTING: default-box.3mf
;PRINTING_ID: 0
M204 S2000.00
G0 F1200 Z6.960
G0 F9000 X93.000 Y3.000
;TYPE:WALL-INNER
;WIDTH:2.000
G1 F2700 X107.000 Y3.000 E3.4923
G1 X107.000 Y8.348 E1.3341
G1 X93.000 Y8.348 E3.4923
G1 X93.000 Y3.400 E1.2343
G0 F2700 X93.000 Y3.000
G0 F9000 X91.307 Y1.227
G0 F9000 X91.100 Y1.010
G0 F9000 X91.000 Y1.000
M204 S1500.00
;TYPE:WALL-OUTER
;WIDTH:2.000
G1 F2700 X109.000 Y1.000 E4.4901
G1 X109.000 Y9.921 E2.2254
;TYPE:WALL-OUTER
;WIDTH:2.000
M106 S255
G1 F1800 X109.000 Y10.348 E0.1065
G1 X91.000 Y10.348 E4.4901
G1 X91.000 Y9.921 E0.1065
;TYPE:WALL-OUTER
;WIDTH:2.000
M106 S0
G1 F2700 X91.000 Y1.400 E2.1256
G0 F2700 X91.000 Y1.000
M204 S2000.00
G0 F9000 X91.100 Y1.010
G0 X93.273 Y4.151
G0 F9000 X93.500 Y4.479
;TYPE:FILL
;WIDTH:2.000
G1 F2700 X95.195 Y3.500 E0.4883
G0 F9000 X96.618 Y3.500
G1 F2700 X96.618 Y7.848 E1.0846
G0 F9000 X95.860 Y7.847
G1 F2700 X93.499 Y6.484 E0.6800
;PRINTING_TIME: 39
;REMAINING_TIME: 288
;LAYER:16
;Z:7.384
;HEIGHT:0.424
;HEIGHT-BELT:0.300
;PRINTING: default-box.3mf
;PRINTING_ID: 0
G0 F1200 Z7.384
G0 F9000 X93.000 Y3.000
;TYPE:WALL-INNER
;WIDTH:2.000
G1 F2700 X107.000 Y3.000 E3.4923
G1 X107.000 Y8.948 E1.4837
G1 X93.000 Y8.948 E3.4923
G1 X93.000 Y3.400 E1.3840
G0 F2700 X93.000 Y3.000
G0 F9000 X91.307 Y1.227
G0 F9000 X91.100 Y1.010
G0 F9000 X91.000 Y1.000
M204 S1500.00
;TYPE:WALL-OUTER
;WIDTH:2.000
G1 F2700 X109.000 Y1.000 E4.4901
G1 X109.000 Y10.521 E2.3750
;TYPE:WALL-OUTER
;WIDTH:2.000
M106 S255
G1 F1800 X109.000 Y10.948 E0.1065
G1 X91.000 Y10.948 E4.4901
G1 X91.000 Y10.521 E0.1065
;TYPE:WALL-OUTER
;WIDTH:2.000
M106 S0
G1 F2700 X91.000 Y1.400 E2.2752
G0 F2700 X91.000 Y1.000
M204 S2000.00
G0 F9000 X91.100 Y1.010
G0 X93.261 Y3.914
G0 F9000 X93.499 Y4.234
;TYPE:FILL
;WIDTH:2.000
G1 F2700 X94.771 Y3.499 E0.3665
G0 F9000 X96.830 Y3.500
G1 F2700 X96.830 Y8.448 E1.2343
G0 F9000 X96.476 Y8.448
G1 F2700 X93.498 Y6.729 E0.8577
