;Sliced by ideaMaker 4.3.2.6470, 2023-04-05 14:47:21 UTC-0500
;Dimension: 200.000 9999.000 170.000 1.200
;Plate Shape: 0
;Origin Center: 0
;Belt Printer: 1
;Belt Base Y: 5049.500
;Belt Base Z: 0.000
;Belt Offset Y: 0.000
;Belt Offset Z: 3570.535
;Belt Gantry Angle: 45
;Belt Remove Z: 0.966
;Belt Repetition: 1
;Extruder Offset #1: 25.000 0.000
;Filament Diameter #1: 1.750
;Filament Diameter #2: 1.750
;Filament Compensation #1: 100.00
;Filament Compensation #2: 90.00
;Filament Density #1: 1240.00
;Filament Density #2: 1240.00
;Filament Type #1: PLA
;Filament Type #2: 
;Filament Name #1: [Raise3D] PLA 1.75mm
;Filament Name #2: 
;Firmware: Marlin
;Bounding Box: 90.000 110.000 0.000 28.284 0.800 27.366
;Model Gap: 0.000
;
;
M221 T0 S100.00
M140 S60.00
M104 T0 S200.00
M109 T0 S200.00
T0
M190 S60.00
G90 ; Set to Absolute Positioning
M82 ; Set extruder to absolute mode
G21 ; Metric values
;M808 L ; This is your looping code, any number after the L is the number of repeats, leave blank for infinite loops
M104 T0 S200 ; For some reason ideamaker forces the nozzle to cooldown when the command isnt even in the endgcode, this turns it straight back on after the loop, 245 is the degrees in this case
G28; Home
G92 X0 Y0 Z0 E0 ; zero out all axes (include extruder)
M83 ; set extruder to relative coordinates
G0 Z80 E25 ; extrude short Z line
G92 E0 Z0 ; Set all axis to 0
G0 X215 E40 F800 ; Primeline placed after the loop code so every looped print will get a primeline for better adhesion
G92 E0 Z0
M82
M117 Please stick...
;end of Start GCode
;TOTAL_NUM: 1
;PRINTING_TIME: 0
;REMAINING_TIME: 359
M83
;LAYER:0
;Z:0.800
;HEIGHT:0.800
;HEIGHT-BELT:0.566
;BELT-FIRST-Z:0.800
M106 S0
;PRINTING: default-box.3mf
;PRINTING_ID: 0
G1 F3600 E-7.0000
M204 S2000.00
M205 X5.00 Y5.00
G0 F9000 X90.845 Y0.845
G0 F1200 Z0.800
M204 S1500.00
;TYPE:WALL-OUTER
;WIDTH:1.690
;HEIGHT:0.800
;HEIGHT-BELT:0.566
M106 S255
G1 F1200 E7.0000
G1 F1800 X109.155 Y0.845 E5.1460
G1 X109.155 Y1.487 E0.1804
G1 X90.845 Y1.487 E5.1460
G1 X90.845 Y1.245 E0.0680
G0 F1800 X90.845 Y0.845
M106 S0
;PRINTING_TIME: 3
;REMAINING_TIME: 356
;LAYER:1
;Z:1.366
;HEIGHT:0.566
;HEIGHT-BELT:0.400
;PRINTING: default-box.3mf
;PRINTING_ID: 0
M204 S2000.00
G0 F1200 Z1.366
G0 F9000 X90.845 Y0.845
M204 S1500.00
;TYPE:WALL-OUTER
;WIDTH:1.690
G1 F3150 X109.155 Y0.845 E5.1460
G1 X109.155 Y1.717 E0.2451
;TYPE:WALL-OUTER
;WIDTH:1.690
M106 S255
G1 F1800 X109.155 Y2.287 E0.1602
G1 X90.845 Y2.287 E5.1460
G1 X90.845 Y1.717 E0.1602
;TYPE:WALL-OUTER
;WIDTH:1.690
M106 S0
G1 F3150 X90.845 Y1.245 E0.1327
G0 F3150 X90.845 Y0.845
;PRINTING_TIME: 4
;REMAINING_TIME: 355
;LAYER:2
;Z:1.932
;HEIGHT:0.566
;HEIGHT-BELT:0.400
;PRINTING: default-box.3mf
;PRINTING_ID: 0
M204 S2000.00
G0 F1200 Z1.932
G0 F9000 X90.845 Y0.845
M204 S1500.00
;TYPE:WALL-OUTER
;WIDTH:1.690
G1 F3600 X109.155 Y0.845 E5.1460
G1 X109.155 Y2.517 E0.4699
;TYPE:WALL-OUTER
;WIDTH:1.690
M106 S255
G1 F1800 X109.155 Y3.087 E0.1602
G1 X90.845 Y3.087 E5.1460
G1 X90.845 Y2.517 E0.1602
;TYPE:WALL-OUTER
;WIDTH:1.690
M106 S0
G1 F3600 X90.845 Y1.245 E0.3575
G0 F3600 X90.845 Y0.845
G1 F3600 E-7.0000
M204 S2000.00
G0 F9000 X90.945 Y0.855
G0 X93.323 Y1.574
G0 F9000 X93.705 Y1.689
M204 S1500.00
;TYPE:SOLID-FILL
;WIDTH:1.690
G1 F1200 E7.0000
G1 F3600 X95.176 Y1.965 E0.2193
G1 X97.566 Y1.965 E0.2190
G1 X99.956 Y1.965 E0.2190
G1 X102.346 Y1.965 E0.2190
G1 X104.736 Y1.965 E0.2190
G1 X107.126 Y1.965 E0.2190
G1 X108.309 Y1.953 E0.3325
;PRINTING_TIME: 6
;REMAINING_TIME: 352
;LAYER:3
;Z:2.498
;HEIGHT:0.566
;HEIGHT-BELT:0.400
;PRINTING: default-box.3mf
;PRINTING_ID: 0
G1 F3600 E-7.0000
M204 S2000.00
G0 F1200 Z2.498
G0 F9000 X108.309 Y1.953
G0 X91.244 Y0.873
G0 F9000 X90.945 Y0.855
G0 F9000 X90.845 Y0.845
M204 S1500.00
;TYPE:WALL-OUTER
;WIDTH:1.690
G1 F1200 E7.0000
G1 F3600 X109.155 Y0.845 E5.1460
G1 X109.155 Y3.317 E0.6948
;TYPE:WALL-OUTER
;WIDTH:1.690
M106 S255
G1 F1800 X109.155 Y3.887 E0.1602
G1 X90.845 Y3.887 E5.1460
G1 X90.845 Y3.317 E0.1602
;TYPE:WALL-OUTER
;WIDTH:1.690
M106 S0
G1 F3600 X90.845 Y1.245 E0.5823
G0 F3600 X90.845 Y0.845
G1 F3600 E-7.0000
M204 S2000.00
G0 F9000 X90.945 Y0.855
G0 X92.354 Y1.519
G0 F9000 X92.715 Y1.689
M204 S1500.00
;TYPE:SOLID-FILL
;WIDTH:1.690
G1 F1200 E7.0000
G1 F3600 X92.721 Y2.878 E0.4077
G1 X95.624 Y2.365 E0.5373
G1 X98.014 Y2.365 E0.5374
G1 X100.404 Y2.365 E0.5374
G1 X102.794 Y2.365 E0.5374
G1 X105.184 Y2.365 E0.5374
G1 X107.055 Y1.689 E0.5591
;PRINTING_TIME: 10
;REMAINING_TIME: 349
;LAYER:4
;Z:3.064
;HEIGHT:0.566
;HEIGHT-BELT:0.400
;PRINTING: default-box.3mf
;PRINTING_ID: 0
G1 F3600 E-7.0000
M204 S2000.00
G0 F1200 Z3.064
G0 F9000 X107.055 Y1.689
G0 X91.244 Y0.870
G0 F9000 X90.945 Y0.855
G0 F9000 X90.845 Y0.845
M204 S1500.00
;TYPE:WALL-OUTER
;WIDTH:1.690
G1 F1200 E7.0000
G1 F3600 X109.155 Y0.845 E5.1460
G1 X109.155 Y4.117 E0.9196
;TYPE:WALL-OUTER
;WIDTH:1.690
M106 S255
G1 F1800 X109.155 Y4.687 E0.1602
G1 X90.845 Y4.687 E5.1460
G1 X90.845 Y4.117 E0.1602
;TYPE:WALL-OUTER
;WIDTH:1.690
M106 S0
G1 F3600 X90.845 Y1.245 E0.8072
G0 F3600 X90.845 Y0.845
G1 F3600 E-7.0000
M204 S2000.00
G0 F9000 X90.945 Y0.855
G0 X91.480 Y1.723
G0 F9000 X91.689 Y2.063
M204 S1500.00
;TYPE:SOLID-FILL
;WIDTH:1.690
G1 F1200 E7.0000
G1 F3600 X93.586 Y2.765 E0.7067
G1 X95.976 Y2.765 E0.8549
G1 X98.366 Y2.765 E0.8549
G1 X100.756 Y2.765 E0.8549
G1 X103.146 Y2.765 E0.8549
G1 X105.536 Y2.765 E0.8549
G1 X108.058 Y2.897 E0.8551
G1 X108.045 Y1.689 E0.3395
;PRINTING_TIME: 13
;REMAINING_TIME: 346
;LAYER:5
;Z:3.630
;HEIGHT:0.566
;HEIGHT-BELT:0.400
;PRINTING: default-box.3mf
;PRINTING_ID: 0
G1 F3600 E-7.0000
M204 S2000.00
G0 F1200 Z3.630
G0 F9000 X108.045 Y1.689
G0 X91.244 Y0.869
G0 F9000 X90.945 Y0.855
G0 F9000 X90.845 Y0.845
M204 S1500.00
;TYPE:WALL-OUTER
;WIDTH:1.690
G1 F1200 E7.0000
G1 F3600 X109.155 Y0.845 E5.1460
G1 X109.155 Y4.917 E1.1444
;TYPE:WALL-OUTER
;WIDTH:1.690
M106 S255
G1 F1800 X109.155 Y5.487 E0.1602
G1 X90.845 Y5.487 E5.1460
G1 X90.845 Y4.917 E0.1602
;TYPE:WALL-OUTER
;WIDTH:1.690
M106 S0
G1 F3600 X90.845 Y1.245 E1.0320
G0 F3600 X90.845 Y0.845
G1 F3600 E-7.0000
M204 S2000.00
G0 F9000 X90.945 Y0.855
G0 X91.541 Y2.344
G0 F9000 X91.689 Y2.715
M204 S1500.00
;TYPE:SOLID-FILL
;WIDTH:1.690
G1 F1200 E7.0000
G1 F3600 X92.715 Y1.689 E0.4078
G1 F3600 E-7.0000
M204 S2000.00
G0 F9000 X95.105 Y1.689
M204 S1500.00
G1 F1200 E7.0000
G1 F3600 X92.153 Y4.642 E1.1735
G1 F3600 E-7.0000
M204 S2000.00
G0 F9000 X94.543 Y4.642
M204 S1500.00
G1 F1200 E7.0000
G1 F3600 X97.495 Y1.689 E1.1735
G1 F3600 E-7.0000
M204 S2000.00
G0 F9000 X99.885 Y1.689
M204 S1500.00
G1 F1200 E7.0000
G1 F3600 X96.933 Y4.642 E1.1735
G1 F3600 E-7.0000
M204 S2000.00
G0 F9000 X99.323 Y4.642
M204 S1500.00
G1 F1200 E7.0000
G1 F3600 X102.275 Y1.689 E1.1735
G1 F3600 E-7.0000
M204 S2000.00
G0 F9000 X104.665 Y1.689
M204 S1500.00
G1 F1200 E7.0000
G1 F3600 X101.713 Y4.642 E1.1735
G1 F3600 E-7.0000
M204 S2000.00
G0 F9000 X104.103 Y4.642
M204 S1500.00
G1 F1200 E7.0000
G1 F3600 X107.055 Y1.689 E1.1735
G1 F3600 E-7.0000
M204 S2000.00
G0 F9000 X108.308 Y2.827
M204 S1500.00
G1 F1200 E7.0000
G1 F3600 X106.493 Y4.642 E0.7214
;PRINTING_TIME: 22
;REMAINING_TIME: 337
;LAYER:6
;Z:4.196
;HEIGHT:0.566
;HEIGHT-BELT:0.400
;PRINTING: default-box.3mf
;PRINTING_ID: 0
G1 F3600 E-7.0000
M204 S2000.00
G0 F1200 Z4.196
G0 F9000 X92.535 Y2.535
;TYPE:WALL-INNER
;WIDTH:1.690
G1 F1200 E7.0000
G1 F3600 X107.465 Y2.535 E4.1960
G1 X107.465 Y4.597 E0.5795
G1 X92.535 Y4.597 E4.1960
G1 X92.535 Y2.935 E0.4671
G0 F3600 X92.535 Y2.535
G1 F3600 E-7.0000
G0 F9000 X91.151 Y1.072
G0 F9000 X90.945 Y0.855
G0 F9000 X90.845 Y0.845
M204 S1500.00
;TYPE:WALL-OUTER
;WIDTH:1.690
G1 F1200 E7.0000
G1 F3600 X109.155 Y0.845 E5.1460
G1 X109.155 Y5.717 E1.3693
;TYPE:WALL-OUTER
;WIDTH:1.690
M106 S255
G1 F1800 X109.155 Y6.287 E0.1602
G1 X90.845 Y6.287 E5.1460
G1 X90.845 Y5.717 E0.1602
;TYPE:WALL-OUTER
;WIDTH:1.690
M106 S0
G1 F3600 X90.845 Y1.245 E1.2568
G0 F3600 X90.845 Y0.845
G1 F3600 E-7.0000
M204 S2000.00
G0 F9000 X90.945 Y0.855
G0 X95.048 Y3.182
G0 F9000 X95.395 Y3.379
M204 S1500.00
;TYPE:SOLID-FILL
;WIDTH:1.690
G1 F1200 E7.0000
G1 F3600 X96.776 Y3.565 E0.1478
G1 X99.166 Y3.565 E0.1475
G1 X101.556 Y3.565 E0.1475
G1 X103.946 Y3.565 E0.1475
G1 X105.327 Y3.751 E0.3916
;PRINTING_TIME: 26
;REMAINING_TIME: 333
;LAYER:7
;Z:4.762
;HEIGHT:0.566
;HEIGHT-BELT:0.400
;PRINTING: default-box.3mf
;PRINTING_ID: 0
G1 F3600 E-7.0000
M204 S2000.00
G0 F1200 Z4.762
G0 F9000 X92.535 Y2.535
;TYPE:WALL-INNER
;WIDTH:1.690
G1 F1200 E7.0000
G1 F3600 X107.465 Y2.535 E4.1960
G1 X107.465 Y5.397 E0.8044
G1 X92.535 Y5.397 E4.1960
G1 X92.535 Y2.935 E0.6919
G0 F3600 X92.535 Y2.535
G1 F3600 E-7.0000
G0 F9000 X91.151 Y1.072
G0 F9000 X90.945 Y0.855
G0 F9000 X90.845 Y0.845
M204 S1500.00
;TYPE:WALL-OUTER
;WIDTH:1.690
G1 F1200 E7.0000
G1 F3600 X109.155 Y0.845 E5.1460
G1 X109.155 Y6.517 E1.5941
;TYPE:WALL-OUTER
;WIDTH:1.690
M106 S255
G1 F1800 X109.155 Y7.087 E0.1602
G1 X90.845 Y7.087 E5.1460
G1 X90.845 Y6.517 E0.1602
;TYPE:WALL-OUTER
;WIDTH:1.690
M106 S0
G1 F3600 X90.845 Y1.245 E1.4817
G0 F3600 X90.845 Y0.845
G1 F3600 E-7.0000
M204 S2000.00
G0 F9000 X90.945 Y0.855
G0 X94.351 Y4.269
G0 F9000 X94.633 Y4.552
M204 S1500.00
;TYPE:SOLID-FILL
;WIDTH:1.690
G1 F1200 E7.0000
G1 F3600 X96.414 Y3.965 E0.4659
G1 X98.804 Y3.965 E0.4658
G1 X101.194 Y3.965 E0.4658
G1 X103.584 Y3.965 E0.4658
G1 X105.365 Y3.379 E0.5269
;PRINTING_TIME: 31
;REMAINING_TIME: 328
;LAYER:8
;Z:5.328
;HEIGHT:0.566
;HEIGHT-BELT:0.400
;PRINTING: default-box.3mf
;PRINTING_ID: 0
G1 F3600 E-7.0000
M204 S2000.00
G0 F1200 Z5.328
G0 F9000 X92.535 Y2.535
;TYPE:WALL-INNER
;WIDTH:1.690
G1 F1200 E7.0000
G1 F3600 X107.465 Y2.535 E4.1960
G1 X107.465 Y6.197 E1.0292
G1 X92.535 Y6.197 E4.1960
G1 X92.535 Y2.935 E0.9168
G0 F3600 X92.535 Y2.535
G1 F3600 E-7.0000
G0 F9000 X91.151 Y1.072
G0 F9000 X90.945 Y0.855
G0 F9000 X90.845 Y0.845
M204 S1500.00
;TYPE:WALL-OUTER
;WIDTH:1.690
G1 F1200 E7.0000
G1 F3600 X109.155 Y0.845 E5.1460
G1 X109.155 Y7.317 E1.8189
;TYPE:WALL-OUTER
;WIDTH:1.690
M106 S255
G1 F1800 X109.155 Y7.887 E0.1602
G1 X90.845 Y7.887 E5.1460
G1 X90.845 Y7.317 E0.1602
;TYPE:WALL-OUTER
;WIDTH:1.690
M106 S0
G1 F3600 X90.845 Y1.245 E1.7065
G0 F3600 X90.845 Y0.845
G1 F3600 E-7.0000
M204 S2000.00
G0 F9000 X90.945 Y0.855
G0 X93.122 Y3.447
G0 F9000 X93.379 Y3.753
M204 S1500.00
;TYPE:SOLID-FILL
;WIDTH:1.690
G1 F1200 E7.0000
G1 F3600 X95.186 Y4.365 E0.6352
G1 X97.576 Y4.365 E0.7838
G1 X99.966 Y4.365 E0.7838
G1 X102.356 Y4.365 E0.7838
G1 X104.746 Y4.365 E0.7838
G1 X106.619 Y5.043 E0.5598
;PRINTING_TIME: 36
;REMAINING_TIME: 323
;LAYER:9
;Z:5.894
;HEIGHT:0.566
;HEIGHT-BELT:0.400
;PRINTING: default-box.3mf
;PRINTING_ID: 0
G1 F3600 E-7.0000
M204 S2000.00
G0 F1200 Z5.894
G0 F9000 X92.535 Y2.535
;TYPE:WALL-INNER
;WIDTH:1.690
G1 F1200 E7.0000
G1 F3600 X107.465 Y2.535 E4.1960
G1 X107.465 Y6.997 E1.2540
G1 X92.535 Y6.997 E4.1960
G1 X92.535 Y2.935 E1.1416
G0 F3600 X92.535 Y2.535
G1 F3600 E-7.0000
G0 F9000 X91.151 Y1.072
G0 F9000 X90.945 Y0.855
G0 F9000 X90.845 Y0.845
M204 S1500.00
;TYPE:WALL-OUTER
;WIDTH:1.690
G1 F1200 E7.0000
G1 F3600 X109.155 Y0.845 E5.1460
G1 X109.155 Y8.117 E2.0438
;TYPE:WALL-OUTER
;WIDTH:1.690
M106 S255
G1 F1800 X109.155 Y8.687 E0.1602
G1 X90.845 Y8.687 E5.1460
G1 X90.845 Y8.117 E0.1602
;TYPE:WALL-OUTER
;WIDTH:1.690
M106 S0
G1 F3600 X90.845 Y1.245 E1.9314
G0 F3600 X90.845 Y0.845
G1 F3600 E-7.0000
M204 S2000.00
G0 F9000 X90.945 Y0.855
G0 X96.163 Y5.467
G0 F9000 X96.462 Y5.731
;TYPE:FILL
;WIDTH:1.690
G1 F1200 E7.0000
G1 F3600 X98.388 Y3.805 E0.7655
G1 X104.362 Y3.805 E1.6790
G1 X102.718 Y5.449 E0.6534
G0 F3600 X102.436 Y5.731
;PRINTING_TIME: 40
;REMAINING_TIME: 319
;LAYER:10
;Z:6.460
;HEIGHT:0.566
;HEIGHT-BELT:0.400
;PRINTING: default-box.3mf
;PRINTING_ID: 0
G1 F3600 E-7.0000
G0 F1200 Z6.460
G0 F9000 X92.535 Y2.535
;TYPE:WALL-INNER
;WIDTH:1.690
G1 F1200 E7.0000
G1 F3600 X107.465 Y2.535 E4.1960
G1 X107.465 Y7.797 E1.4789
G1 X92.535 Y7.797 E4.1960
G1 X92.535 Y2.935 E1.3665
G0 F3600 X92.535 Y2.535
G1 F3600 E-7.0000
G0 F9000 X91.151 Y1.072
G0 F9000 X90.945 Y0.855
G0 F9000 X90.845 Y0.845
M204 S1500.00
;TYPE:WALL-OUTER
;WIDTH:1.690
G1 F1200 E7.0000
G1 F3600 X109.155 Y0.845 E5.1460
G1 X109.155 Y8.917 E2.2686
;TYPE:WALL-OUTER
;WIDTH:1.690
M106 S255
G1 F1800 X109.155 Y9.487 E0.1602
G1 X90.845 Y9.487 E5.1460
G1 X90.845 Y8.917 E0.1602
;TYPE:WALL-OUTER
;WIDTH:1.690
M106 S0
G1 F3600 X90.845 Y1.245 E2.1562
G0 F3600 X90.845 Y0.845
G1 F3600 E-7.0000
M204 S2000.00
G0 F9000 X90.945 Y0.855
G0 X95.300 Y3.593
G0 F9000 X95.638 Y3.805
;TYPE:FILL
;WIDTH:1.690
G1 F1200 E7.0000
G1 F3600 X98.363 Y6.530 E1.0831
G1 X104.337 Y6.530 E1.6790
G1 X101.894 Y4.087 E0.9710
G0 F3600 X101.612 Y3.805
;PRINTING_TIME: 45
;REMAINING_TIME: 314
;LAYER:11
;Z:7.026
;HEIGHT:0.566
;HEIGHT-BELT:0.400
;PRINTING: default-box.3mf
;PRINTING_ID: 0
G1 F3600 E-7.0000
G0 F1200 Z7.026
G0 F9000 X92.535 Y2.535
;TYPE:WALL-INNER
;WIDTH:1.690
G1 F1200 E7.0000
G1 F3600 X107.465 Y2.535 E4.1960
G1 X107.465 Y8.597 E1.7037
G1 X92.535 Y8.597 E4.1960
G1 X92.535 Y2.935 E1.5913
G0 F3600 X92.535 Y2.535
G1 F3600 E-7.0000
G0 F9000 X91.151 Y1.072
G0 F9000 X90.945 Y0.855
G0 F9000 X90.845 Y0.845
M204 S1500.00
;TYPE:WALL-OUTER
;WIDTH:1.690
G1 F1200 E7.0000
G1 F3600 X109.155 Y0.845 E5.1460
G1 X109.155 Y9.717 E2.4935
;TYPE:WALL-OUTER
;WIDTH:1.690
M106 S255
G1 F1800 X109.155 Y10.287 E0.1602
G1 X90.845 Y10.287 E5.1460
G1 X90.845 Y9.717 E0.1602
;TYPE:WALL-OUTER
;WIDTH:1.690
M106 S0
G1 F3600 X90.845 Y1.245 E2.3810
G0 F3600 X90.845 Y0.845
G1 F3600 E-7.0000
M204 S2000.00
G0 F9000 X90.945 Y0.855
G0 X94.656 Y6.988
G0 F9000 X94.863 Y7.330
;TYPE:FILL
;WIDTH:1.690
G1 F1200 E7.0000
G1 F3600 X98.388 Y3.805 E1.4011
G1 X104.362 Y3.805 E1.6790
G1 X101.119 Y7.048 E1.2890
G0 F3600 X100.837 Y7.330
;PRINTING_TIME: 50
;REMAINING_TIME: 309
;LAYER:12
;Z:7.592
;HEIGHT:0.566
;HEIGHT-BELT:0.400
;PRINTING: default-box.3mf
;PRINTING_ID: 0
G1 F3600 E-7.0000
G0 F1200 Z7.592
G0 F9000 X92.535 Y2.535
;TYPE:WALL-INNER
;WIDTH:1.690
G1 F1200 E7.0000
G1 F3600 X107.465 Y2.535 E4.1960
G1 X107.465 Y9.397 E1.9286
G1 X92.535 Y9.397 E4.1960
G1 X92.535 Y2.935 E1.8161
G0 F3600 X92.535 Y2.535
G1 F3600 E-7.0000
G0 F9000 X91.151 Y1.072
G0 F9000 X90.945 Y0.855
G0 F9000 X90.845 Y0.845
M204 S1500.00
;TYPE:WALL-OUTER
;WIDTH:1.690
G1 F1200 E7.0000
G1 F3600 X109.155 Y0.845 E5.1460
G1 X109.155 Y10.517 E2.7183
;TYPE:WALL-OUTER
;WIDTH:1.690
M106 S255
G1 F1800 X109.155 Y11.087 E0.1602
G1 X90.845 Y11.087 E5.1460
G1 X90.845 Y10.517 E0.1602
;TYPE:WALL-OUTER
;WIDTH:1.690
M106 S0
G1 F3600 X90.845 Y1.245 E2.6059
G0 F3600 X90.845 Y0.845
G1 F3600 E-7.0000
M204 S2000.00
G0 F9000 X90.945 Y0.855
G0 X93.654 Y7.574
G0 F9000 X93.803 Y7.945
;TYPE:FILL
;WIDTH:1.690
G1 F1200 E7.0000
G1 F3600 X93.803 Y3.805 E1.1635
G1 X95.638 Y3.805 E0.5157
G1 X99.963 Y8.130 E1.7190
G1 X105.937 Y8.130 E1.6790
G1 X101.894 Y4.087 E1.6069
G0 F3600 X101.612 Y3.805
;PRINTING_TIME: 55
;REMAINING_TIME: 304
;LAYER:13
;Z:8.158
;HEIGHT:0.566
;HEIGHT-BELT:0.400
;PRINTING: default-box.3mf
;PRINTING_ID: 0
G1 F3600 E-7.0000
G0 F1200 Z8.158
G0 F9000 X92.535 Y2.535
;TYPE:WALL-INNER
;WIDTH:1.690
G1 F1200 E7.0000
G1 F3600 X107.465 Y2.535 E4.1960
G1 X107.465 Y10.197 E2.1534
G1 X92.535 Y10.197 E4.1960
G1 X92.535 Y2.935 E2.0410
G0 F3600 X92.535 Y2.535
G1 F3600 E-7.0000
G0 F9000 X91.151 Y1.072
G0 F9000 X90.945 Y0.855
G0 F9000 X90.845 Y0.845
M204 S1500.00
;TYPE:WALL-OUTER
;WIDTH:1.690
G1 F1200 E7.0000
G1 F3600 X109.155 Y0.845 E5.1460
G1 X109.155 Y11.317 E2.9431
;TYPE:WALL-OUTER
;WIDTH:1.690
M106 S255
G1 F1800 X109.155 Y11.887 E0.1602
G1 X90.845 Y11.887 E5.1460
G1 X90.845 Y11.317 E0.1602
;TYPE:WALL-OUTER
;WIDTH:1.690
M106 S0
G1 F3600 X90.845 Y1.245 E2.8307
G0 F3600 X90.845 Y0.845
G1 F3600 E-7.0000
M204 S2000.00
G0 F9000 X90.945 Y0.855
G0 X93.663 Y8.016
G0 F9000 X93.804 Y8.389
;TYPE:FILL
;WIDTH:1.690
G1 F1200 E7.0000
G1 F3600 X98.388 Y3.805 E1.8220
G1 X104.362 Y3.805 E1.6790
G1 X99.239 Y8.929 E2.0364
G1 X105.213 Y8.929 E1.6790
G1 X105.914 Y8.228 E0.2786
G0 F3600 X106.196 Y7.946
;PRINTING_TIME: 61
;REMAINING_TIME: 298
;LAYER:14
;Z:8.724
;HEIGHT:0.566
;HEIGHT-BELT:0.400
;PRINTING: default-box.3mf
;PRINTING_ID: 0
G1 F3600 E-7.0000
G0 F1200 Z8.724
