;Sliced by ideaMaker 4.3.2.6470, 2023-04-13 22:28:15 UTC-0500
;Dimension: 200.000 9999.000 170.000 0.800
;Plate Shape: 0
;Origin Center: 0
;Belt Printer: 1
;Belt Base Y: 5608.100
;Belt Base Z: 0.000
;Belt Offset Y: 0.000
;Belt Offset Z: 3965.525
;Belt Gantry Angle: 45
;Belt Remove Z: 0.566
;Belt Repetition: 1
;Extruder Offset #1: 25.000 0.000
;Filament Diameter #1: 1.750
;Filament Diameter #2: 1.750
;Filament Compensation #1: 100.00
;Filament Compensation #2: 90.00
;Filament Density #1: 1240.00
;Filament Density #2: 1240.00
;Filament Type #1: PLA
;Filament Type #2: 
;Filament Name #1: [Raise3D] PLA 1.75mm
;Filament Name #2: 
;Firmware: Marlin
;Bounding Box: 80.030 123.870 -0.020 26.940 0.400 422.166
;Model Gap: 0.000
;
;
M92 E325.00000
M221 T0 S100.00
M140 S60.00
M104 T0 S210.00
M109 T0 S210.00
T0
M190 S60.00
G90 ; Set to Absolute Positioning
M82 ; Set extruder to absolute mode
G21 ; Metric values
;M808 L ; This is your looping code, any number after the L is the number of repeats, leave blank for infinite loops
M104 T0 S210 ; For some reason ideamaker forces the nozzle to cooldown when the command isnt even in the endgcode, this turns it straight back on after the loop, 245 is the degrees in this case
G28; Home
G92 X0 Y0 Z0 E0 ; zero out all axes (include extruder)
M83 ; set extruder to relative coordinates
G0 Z80 E25 ; extrude short Z line
G92 E0 Z0 ; Set all axis to 0
G0 X215 E40 F800 ; Primeline placed after the loop code so every looped print will get a primeline for better adhesion
G92 E0 Z0
M82
M117 Please stick...
;end of Start GCode
;TOTAL_NUM: 8
;PRINTING_TIME: 0
;REMAINING_TIME: 17867
M83
;LAYER:0
;Z:0.800
;HEIGHT:0.800
;HEIGHT-BELT:0.566
;BELT-FIRST-Z:0.800
M106 S255
;PRINTING: penis65.stl
;PRINTING_ID: 7
G1 F1800 E-7.0000
M204 S2000.00
M205 X5.00 Y5.00
G0 F9000 X81.350 Y0.400
G0 F1200 Z0.800
M204 S1500.00
;TYPE:WALL-OUTER
;WIDTH:0.800
;HEIGHT:0.800
;HEIGHT-BELT:0.566
G1 F1200 E7.0000
G1 F1800 X118.650 Y0.400 E4.9624
G1 X118.650 Y1.132 E0.0974
G1 X81.350 Y1.132 E4.9624
G1 X81.350 Y0.800 E0.0442
G0 F1800 X81.350 Y0.400
;PRINTING_TIME: 4
;REMAINING_TIME: 17863
;LAYER:1
;Z:1.366
;HEIGHT:0.566
;HEIGHT-BELT:0.400
;PRINTING: penis65.stl
;PRINTING_ID: 7
M204 S2000.00
G0 F1200 Z1.366
G0 F9000 X81.350 Y0.400
M204 S1500.00
;TYPE:WALL-OUTER
;WIDTH:0.800
G1 F1800 X118.650 Y0.400 E4.9624
G1 X118.650 Y1.362 E0.1280
;TYPE:WALL-OUTER
;WIDTH:0.800
G1 X118.650 Y1.932 E0.0758
G1 X81.350 Y1.932 E4.9624
G1 X81.350 Y1.362 E0.0758
;TYPE:WALL-OUTER
;WIDTH:0.800
G1 X81.350 Y0.800 E0.0748
G0 F1800 X81.350 Y0.400
G1 F1800 E-7.0000
M204 S2000.00
G0 F9000 X81.450 Y0.410
G0 X81.526 Y0.524
G0 F9000 X81.749 Y0.856
M204 S500.00
;TYPE:SOLID-FILL
;WIDTH:0.800
G1 F1200 E7.0000
G1 F2700 X82.624 Y1.165 E0.1270
G1 X83.755 Y1.165 E0.1373
G1 X84.887 Y1.165 E0.1374
G1 X86.018 Y1.165 E0.1373
G1 X87.150 Y1.165 E0.1374
G1 X88.281 Y1.165 E0.1373
G1 X89.412 Y1.165 E0.1373
G1 X90.544 Y1.165 E0.1374
G1 X91.675 Y1.165 E0.1373
G1 X92.806 Y1.165 E0.1373
G1 X93.938 Y1.165 E0.1374
G1 X95.069 Y1.165 E0.1373
G1 X96.201 Y1.165 E0.1374
G1 X97.332 Y1.165 E0.1373
G1 X98.463 Y1.165 E0.1373
G1 X99.595 Y1.165 E0.1374
G1 X100.726 Y1.165 E0.1373
G1 X101.857 Y1.165 E0.1373
G1 X102.989 Y1.165 E0.1374
G1 X104.120 Y1.165 E0.1373
G1 X105.252 Y1.165 E0.1374
G1 X106.383 Y1.165 E0.1373
G1 X107.514 Y1.165 E0.1373
G1 X108.646 Y1.165 E0.1374
G1 X109.777 Y1.165 E0.1373
G1 X110.908 Y1.165 E0.1373
G1 X112.040 Y1.165 E0.1374
G1 X113.171 Y1.165 E0.1373
G1 X114.302 Y1.165 E0.1373
G1 X115.434 Y1.165 E0.1374
G1 X116.565 Y1.165 E0.1373
G1 X117.697 Y1.165 E0.1374
G1 X118.249 Y1.152 E0.0735
;PRINTING_TIME: 8
;REMAINING_TIME: 17858
;LAYER:2
;Z:1.932
;HEIGHT:0.566
;HEIGHT-BELT:0.400
;PRINTING: penis65.stl
;PRINTING_ID: 7
G1 F1800 E-7.0000
M204 S2000.00
G0 F1200 Z1.932
G0 F9000 X82.150 Y1.200
;TYPE:WALL-INNER
;WIDTH:0.800
G1 F1200 E7.0000
G1 F1800 X117.850 Y1.200 E4.7495
G1 X117.850 Y1.932 E0.0974
G1 X82.150 Y1.932 E4.7495
G1 X82.150 Y1.600 E0.0442
G0 F1800 X82.150 Y1.200
G1 F1800 E-7.0000
G0 F9000 X81.649 Y0.634
G0 F9000 X81.450 Y0.410
G0 F9000 X81.350 Y0.400
M204 S1500.00
;TYPE:WALL-OUTER
;WIDTH:0.800
G1 F1200 E7.0000
G1 F1800 X118.650 Y0.400 E4.9624
G1 X118.650 Y2.162 E0.2344
;TYPE:WALL-OUTER
;WIDTH:0.800
G1 X118.650 Y2.732 E0.0758
G1 X81.350 Y2.732 E4.9624
G1 X81.350 Y2.162 E0.0758
;TYPE:WALL-OUTER
;WIDTH:0.800
G1 X81.350 Y0.800 E0.1812
G0 F1800 X81.350 Y0.400
G1 F1800 E-7.0000
M204 S2000.00
G0 F9000 X81.450 Y0.410
G0 X82.676 Y1.709
G0 F9000 X82.950 Y2.000
;PRINTING_TIME: 16
;REMAINING_TIME: 17851
;LAYER:3
;Z:2.498
;HEIGHT:0.566
;HEIGHT-BELT:0.400
;PRINTING: penis65.stl
;PRINTING_ID: 7
G0 F1200 Z2.498
G0 F9000 X82.150 Y1.200
;TYPE:WALL-INNER
;WIDTH:0.800
G1 F1200 E7.0000
G1 F1800 X117.850 Y1.200 E4.7495
G1 X117.850 Y2.732 E0.2038
G1 X82.150 Y2.732 E4.7495
G1 X82.150 Y1.600 E0.1506
G0 F1800 X82.150 Y1.200
G1 F1800 E-7.0000
G0 F9000 X81.649 Y0.634
G0 F9000 X81.450 Y0.410
G0 F9000 X81.350 Y0.400
M204 S1500.00
;TYPE:WALL-OUTER
;WIDTH:0.800
G1 F1200 E7.0000
G1 F1800 X118.650 Y0.400 E4.9624
G1 X118.650 Y2.962 E0.3408
;TYPE:WALL-OUTER
;WIDTH:0.800
G1 X118.650 Y3.532 E0.0758
G1 X81.350 Y3.532 E4.9624
G1 X81.350 Y2.962 E0.0758
;TYPE:WALL-OUTER
;WIDTH:0.800
G1 X81.350 Y0.800 E0.2876
G0 F1800 X81.350 Y0.400
G1 F1800 E-7.0000
M204 S2000.00
G0 F9000 X81.450 Y0.410
G0 X82.285 Y1.356
G0 F9000 X82.549 Y1.656
M204 S1500.00
;TYPE:SOLID-FILL
;WIDTH:0.800
G1 F1200 E7.0000
G1 F3600 X83.424 Y1.966 E0.1272
G1 X84.555 Y1.966 E0.1377
G1 X85.687 Y1.966 E0.1376
G1 X86.818 Y1.966 E0.1377
G1 X87.950 Y1.966 E0.1376
G1 X89.081 Y1.966 E0.1375
G1 X90.212 Y1.966 E0.1377
G1 X91.344 Y1.966 E0.1376
G1 X92.475 Y1.966 E0.1377
G1 X93.606 Y1.966 E0.1377
G1 X94.738 Y1.966 E0.1376
G1 X95.869 Y1.966 E0.1377
G1 X97.001 Y1.966 E0.1376
G1 X98.132 Y1.966 E0.1375
G1 X99.263 Y1.966 E0.1377
G1 X100.395 Y1.966 E0.1376
G1 X101.526 Y1.966 E0.1375
G1 X102.657 Y1.966 E0.1377
G1 X103.789 Y1.966 E0.1376
G1 X104.920 Y1.966 E0.1377
G1 X106.051 Y1.966 E0.1377
G1 X107.183 Y1.966 E0.1376
G1 X108.314 Y1.966 E0.1377
G1 X109.446 Y1.966 E0.1376
G1 X110.577 Y1.966 E0.1375
G1 X111.708 Y1.966 E0.1377
G1 X112.840 Y1.966 E0.1376
G1 X113.971 Y1.966 E0.1377
G1 X115.102 Y1.966 E0.1377
G1 X116.234 Y1.966 E0.1376
G1 X117.166 Y2.332 E0.1332
;PRINTING_TIME: 24
;REMAINING_TIME: 17843
;LAYER:4
;Z:3.064
;HEIGHT:0.566
;HEIGHT-BELT:0.400
;PRINTING: penis65.stl
;PRINTING_ID: 7
G1 F1800 E-7.0000
M204 S2000.00
G0 F1200 Z3.064
G0 F9000 X82.150 Y1.200
;TYPE:WALL-INNER
;WIDTH:0.800
G1 F1200 E7.0000
G1 F1800 X117.850 Y1.200 E4.7495
G1 X117.850 Y3.532 E0.3103
G1 X82.150 Y3.532 E4.7495
G1 X82.150 Y1.600 E0.2570
G0 F1800 X82.150 Y1.200
G1 F1800 E-7.0000
G0 F9000 X81.649 Y0.634
G0 F9000 X81.450 Y0.410
G0 F9000 X81.350 Y0.400
M204 S1500.00
;TYPE:WALL-OUTER
;WIDTH:0.800
G1 F1200 E7.0000
G1 F1800 X118.650 Y0.400 E4.9624
G1 X118.650 Y3.762 E0.4473
;TYPE:WALL-OUTER
;WIDTH:0.800
G1 X118.650 Y4.332 E0.0758
G1 X81.350 Y4.332 E4.9624
G1 X81.350 Y3.762 E0.0758
;TYPE:WALL-OUTER
;WIDTH:0.800
G1 X81.350 Y0.800 E0.3941
G0 F1800 X81.350 Y0.400
G1 F1800 E-7.0000
M204 S2000.00
G0 F9000 X81.450 Y0.410
G0 X82.995 Y1.858
G0 F9000 X83.286 Y2.131
M204 S1500.00
;TYPE:SOLID-FILL
;WIDTH:0.800
G1 F1200 E7.0000
G1 F1800 X82.349 Y3.068 E0.1763
G1 F1800 E-7.0000
M204 S2000.00
G0 F9000 X83.217 Y3.331
M204 S1500.00
G1 F1200 E7.0000
G1 F1800 X84.417 Y2.131 E0.2258
G1 F1800 E-7.0000
M204 S2000.00
G0 F9000 X85.549 Y2.131
M204 S1500.00
G1 F1200 E7.0000
G1 F1800 X84.349 Y3.331 E0.2258
G1 F1800 E-7.0000
M204 S2000.00
G0 F9000 X85.480 Y3.331
M204 S1500.00
G1 F1200 E7.0000
G1 F1800 X86.680 Y2.131 E0.2258
G1 F1800 E-7.0000
M204 S2000.00
G0 F9000 X87.812 Y2.131
M204 S1500.00
G1 F1200 E7.0000
G1 F1800 X86.612 Y3.331 E0.2258
G1 F1800 E-7.0000
M204 S2000.00
G0 F9000 X87.743 Y3.331
M204 S1500.00
G1 F1200 E7.0000
G1 F1800 X88.943 Y2.131 E0.2258
G1 F1800 E-7.0000
M204 S2000.00
G0 F9000 X90.074 Y2.131
M204 S1500.00
G1 F1200 E7.0000
G1 F1800 X88.874 Y3.331 E0.2258
G1 F1800 E-7.0000
M204 S2000.00
G0 F9000 X90.006 Y3.331
M204 S1500.00
G1 F1200 E7.0000
G1 F1800 X91.206 Y2.131 E0.2258
G1 F1800 E-7.0000
M204 S2000.00
G0 F9000 X92.337 Y2.131
M204 S1500.00
G1 F1200 E7.0000
G1 F1800 X91.137 Y3.331 E0.2258
G1 F1800 E-7.0000
M204 S2000.00
G0 F9000 X92.268 Y3.331
M204 S1500.00
G1 F1200 E7.0000
G1 F1800 X93.468 Y2.131 E0.2258
G1 F1800 E-7.0000
M204 S2000.00
G0 F9000 X94.600 Y2.131
M204 S1500.00
G1 F1200 E7.0000
G1 F1800 X93.400 Y3.331 E0.2258
G1 F1800 E-7.0000
M204 S2000.00
G0 F9000 X94.531 Y3.331
M204 S1500.00
G1 F1200 E7.0000
G1 F1800 X95.731 Y2.131 E0.2258
G1 F1800 E-7.0000
M204 S2000.00
G0 F9000 X96.863 Y2.131
M204 S1500.00
G1 F1200 E7.0000
G1 F1800 X95.663 Y3.331 E0.2258
G1 F1800 E-7.0000
M204 S2000.00
G0 F9000 X96.794 Y3.331
M204 S1500.00
G1 F1200 E7.0000
G1 F1800 X97.994 Y2.131 E0.2258
G1 F1800 E-7.0000
M204 S2000.00
G0 F9000 X99.125 Y2.131
M204 S1500.00
G1 F1200 E7.0000
G1 F1800 X97.925 Y3.331 E0.2258
G1 F1800 E-7.0000
M204 S2000.00
G0 F9000 X99.057 Y3.331
M204 S1500.00
G1 F1200 E7.0000
G1 F1800 X100.257 Y2.131 E0.2258
G1 F1800 E-7.0000
M204 S2000.00
G0 F9000 X101.388 Y2.131
M204 S1500.00
G1 F1200 E7.0000
G1 F1800 X100.188 Y3.331 E0.2258
G1 F1800 E-7.0000
M204 S2000.00
G0 F9000 X101.319 Y3.331
M204 S1500.00
G1 F1200 E7.0000
G1 F1800 X102.519 Y2.131 E0.2258
G1 F1800 E-7.0000
M204 S2000.00
G0 F9000 X103.651 Y2.131
M204 S1500.00
G1 F1200 E7.0000
G1 F1800 X102.451 Y3.331 E0.2258
G1 F1800 E-7.0000
M204 S2000.00
G0 F9000 X103.582 Y3.331
M204 S1500.00
G1 F1200 E7.0000
G1 F1800 X104.782 Y2.131 E0.2258
G1 F1800 E-7.0000
M204 S2000.00
G0 F9000 X105.913 Y2.131
M204 S1500.00
G1 F1200 E7.0000
G1 F1800 X104.714 Y3.331 E0.2257
G1 F1800 E-7.0000
M204 S2000.00
G0 F9000 X105.845 Y3.331
M204 S1500.00
G1 F1200 E7.0000
G1 F1800 X107.045 Y2.131 E0.2258
G1 F1800 E-7.0000
M204 S2000.00
G0 F9000 X108.176 Y2.131
M204 S1500.00
G1 F1200 E7.0000
G1 F1800 X106.976 Y3.331 E0.2258
G1 F1800 E-7.0000
M204 S2000.00
G0 F9000 X108.108 Y3.331
M204 S1500.00
G1 F1200 E7.0000
G1 F1800 X109.308 Y2.131 E0.2258
G1 F1800 E-7.0000
M204 S2000.00
G0 F9000 X110.439 Y2.131
M204 S1500.00
G1 F1200 E7.0000
G1 F1800 X109.239 Y3.331 E0.2258
G1 F1800 E-7.0000
M204 S2000.00
G0 F9000 X110.370 Y3.331
M204 S1500.00
G1 F1200 E7.0000
G1 F1800 X111.570 Y2.131 E0.2258
G1 F1800 E-7.0000
M204 S2000.00
G0 F9000 X112.702 Y2.131
M204 S1500.00
G1 F1200 E7.0000
G1 F1800 X111.502 Y3.331 E0.2258
G1 F1800 E-7.0000
M204 S2000.00
G0 F9000 X112.633 Y3.331
M204 S1500.00
G1 F1200 E7.0000
G1 F1800 X113.833 Y2.131 E0.2258
G1 F1800 E-7.0000
M204 S2000.00
G0 F9000 X114.964 Y2.131
M204 S1500.00
G1 F1200 E7.0000
G1 F1800 X113.764 Y3.331 E0.2258
G1 F1800 E-7.0000
M204 S2000.00
G0 F9000 X114.896 Y3.331
M204 S1500.00
G1 F1200 E7.0000
G1 F1800 X116.096 Y2.131 E0.2258
G1 F1800 E-7.0000
M204 S2000.00
G0 F9000 X117.227 Y2.131
M204 S1500.00
G1 F1200 E7.0000
G1 F1800 X116.027 Y3.331 E0.2258
G1 F1800 E-7.0000
M204 S2000.00
G0 F9000 X117.159 Y3.331
M204 S1500.00
G1 F1200 E7.0000
G1 F1800 X117.649 Y2.841 E0.0922
G1 F1800 E-7.0000
M204 S2000.00
G0 F9000 X116.064 Y1.932
;TYPE:FILL
;WIDTH:0.800
G1 F1200 E7.0000
G1 F1800 X116.195 Y1.800 E0.0247
G1 X111.670 Y1.800 E0.6020
G1 X111.538 Y1.932 E0.0248
G1 X107.013 Y1.932 E0.6020
G1 X107.144 Y1.800 E0.0247
G1 X102.619 Y1.800 E0.6020
G1 X102.487 Y1.932 E0.0248
G1 X97.963 Y1.932 E0.6019
G1 X98.094 Y1.800 E0.0247
G1 X93.569 Y1.800 E0.6020
G1 X93.437 Y1.932 E0.0248
G1 X88.912 Y1.932 E0.6020
G1 X89.043 Y1.800 E0.0247
G1 X84.732 Y1.800 E0.5735
G0 F1800 X84.518 Y1.800
G0 F1800 X84.386 Y1.932
;PRINTING_TIME: 57
;REMAINING_TIME: 17810
;LAYER:5
;Z:3.630
;HEIGHT:0.566
;HEIGHT-BELT:0.400
;PRINTING: penis65.stl
;PRINTING_ID: 7
G1 F1800 E-7.0000
G0 F1200 Z3.630
G0 F9000 X82.150 Y1.200
;TYPE:WALL-INNER
;WIDTH:0.800
G1 F1200 E7.0000
G1 F1800 X117.850 Y1.200 E4.7495
G1 X117.850 Y4.332 E0.4167
G1 X82.150 Y4.332 E4.7495
G1 X82.150 Y1.600 E0.3635
G0 F1800 X82.150 Y1.200
G1 F1800 E-7.0000
G0 F9000 X81.649 Y0.634
G0 F9000 X81.450 Y0.410
G0 F9000 X81.350 Y0.400
M204 S1500.00
;TYPE:WALL-OUTER
;WIDTH:0.800
G1 F1200 E7.0000
G1 F1800 X118.650 Y0.400 E4.9624
G1 X118.650 Y4.562 E0.5537
;TYPE:WALL-OUTER
;WIDTH:0.800
G1 X118.650 Y5.132 E0.0758
G1 X81.350 Y5.132 E4.9624
G1 X81.350 Y4.562 E0.0758
;TYPE:WALL-OUTER
;WIDTH:0.800
G1 X81.350 Y0.800 E0.5005
G0 F1800 X81.350 Y0.400
G1 F1800 E-7.0000
M204 S2000.00
G0 F9000 X81.450 Y0.410
G0 X82.245 Y3.333
G0 F9000 X82.349 Y3.719
M204 S1500.00
;TYPE:SOLID-FILL
;WIDTH:0.800
G1 F1200 E7.0000
G1 F1800 X82.761 Y4.131 E0.0775
G1 F1800 E-7.0000
M204 S2000.00
G0 F9000 X83.893 Y4.131
M204 S1500.00
G1 F1200 E7.0000
G1 F1800 X82.694 Y2.932 E0.2256
G1 F1800 E-7.0000
M204 S2000.00
G0 F9000 X83.825 Y2.932
M204 S1500.00
G1 F1200 E7.0000
G1 F1800 X85.024 Y4.131 E0.2256
G1 F1800 E-7.0000
M204 S2000.00
G0 F9000 X86.156 Y4.131
M204 S1500.00
G1 F1200 E7.0000
G1 F1800 X84.956 Y2.932 E0.2257
G1 F1800 E-7.0000
M204 S2000.00
G0 F9000 X86.088 Y2.932
M204 S1500.00
G1 F1200 E7.0000
G1 F1800 X87.287 Y4.131 E0.2256
G1 F1800 E-7.0000
M204 S2000.00
G0 F9000 X88.418 Y4.131
M204 S1500.00
G1 F1200 E7.0000
G1 F1800 X87.219 Y2.932 E0.2256
G1 F1800 E-7.0000
M204 S2000.00
G0 F9000 X88.350 Y2.932
M204 S1500.00
G1 F1200 E7.0000
G1 F1800 X89.550 Y4.131 E0.2257
G1 F1800 E-7.0000
M204 S2000.00
G0 F9000 X90.681 Y4.131
M204 S1500.00
G1 F1200 E7.0000
G1 F1800 X89.482 Y2.932 E0.2256
G1 F1800 E-7.0000
M204 S2000.00
G0 F9000 X90.613 Y2.932
M204 S1500.00
G1 F1200 E7.0000
G1 F1800 X91.812 Y4.131 E0.2256
G1 F1800 E-7.0000
M204 S2000.00
G0 F9000 X92.944 Y4.131
M204 S1500.00
G1 F1200 E7.0000
G1 F1800 X91.744 Y2.932 E0.2257
G1 F1800 E-7.0000
M204 S2000.00
G0 F9000 X92.876 Y2.932
M204 S1500.00
G1 F1200 E7.0000
G1 F1800 X94.075 Y4.131 E0.2256
G1 F1800 E-7.0000
M204 S2000.00
G0 F9000 X95.206 Y4.131
M204 S1500.00
G1 F1200 E7.0000
G1 F1800 X94.007 Y2.932 E0.2256
G1 F1800 E-7.0000
M204 S2000.00
G0 F9000 X95.139 Y2.932
M204 S1500.00
G1 F1200 E7.0000
G1 F1800 X96.338 Y4.131 E0.2256
G1 F1800 E-7.0000
M204 S2000.00
G0 F9000 X97.469 Y4.131
M204 S1500.00
G1 F1200 E7.0000
G1 F1800 X96.270 Y2.932 E0.2256
G1 F1800 E-7.0000
M204 S2000.00
G0 F9000 X97.401 Y2.932
M204 S1500.00
G1 F1200 E7.0000
G1 F1800 X98.601 Y4.131 E0.2257
G1 F1800 E-7.0000
M204 S2000.00
G0 F9000 X99.732 Y4.131
M204 S1500.00
G1 F1200 E7.0000
G1 F1800 X98.533 Y2.932 E0.2256
G1 F1800 E-7.0000
M204 S2000.00
G0 F9000 X99.664 Y2.932
M204 S1500.00
G1 F1200 E7.0000
G1 F1800 X100.863 Y4.131 E0.2256
G1 F1800 E-7.0000
M204 S2000.00
G0 F9000 X101.995 Y4.131
M204 S1500.00
G1 F1200 E7.0000
G1 F1800 X100.795 Y2.932 E0.2257
G1 F1800 E-7.0000
M204 S2000.00
G0 F9000 X101.927 Y2.932
M204 S1500.00
G1 F1200 E7.0000
G1 F1800 X103.126 Y4.131 E0.2256
G1 F1800 E-7.0000
M204 S2000.00
G0 F9000 X104.257 Y4.131
M204 S1500.00
G1 F1200 E7.0000
G1 F1800 X103.058 Y2.932 E0.2256
G1 F1800 E-7.0000
M204 S2000.00
G0 F9000 X104.190 Y2.932
M204 S1500.00
G1 F1200 E7.0000
G1 F1800 X105.389 Y4.131 E0.2256
G1 F1800 E-7.0000
M204 S2000.00
G0 F9000 X106.520 Y4.131
M204 S1500.00
G1 F1200 E7.0000
G1 F1800 X105.321 Y2.932 E0.2256
G1 F1800 E-7.0000
M204 S2000.00
G0 F9000 X106.452 Y2.932
M204 S1500.00
G1 F1200 E7.0000
G1 F1800 X107.652 Y4.131 E0.2257
G1 F1800 E-7.0000
M204 S2000.00
G0 F9000 X108.783 Y4.131
M204 S1500.00
G1 F1200 E7.0000
G1 F1800 X107.584 Y2.932 E0.2256
G1 F1800 E-7.0000
M204 S2000.00
G0 F9000 X108.715 Y2.932
M204 S1500.00
G1 F1200 E7.0000
G1 F1800 X109.914 Y4.131 E0.2256
G1 F1800 E-7.0000
M204 S2000.00
G0 F9000 X111.046 Y4.131
M204 S1500.00
G1 F1200 E7.0000
G1 F1800 X109.846 Y2.932 E0.2257
G1 F1800 E-7.0000
M204 S2000.00
G0 F9000 X110.978 Y2.932
M204 S1500.00
G1 F1200 E7.0000
G1 F1800 X112.177 Y4.131 E0.2256
G1 F1800 E-7.0000
M204 S2000.00
G0 F9000 X113.308 Y4.131
M204 S1500.00
G1 F1200 E7.0000
G1 F1800 X112.109 Y2.932 E0.2256
G1 F1800 E-7.0000
M204 S2000.00
G0 F9000 X113.241 Y2.932
M204 S1500.00
G1 F1200 E7.0000
G1 F1800 X114.440 Y4.131 E0.2256
G1 F1800 E-7.0000
M204 S2000.00
G0 F9000 X115.571 Y4.131
M204 S1500.00
G1 F1200 E7.0000
G1 F1800 X114.372 Y2.932 E0.2256
G1 F1800 E-7.0000
M204 S2000.00
G0 F9000 X115.503 Y2.932
M204 S1500.00
G1 F1200 E7.0000
G1 F1800 X116.703 Y4.131 E0.2257
