;Sliced by ideaMaker 4.3.2.6470, 2023-04-18 23:32:48 UTC-0500
;Dimension: 200.000 9999.000 170.000 0.800
;Plate Shape: 0
;Origin Center: 0
;Belt Printer: 1
;Belt Base Y: 5105.500
;Belt Base Z: 0.000
;Belt Offset Y: 0.000
;Belt Offset Z: 3610.133
;Belt Gantry Angle: 45
;Belt Remove Z: 0.000
;Belt Repetition: 1
;Extruder Offset #1: 25.000 0.000
;Filament Diameter #1: 1.750
;Filament Diameter #2: 1.750
;Filament Compensation #1: 100.00
;Filament Compensation #2: 90.00
;Filament Density #1: 1240.00
;Filament Density #2: 1240.00
;Filament Type #1: PLA
;Filament Type #2: 
;Filament Name #1: [Raise3D] PLA 1.75mm
;Filament Name #2: 
;Firmware: Marlin
;Bounding Box: 64.545 135.455 -0.100 100.000 0.000 120.166
;Model Gap: 0.000
;
;
M92 E203.00000
M221 T0 S100.00
M140 S60.00
M104 T0 S200.00
M109 T0 S200.00
T0
M190 S60.00
G90 ; Set to Absolute Positioning
M82 ; Set extruder to absolute mode
G21 ; Metric values
;M808 L ; This is your looping code, any number after the L is the number of repeats, leave blank for infinite loops
M104 T0 S200 ; For some reason ideamaker forces the nozzle to cooldown when the command isnt even in the endgcode, this turns it straight back on after the loop, 245 is the degrees in this case
G28; Home
G92 X0 Y0 Z0 E0 ; zero out all axes (include extruder)
M83 ; set extruder to relative coordinates
G0 Z80 E25 ; extrude short Z line
G92 E0 Z0 ; Set all axis to 0
G0 X215 E40 F800 ; Primeline placed after the loop code so every looped print will get a primeline for better adhesion
G92 E0 Z0
M82
M117 Please stick...
;end of Start GCode
;TOTAL_NUM: 1
;PRINTING_TIME: 0
;REMAINING_TIME: 2583
M83
;LAYER:0
;Z:0.800
;HEIGHT:0.800
;HEIGHT-BELT:0.566
;BELT-FIRST-Z:0.800
M106 S255
;PRINTING: square_tube.stl
;PRINTING_ID: 0
M204 S2000.00
M205 X5.00 Y5.00
G0 F7200 X64.945 Y0.300
G0 F1200 Z0.800
M204 S1500.00
;TYPE:WALL-OUTER
;WIDTH:0.800
G1 F1800 X135.055 Y0.300 E13.1984
G1 X135.055 Y0.432 E0.0248
G1 X65.213 Y0.432 E13.1479
G0 F1800 X64.945 Y0.432
G0 F1800 X64.945 Y0.300
M204 S2000.00
M204 S1500.00
G1 F1800 X135.055 Y0.300 Z1.082 E6.5759
G1 X135.055 Y0.432 Z1.083 E0.0124
G1 X64.945 Y0.432 Z1.365 E13.1751
G1 X64.945 Y0.300 Z1.366 E0.0248
;PRINTING_TIME: 10
;REMAINING_TIME: 2573
;LAYER:1
;Z:1.366
;HEIGHT:0.566
;HEIGHT-BELT:0.400
;PRINTING: square_tube.stl
;PRINTING_ID: 0
M204 S2000.00
G0 F1200 Z1.366
G0 F7200 X64.945 Y0.300
M204 S1500.00
;TYPE:WALL-OUTER
;WIDTH:0.800
G1 F1800 X134.955 Y0.417 Z1.647 E9.3142
G1 X134.955 Y0.779 Z1.648 E0.0482
G1 X65.045 Y1.127 Z1.929 E9.3010
G1 X65.045 Y0.400 Z1.932 E0.0967
;PRINTING_TIME: 15
;REMAINING_TIME: 2568
;LAYER:2
;Z:1.932
;HEIGHT:0.566
;HEIGHT-BELT:0.400
;PRINTING: square_tube.stl
;PRINTING_ID: 0
M204 S2000.00
G0 F1200 Z1.932
G0 F7200 X65.045 Y0.400
M204 S1500.00
;TYPE:WALL-OUTER
;WIDTH:0.800
G1 F1800 X134.955 Y0.400 Z2.209 E9.3009
G1 X134.955 Y1.532 Z2.214 E0.1506
G1 X65.045 Y1.926 Z2.491 E9.3010
G1 X65.045 Y0.400 Z2.498 E0.2030
;PRINTING_TIME: 20
;REMAINING_TIME: 2564
;LAYER:3
;Z:2.498
;HEIGHT:0.566
;HEIGHT-BELT:0.400
;PRINTING: square_tube.stl
;PRINTING_ID: 0
M204 S2000.00
G0 F1200 Z2.498
G0 F7200 X65.045 Y0.400
M204 S1500.00
;TYPE:WALL-OUTER
;WIDTH:0.800
G1 F1800 X134.955 Y0.400 Z2.772 E9.3009
G1 X134.955 Y2.332 Z2.780 E0.2570
G1 X65.045 Y2.720 Z3.054 E9.3010
G1 X65.045 Y0.400 Z3.064 E0.3087
;PRINTING_TIME: 25
;REMAINING_TIME: 2559
;LAYER:4
;Z:3.064
;HEIGHT:0.566
;HEIGHT-BELT:0.400
;PRINTING: square_tube.stl
;PRINTING_ID: 0
M204 S2000.00
G0 F1200 Z3.064
G0 F7200 X65.045 Y0.400
M204 S1500.00
;TYPE:WALL-OUTER
;WIDTH:0.800
G1 F1800 X134.955 Y0.400 Z3.335 E9.3009
G1 X134.955 Y3.132 Z3.346 E0.3635
G1 X65.045 Y3.510 Z3.617 E9.3010
G1 X65.045 Y0.400 Z3.630 E0.4138
;PRINTING_TIME: 30
;REMAINING_TIME: 2554
;LAYER:5
;Z:3.630
;HEIGHT:0.566
;HEIGHT-BELT:0.400
;PRINTING: square_tube.stl
;PRINTING_ID: 0
M204 S2000.00
G0 F1200 Z3.630
G0 F7200 X65.045 Y0.400
M204 S1500.00
;TYPE:WALL-OUTER
;WIDTH:0.800
G1 F1800 X134.955 Y0.400 Z3.898 E9.3009
G1 X134.955 Y3.929 Z3.912 E0.4695
G1 X65.045 Y4.310 Z4.180 E9.3010
G1 X65.045 Y0.400 Z4.196 E0.5202
;PRINTING_TIME: 35
;REMAINING_TIME: 2549
;LAYER:6
;Z:4.196
;HEIGHT:0.566
;HEIGHT-BELT:0.400
;PRINTING: square_tube.stl
;PRINTING_ID: 0
M204 S2000.00
G0 F1200 Z4.196
G0 F7200 X65.045 Y0.400
M204 S1500.00
;TYPE:WALL-OUTER
;WIDTH:0.800
G1 F1800 X134.955 Y0.400 Z4.461 E9.3009
G1 X134.955 Y4.729 Z4.478 E0.5759
G1 X65.045 Y5.105 Z4.744 E9.3010
G1 X65.045 Y0.400 Z4.762 E0.6260
;PRINTING_TIME: 40
;REMAINING_TIME: 2544
;LAYER:7
;Z:4.762
;HEIGHT:0.566
;HEIGHT-BELT:0.400
;PRINTING: square_tube.stl
;PRINTING_ID: 0
M204 S2000.00
G0 F1200 Z4.762
G0 F7200 X65.045 Y0.400
M204 S1500.00
;TYPE:WALL-OUTER
;WIDTH:0.800
G1 F1800 X134.955 Y0.400 Z5.024 E9.3009
G1 X134.955 Y5.532 Z5.044 E0.6828
G1 X65.045 Y5.905 Z5.307 E9.3010
G1 X65.045 Y0.400 Z5.328 E0.7324
;PRINTING_TIME: 45
;REMAINING_TIME: 2539
;LAYER:8
;Z:5.328
;HEIGHT:0.566
;HEIGHT-BELT:0.400
;PRINTING: square_tube.stl
;PRINTING_ID: 0
M204 S2000.00
G0 F1200 Z5.328
G0 F7200 X65.045 Y0.400
M204 S1500.00
;TYPE:WALL-OUTER
;WIDTH:0.800
G1 F1800 X134.955 Y0.400 Z5.588 E9.3009
G1 X134.955 Y6.332 Z5.610 E0.7892
G1 X65.045 Y6.700 Z5.870 E9.3010
G1 X65.045 Y0.400 Z5.894 E0.8382
;PRINTING_TIME: 50
;REMAINING_TIME: 2534
;LAYER:9
;Z:5.894
;HEIGHT:0.566
;HEIGHT-BELT:0.400
;PRINTING: square_tube.stl
;PRINTING_ID: 0
M204 S2000.00
G0 F1200 Z5.894
G0 F7200 X65.045 Y0.400
M204 S1500.00
;TYPE:WALL-OUTER
;WIDTH:0.800
G1 F1800 X134.955 Y0.400 Z6.151 E9.3009
G1 X134.955 Y7.132 Z6.176 E0.8956
G1 X65.045 Y7.490 Z6.433 E9.3010
G1 X65.045 Y0.400 Z6.460 E0.9433
;PRINTING_TIME: 55
;REMAINING_TIME: 2528
;LAYER:10
;Z:6.460
;HEIGHT:0.566
;HEIGHT-BELT:0.400
;PRINTING: square_tube.stl
;PRINTING_ID: 0
M204 S2000.00
G0 F1200 Z6.460
G0 F7200 X65.045 Y0.400
M204 S1500.00
;TYPE:WALL-OUTER
;WIDTH:0.800
G1 F1800 X134.955 Y0.400 Z6.714 E9.3009
G1 X134.955 Y7.929 Z6.742 E1.0017
G1 X65.045 Y8.290 Z6.997 E9.3010
G1 X65.045 Y0.400 Z7.026 E1.0497
;PRINTING_TIME: 60
;REMAINING_TIME: 2523
;LAYER:11
;Z:7.026
;HEIGHT:0.566
;HEIGHT-BELT:0.400
;PRINTING: square_tube.stl
;PRINTING_ID: 0
M204 S2000.00
G0 F1200 Z7.026
G0 F7200 X65.045 Y0.400
M204 S1500.00
;TYPE:WALL-OUTER
;WIDTH:0.800
G1 F1800 X134.955 Y0.400 Z7.278 E9.3009
G1 X134.955 Y8.729 Z7.308 E1.1081
G1 X65.045 Y9.086 Z7.560 E9.3010
G1 X65.045 Y0.400 Z7.592 E1.1556
;PRINTING_TIME: 66
;REMAINING_TIME: 2518
;LAYER:12
;Z:7.592
;HEIGHT:0.566
;HEIGHT-BELT:0.400
;PRINTING: square_tube.stl
;PRINTING_ID: 0
M204 S2000.00
G0 F1200 Z7.592
G0 F7200 X65.045 Y0.400
M204 S1500.00
;TYPE:WALL-OUTER
;WIDTH:0.800
G1 F1800 X134.955 Y0.400 Z7.841 E9.3009
G1 X134.955 Y9.532 Z7.874 E1.2149
G1 X65.045 Y9.886 Z8.124 E9.3010
G1 X65.045 Y0.400 Z8.158 E1.2620
;PRINTING_TIME: 71
;REMAINING_TIME: 2513
;LAYER:13
;Z:8.158
;HEIGHT:0.566
;HEIGHT-BELT:0.400
;PRINTING: square_tube.stl
;PRINTING_ID: 0
M204 S2000.00
G0 F1200 Z8.158
G0 F7200 X65.045 Y0.400
M204 S1500.00
;TYPE:WALL-OUTER
;WIDTH:0.800
G1 F1800 X134.955 Y0.400 Z8.405 E9.3009
G1 X134.955 Y10.332 Z8.440 E1.3214
G1 X65.045 Y10.682 Z8.687 E9.3010
G1 X65.045 Y0.400 Z8.724 E1.3679
;PRINTING_TIME: 76
;REMAINING_TIME: 2507
;LAYER:14
;Z:8.724
;HEIGHT:0.566
;HEIGHT-BELT:0.400
;PRINTING: square_tube.stl
;PRINTING_ID: 0
M204 S2000.00
G0 F1200 Z8.724
G0 F7200 X65.045 Y0.400
M204 S1500.00
;TYPE:WALL-OUTER
;WIDTH:0.800
G1 F1800 X134.955 Y0.400 Z8.968 E9.3009
G1 X134.955 Y11.132 Z9.006 E1.4278
G1 X65.045 Y11.472 Z9.251 E9.3010
G1 X65.045 Y0.400 Z9.290 E1.4730
;PRINTING_TIME: 82
;REMAINING_TIME: 2502
;LAYER:15
;Z:9.290
;HEIGHT:0.566
;HEIGHT-BELT:0.400
;PRINTING: square_tube.stl
;PRINTING_ID: 0
M204 S2000.00
G0 F1200 Z9.290
G0 F7200 X65.045 Y0.400
M204 S1500.00
;TYPE:WALL-OUTER
;WIDTH:0.800
G1 F1800 X134.955 Y0.400 Z9.532 E9.3009
G1 X134.955 Y11.929 Z9.572 E1.5338
G1 X65.045 Y12.273 Z9.814 E9.3010
G1 X65.045 Y0.400 Z9.856 E1.5796
;PRINTING_TIME: 87
;REMAINING_TIME: 2496
;LAYER:16
;Z:9.856
;HEIGHT:0.566
;HEIGHT-BELT:0.400
;PRINTING: square_tube.stl
;PRINTING_ID: 0
M204 S2000.00
G0 F1200 Z9.856
G0 F7200 X65.045 Y0.400
M204 S1500.00
;TYPE:WALL-OUTER
;WIDTH:0.800
G1 F1800 X134.955 Y0.400 Z10.096 E9.3009
G1 X134.955 Y12.729 Z10.138 E1.6403
G1 X65.045 Y13.068 Z10.378 E9.3010
G1 X65.045 Y0.400 Z10.422 E1.6854
;PRINTING_TIME: 93
;REMAINING_TIME: 2491
;LAYER:17
;Z:10.422
;HEIGHT:0.566
;HEIGHT-BELT:0.400
;PRINTING: square_tube.stl
;PRINTING_ID: 0
M204 S2000.00
G0 F1200 Z10.422
G0 F7200 X65.045 Y0.400
M204 S1500.00
;TYPE:WALL-OUTER
;WIDTH:0.800
G1 F1800 X134.955 Y0.400 Z10.659 E9.3009
G1 X134.955 Y13.532 Z10.704 E1.7471
G1 X65.045 Y13.869 Z10.942 E9.3010
G1 X65.045 Y0.400 Z10.988 E1.7919
;PRINTING_TIME: 98
;REMAINING_TIME: 2485
;LAYER:18
;Z:10.988
;HEIGHT:0.566
;HEIGHT-BELT:0.400
;PRINTING: square_tube.stl
;PRINTING_ID: 0
M204 S2000.00
G0 F1200 Z10.988
G0 F7200 X65.045 Y0.400
M204 S1500.00
;TYPE:WALL-OUTER
;WIDTH:0.800
G1 F1800 X134.955 Y0.400 Z11.223 E9.3009
G1 X134.955 Y14.332 Z11.270 E1.8535
G1 X65.045 Y14.665 Z11.505 E9.3010
G1 X65.045 Y0.400 Z11.554 E1.8978
;PRINTING_TIME: 104
;REMAINING_TIME: 2479
;LAYER:19
;Z:11.554
;HEIGHT:0.566
;HEIGHT-BELT:0.400
;PRINTING: square_tube.stl
;PRINTING_ID: 0
M204 S2000.00
G0 F1200 Z11.554
G0 F7200 X65.045 Y0.400
M204 S1500.00
;TYPE:WALL-OUTER
;WIDTH:0.800
G1 F1800 X134.955 Y0.400 Z11.787 E9.3009
G1 X134.955 Y15.132 Z11.836 E1.9600
G1 X65.045 Y15.456 Z12.069 E9.3010
G1 X65.045 Y0.400 Z12.120 E2.0031
;PRINTING_TIME: 110
;REMAINING_TIME: 2474
;LAYER:20
;Z:12.120
;HEIGHT:0.566
;HEIGHT-BELT:0.400
;PRINTING: square_tube.stl
;PRINTING_ID: 0
M204 S2000.00
G0 F1200 Z12.120
G0 F7200 X65.045 Y0.400
M204 S1500.00
;TYPE:WALL-OUTER
;WIDTH:0.800
G1 F1800 X134.955 Y0.400 Z12.351 E9.3009
G1 X134.955 Y15.929 Z12.402 E2.0660
G1 X65.045 Y16.257 Z12.633 E9.3010
G1 X65.045 Y0.400 Z12.686 E2.1096
;PRINTING_TIME: 116
;REMAINING_TIME: 2468
;LAYER:21
;Z:12.686
;HEIGHT:0.566
;HEIGHT-BELT:0.400
;PRINTING: square_tube.stl
;PRINTING_ID: 0
M204 S2000.00
G0 F1200 Z12.686
G0 F7200 X65.045 Y0.400
M204 S1500.00
;TYPE:WALL-OUTER
;WIDTH:0.800
G1 F1800 X134.955 Y0.400 Z12.914 E9.3009
G1 X134.955 Y16.729 Z12.968 E2.1724
G1 X65.045 Y17.053 Z13.197 E9.3010
G1 X65.045 Y0.400 Z13.252 E2.2155
;PRINTING_TIME: 121
;REMAINING_TIME: 2462
;LAYER:22
;Z:13.252
;HEIGHT:0.566
;HEIGHT-BELT:0.400
;PRINTING: square_tube.stl
;PRINTING_ID: 0
M204 S2000.00
G0 F1200 Z13.252
G0 F7200 X65.045 Y0.400
M204 S1500.00
;TYPE:WALL-OUTER
;WIDTH:0.800
G1 F1800 X134.955 Y0.400 Z13.478 E9.3009
G1 X134.955 Y17.532 Z13.534 E2.2793
G1 X65.045 Y17.853 Z13.761 E9.3010
G1 X65.045 Y0.400 Z13.818 E2.3220
;PRINTING_TIME: 127
;REMAINING_TIME: 2456
;LAYER:23
;Z:13.818
;HEIGHT:0.566
;HEIGHT-BELT:0.400
;PRINTING: square_tube.stl
;PRINTING_ID: 0
M204 S2000.00
G0 F1200 Z13.818
G0 F7200 X65.045 Y0.400
M204 S1500.00
;TYPE:WALL-OUTER
;WIDTH:0.800
G1 F1800 X134.955 Y0.400 Z14.042 E9.3009
G1 X134.955 Y18.332 Z14.100 E2.3857
G1 X65.045 Y18.650 Z14.325 E9.3010
G1 X65.045 Y0.400 Z14.384 E2.4280
;PRINTING_TIME: 133
;REMAINING_TIME: 2450
;LAYER:24
;Z:14.384
;HEIGHT:0.566
;HEIGHT-BELT:0.400
;PRINTING: square_tube.stl
;PRINTING_ID: 0
M204 S2000.00
G0 F1200 Z14.384
G0 F7200 X65.045 Y0.400
M204 S1500.00
;TYPE:WALL-OUTER
;WIDTH:0.800
G1 F1800 X134.955 Y0.400 Z14.606 E9.3009
G1 X134.955 Y19.132 Z14.666 E2.4921
G1 X65.045 Y19.442 Z14.889 E9.3010
G1 X65.045 Y0.400 Z14.950 E2.5334
;PRINTING_TIME: 139
;REMAINING_TIME: 2444
;LAYER:25
;Z:14.950
;HEIGHT:0.566
;HEIGHT-BELT:0.400
;PRINTING: square_tube.stl
;PRINTING_ID: 0
M204 S2000.00
G0 F1200 Z14.950
G0 F7200 X65.045 Y0.400
M204 S1500.00
;TYPE:WALL-OUTER
;WIDTH:0.800
G1 F1800 X134.955 Y0.400 Z15.170 E9.3009
G1 X134.955 Y19.929 Z15.232 E2.5981
G1 X65.045 Y20.242 Z15.453 E9.3010
G1 X65.045 Y0.400 Z15.516 E2.6398
;PRINTING_TIME: 145
;REMAINING_TIME: 2438
;LAYER:26
;Z:15.516
;HEIGHT:0.566
;HEIGHT-BELT:0.400
;PRINTING: square_tube.stl
;PRINTING_ID: 0
M204 S2000.00
G0 F1200 Z15.516
G0 F7200 X65.045 Y0.400
M204 S1500.00
;TYPE:WALL-OUTER
;WIDTH:0.800
G1 F1800 X134.955 Y0.400 Z15.734 E9.3009
G1 X134.955 Y20.729 Z15.798 E2.7046
G1 X65.045 Y21.039 Z16.017 E9.3010
G1 X65.045 Y0.400 Z16.082 E2.7458
;PRINTING_TIME: 151
;REMAINING_TIME: 2432
;LAYER:27
;Z:16.082
;HEIGHT:0.566
;HEIGHT-BELT:0.400
;PRINTING: square_tube.stl
;PRINTING_ID: 0
M204 S2000.00
G0 F1200 Z16.082
G0 F7200 X65.045 Y0.400
M204 S1500.00
;TYPE:WALL-OUTER
;WIDTH:0.800
G1 F1800 X134.955 Y0.400 Z16.298 E9.3009
G1 X134.955 Y21.532 Z16.364 E2.8114
G1 X65.045 Y21.839 Z16.581 E9.3010
G1 X65.045 Y0.400 Z16.648 E2.8523
;PRINTING_TIME: 158
;REMAINING_TIME: 2426
;LAYER:28
;Z:16.648
;HEIGHT:0.566
;HEIGHT-BELT:0.400
;PRINTING: square_tube.stl
;PRINTING_ID: 0
M204 S2000.00
G0 F1200 Z16.648
G0 F7200 X65.045 Y0.400
M204 S1500.00
;TYPE:WALL-OUTER
;WIDTH:0.800
G1 F1800 X134.955 Y0.400 Z16.863 E9.3009
G1 X134.955 Y22.332 Z16.930 E2.9178
G1 X65.045 Y22.636 Z17.145 E9.3010
G1 X65.045 Y0.400 Z17.214 E2.9583
;PRINTING_TIME: 164
;REMAINING_TIME: 2420
;LAYER:29
;Z:17.214
;HEIGHT:0.566
;HEIGHT-BELT:0.400
;PRINTING: square_tube.stl
;PRINTING_ID: 0
M204 S2000.00
G0 F1200 Z17.214
G0 F7200 X65.045 Y0.400
M204 S1500.00
;TYPE:WALL-OUTER
;WIDTH:0.800
G1 F1800 X134.955 Y0.400 Z17.427 E9.3009
G1 X134.955 Y23.132 Z17.496 E3.0243
G1 X65.045 Y23.428 Z17.709 E9.3009
G1 X65.045 Y0.400 Z17.780 E3.0637
;PRINTING_TIME: 170
;REMAINING_TIME: 2414
;LAYER:30
;Z:17.780
;HEIGHT:0.566
;HEIGHT-BELT:0.400
;PRINTING: square_tube.stl
;PRINTING_ID: 0
M204 S2000.00
G0 F1200 Z17.780
G0 F7200 X65.045 Y0.400
M204 S1500.00
;TYPE:WALL-OUTER
;WIDTH:0.800
G1 F1800 X134.955 Y0.400 Z17.991 E9.3009
G1 X134.955 Y23.929 Z18.062 E3.1303
G1 X65.045 Y24.229 Z18.273 E9.3009
G1 X65.045 Y0.400 Z18.346 E3.1702
;PRINTING_TIME: 176
;REMAINING_TIME: 2407
;LAYER:31
;Z:18.346
;HEIGHT:0.566
;HEIGHT-BELT:0.400
;PRINTING: square_tube.stl
;PRINTING_ID: 0
M204 S2000.00
G0 F1200 Z18.346
G0 F7200 X65.045 Y0.400
M204 S1500.00
;TYPE:WALL-OUTER
;WIDTH:0.800
G1 F1800 X134.955 Y0.400 Z18.555 E9.3009
G1 X134.955 Y24.729 Z18.628 E3.2367
G1 X65.045 Y25.026 Z18.838 E9.3009
G1 X65.045 Y0.400 Z18.912 E3.2763
;PRINTING_TIME: 183
;REMAINING_TIME: 2401
;LAYER:32
;Z:18.912
;HEIGHT:0.566
;HEIGHT-BELT:0.400
;PRINTING: square_tube.stl
;PRINTING_ID: 0
M204 S2000.00
G0 F1200 Z18.912
G0 F7200 X65.045 Y0.400
M204 S1500.00
;TYPE:WALL-OUTER
;WIDTH:0.800
G1 F1800 X134.955 Y0.400 Z19.119 E9.3009
G1 X134.955 Y25.532 Z19.194 E3.3436
G1 X65.045 Y25.826 Z19.402 E9.3009
G1 X65.045 Y0.400 Z19.478 E3.3827
;PRINTING_TIME: 189
;REMAINING_TIME: 2394
;LAYER:33
;Z:19.478
;HEIGHT:0.566
;HEIGHT-BELT:0.400
;PRINTING: square_tube.stl
;PRINTING_ID: 0
M204 S2000.00
G0 F1200 Z19.478
G0 F7200 X65.045 Y0.400
M204 S1500.00
;TYPE:WALL-OUTER
;WIDTH:0.800
G1 F1800 X134.955 Y0.400 Z19.684 E9.3009
G1 X134.955 Y26.332 Z19.760 E3.4500
G1 X65.045 Y26.623 Z19.966 E9.3009
G1 X65.045 Y0.400 Z20.044 E3.4887
;PRINTING_TIME: 195
;REMAINING_TIME: 2388
;LAYER:34
;Z:20.044
;HEIGHT:0.566
;HEIGHT-BELT:0.400
;PRINTING: square_tube.stl
;PRINTING_ID: 0
M204 S2000.00
G0 F1200 Z20.044
G0 F7200 X65.045 Y0.400
M204 S1500.00
;TYPE:WALL-OUTER
;WIDTH:0.800
G1 F1800 X134.955 Y0.400 Z20.248 E9.3009
G1 X134.955 Y27.132 Z20.326 E3.5564
G1 X65.045 Y27.416 Z20.531 E9.3009
G1 X65.045 Y0.400 Z20.610 E3.5942
;PRINTING_TIME: 202
;REMAINING_TIME: 2381
;LAYER:35
;Z:20.610
;HEIGHT:0.566
;HEIGHT-BELT:0.400
;PRINTING: square_tube.stl
;PRINTING_ID: 0
M204 S2000.00
G0 F1200 Z20.610
G0 F7200 X65.045 Y0.400
M204 S1500.00
;TYPE:WALL-OUTER
;WIDTH:0.800
G1 F1800 X134.955 Y0.400 Z20.812 E9.3009
G1 X134.955 Y27.929 Z20.892 E3.6625
G1 X65.045 Y28.217 Z21.095 E9.3009
G1 X65.045 Y0.400 Z21.176 E3.7008
;PRINTING_TIME: 209
;REMAINING_TIME: 2375
;LAYER:36
;Z:21.176
;HEIGHT:0.566
;HEIGHT-BELT:0.400
;PRINTING: square_tube.stl
;PRINTING_ID: 0
M204 S2000.00
G0 F1200 Z21.176
G0 F7200 X65.045 Y0.400
M204 S1500.00
;TYPE:WALL-OUTER
;WIDTH:0.800
G1 F1800 X134.955 Y0.400 Z21.377 E9.3009
G1 X134.955 Y28.729 Z21.458 E3.7689
G1 X65.045 Y29.014 Z21.659 E9.3009
G1 X65.045 Y0.400 Z21.742 E3.8068
;PRINTING_TIME: 215
;REMAINING_TIME: 2368
;LAYER:37
;Z:21.742
;HEIGHT:0.566
;HEIGHT-BELT:0.400
;PRINTING: square_tube.stl
;PRINTING_ID: 0
M204 S2000.00
G0 F1200 Z21.742
