;Sliced by ideaMaker 4.3.2.6470, 2023-04-18 10:49:51 UTC-0500
;Dimension: 200.000 9999.000 170.000 0.800
;Plate Shape: 0
;Origin Center: 0
;Belt Printer: 1
;Belt Base Y: 5131.100
;Belt Base Z: 0.000
;Belt Offset Y: 0.000
;Belt Offset Z: 3628.235
;Belt Gantry Angle: 45
;Belt Remove Z: 0.000
;Belt Repetition: 1
;Extruder Offset #1: 25.000 0.000
;Filament Diameter #1: 1.750
;Filament Diameter #2: 1.750
;Filament Compensation #1: 100.00
;Filament Compensation #2: 90.00
;Filament Density #1: 1240.00
;Filament Density #2: 1240.00
;Filament Type #1: PLA
;Filament Type #2: 
;Filament Name #1: [Raise3D] PLA 1.75mm
;Filament Name #2: 
;Firmware: Marlin
;Bounding Box: 90.375 109.625 -0.100 18.384 0.000 80.566
;Model Gap: 0.000
;
;
M92 E203.00000
M221 T0 S100.00
M140 S60.00
M104 T0 S200.00
M109 T0 S200.00
T0
M190 S60.00
G90 ; Set to Absolute Positioning
M82 ; Set extruder to absolute mode
G21 ; Metric values
;M808 L ; This is your looping code, any number after the L is the number of repeats, leave blank for infinite loops
M104 T0 S200 ; For some reason ideamaker forces the nozzle to cooldown when the command isnt even in the endgcode, this turns it straight back on after the loop, 245 is the degrees in this case
G28; Home
G92 X0 Y0 Z0 E0 ; zero out all axes (include extruder)
M83 ; set extruder to relative coordinates
G0 Z80 E25 ; extrude short Z line
G92 E0 Z0 ; Set all axis to 0
G0 X215 E40 F800 ; Primeline placed after the loop code so every looped print will get a primeline for better adhesion
G92 E0 Z0
M82
M117 Please stick...
;end of Start GCode
;TOTAL_NUM: 1
;PRINTING_TIME: 0
;REMAINING_TIME: 1210
M83
;LAYER:0
;Z:0.800
;HEIGHT:0.800
;HEIGHT-BELT:0.566
;BELT-FIRST-Z:0.800
M106 S255
;PRINTING: little_table-wedgeWedge.stl
;PRINTING_ID: 0
M204 S2000.00
M205 X5.00 Y5.00
G0 F7200 X90.775 Y0.300
G0 F1200 Z0.800
M204 S1500.00
;TYPE:WALL-OUTER
;WIDTH:0.800
G1 F1800 X109.225 Y0.300 E3.4733
G1 X109.225 Y0.432 E0.0248
G1 X91.043 Y0.432 E3.4228
G0 F1800 X90.775 Y0.432
G0 F1800 X90.775 Y0.300
;PRINTING_TIME: 2
;REMAINING_TIME: 1207
;LAYER:1
;Z:1.366
;HEIGHT:0.566
;HEIGHT-BELT:0.400
;PRINTING: little_table-wedgeWedge.stl
;PRINTING_ID: 0
M204 S2000.00
G0 F1200 Z1.366
G0 F7200 X90.875 Y0.400
M204 S1500.00
;TYPE:WALL-OUTER
;WIDTH:0.800
G1 F1800 X109.125 Y0.400 E2.4280
;TYPE:WALL-OUTER
;WIDTH:0.800
G1 X109.125 Y1.132 E0.0974
G1 X90.875 Y1.132 E2.4280
G1 X90.875 Y0.800 E0.0442
G0 F1800 X90.875 Y0.662
G0 F1800 X90.875 Y0.400
;PRINTING_TIME: 4
;REMAINING_TIME: 1206
;LAYER:2
;Z:1.932
;HEIGHT:0.566
;HEIGHT-BELT:0.400
;PRINTING: little_table-wedgeWedge.stl
;PRINTING_ID: 0
M204 S2000.00
G0 F1200 Z1.932
G0 F7200 X90.875 Y0.400
M204 S1500.00
;TYPE:WALL-OUTER
;WIDTH:0.800
G1 F1800 X109.125 Y0.400 E2.4280
G1 X109.125 Y1.362 E0.1280
;TYPE:WALL-OUTER
;WIDTH:0.800
G1 X109.125 Y1.932 E0.0758
G1 X90.875 Y1.932 E2.4280
G1 X90.875 Y1.362 E0.0758
;TYPE:WALL-OUTER
;WIDTH:0.800
G1 X90.875 Y0.800 E0.0748
G0 F1800 X90.875 Y0.400
;PRINTING_TIME: 5
;REMAINING_TIME: 1204
;LAYER:3
;Z:2.498
;HEIGHT:0.566
;HEIGHT-BELT:0.400
;PRINTING: little_table-wedgeWedge.stl
;PRINTING_ID: 0
M204 S2000.00
G0 F1200 Z2.498
G0 F7200 X90.875 Y0.400
M204 S1500.00
;TYPE:WALL-OUTER
;WIDTH:0.800
G1 F1800 X109.125 Y0.400 E2.4280
G1 X109.125 Y2.162 E0.2344
;TYPE:WALL-OUTER
;WIDTH:0.800
G1 X109.125 Y2.732 E0.0758
G1 X90.875 Y2.732 E2.4280
G1 X90.875 Y2.162 E0.0758
;TYPE:WALL-OUTER
;WIDTH:0.800
G1 X90.875 Y0.800 E0.1812
G0 F1800 X90.875 Y0.400
;PRINTING_TIME: 7
;REMAINING_TIME: 1203
;LAYER:4
;Z:3.064
;HEIGHT:0.566
;HEIGHT-BELT:0.400
;PRINTING: little_table-wedgeWedge.stl
;PRINTING_ID: 0
M204 S2000.00
G0 F1200 Z3.064
G0 F7200 X90.875 Y0.400
M204 S1500.00
;TYPE:WALL-OUTER
;WIDTH:0.800
G1 F1800 X109.125 Y0.400 E2.4280
G1 X109.125 Y2.962 E0.3408
;TYPE:WALL-OUTER
;WIDTH:0.800
G1 X109.125 Y3.532 E0.0758
G1 X90.875 Y3.532 E2.4280
G1 X90.875 Y2.962 E0.0758
;TYPE:WALL-OUTER
;WIDTH:0.800
G1 X90.875 Y0.800 E0.2876
G0 F1800 X90.875 Y0.400
M204 S2000.00
G0 F7200 X91.675 Y1.200
;TYPE:WALL-INNER
;WIDTH:0.800
G1 F3600 X108.325 Y1.200 E2.2151
G1 X108.325 Y2.732 E0.2038
G1 X91.675 Y2.732 E2.2151
G1 X91.675 Y1.600 E0.1506
G0 F3600 X91.675 Y1.200
;PRINTING_TIME: 9
;REMAINING_TIME: 1200
;LAYER:5
;Z:3.630
;HEIGHT:0.566
;HEIGHT-BELT:0.400
;PRINTING: little_table-wedgeWedge.stl
;PRINTING_ID: 0
G0 F1200 Z3.630
G0 F7200 X90.875 Y0.400
M204 S1500.00
;TYPE:WALL-OUTER
;WIDTH:0.800
G1 F1800 X109.125 Y0.400 E2.4280
G1 X109.125 Y3.762 E0.4473
;TYPE:WALL-OUTER
;WIDTH:0.800
G1 X109.125 Y4.332 E0.0758
G1 X90.875 Y4.332 E2.4280
G1 X90.875 Y3.762 E0.0758
;TYPE:WALL-OUTER
;WIDTH:0.800
G1 X90.875 Y0.800 E0.3941
G0 F1800 X90.875 Y0.400
M204 S2000.00
G0 F7200 X91.675 Y1.200
;TYPE:WALL-INNER
;WIDTH:0.800
G1 F3600 X108.325 Y1.200 E2.2151
G1 X108.325 Y3.532 E0.3103
G1 X91.675 Y3.532 E2.2151
G1 X91.675 Y1.600 E0.2570
G0 F3600 X91.675 Y1.200
;PRINTING_TIME: 12
;REMAINING_TIME: 1198
;LAYER:6
;Z:4.196
;HEIGHT:0.566
;HEIGHT-BELT:0.400
;PRINTING: little_table-wedgeWedge.stl
;PRINTING_ID: 0
G0 F1200 Z4.196
G0 F7200 X90.875 Y0.400
M204 S1500.00
;TYPE:WALL-OUTER
;WIDTH:0.800
G1 F1800 X109.125 Y0.400 E2.4280
G1 X109.125 Y4.562 E0.5537
;TYPE:WALL-OUTER
;WIDTH:0.800
G1 X109.125 Y5.132 E0.0758
G1 X90.875 Y5.132 E2.4280
G1 X90.875 Y4.562 E0.0758
;TYPE:WALL-OUTER
;WIDTH:0.800
G1 X90.875 Y0.800 E0.5005
G0 F1800 X90.875 Y0.400
M204 S2000.00
G0 F7200 X91.675 Y1.200
;TYPE:WALL-INNER
;WIDTH:0.800
G1 F3600 X108.325 Y1.200 E2.2151
G1 X108.325 Y4.332 E0.4167
G1 X91.675 Y4.332 E2.2151
G1 X91.675 Y1.600 E0.3635
G0 F3600 X91.675 Y1.200
G0 F7200 X92.475 Y2.000
G1 F3600 X107.525 Y2.000 E2.0023
G1 X107.525 Y3.532 E0.2038
G1 X92.475 Y3.532 E2.0023
G1 X92.475 Y2.400 E0.1506
G0 F3600 X92.475 Y2.000
;PRINTING_TIME: 15
;REMAINING_TIME: 1195
;LAYER:7
;Z:4.762
;HEIGHT:0.566
;HEIGHT-BELT:0.400
;PRINTING: little_table-wedgeWedge.stl
;PRINTING_ID: 0
G0 F1200 Z4.762
G0 F7200 X90.875 Y0.400
M204 S1500.00
;TYPE:WALL-OUTER
;WIDTH:0.800
G1 F1800 X109.125 Y0.400 E2.4280
G1 X109.125 Y5.362 E0.6601
;TYPE:WALL-OUTER
;WIDTH:0.800
G1 X109.125 Y5.932 E0.0758
G1 X90.875 Y5.932 E2.4280
G1 X90.875 Y5.362 E0.0758
;TYPE:WALL-OUTER
;WIDTH:0.800
G1 X90.875 Y0.800 E0.6069
G0 F1800 X90.875 Y0.400
M204 S2000.00
G0 F7200 X91.675 Y1.200
;TYPE:WALL-INNER
;WIDTH:0.800
G1 F3600 X108.325 Y1.200 E2.2151
G1 X108.325 Y5.132 E0.5231
G1 X91.675 Y5.132 E2.2151
G1 X91.675 Y1.600 E0.4699
G0 F3600 X91.675 Y1.200
G0 F7200 X92.475 Y2.000
G1 F3600 X107.525 Y2.000 E2.0023
G1 X107.525 Y4.332 E0.3103
G1 X92.475 Y4.332 E2.0023
G1 X92.475 Y2.400 E0.2570
G0 F3600 X92.475 Y2.000
;PRINTING_TIME: 19
;REMAINING_TIME: 1191
;LAYER:8
;Z:5.328
;HEIGHT:0.566
;HEIGHT-BELT:0.400
;PRINTING: little_table-wedgeWedge.stl
;PRINTING_ID: 0
G0 F1200 Z5.328
G0 F7200 X90.875 Y0.400
M204 S1500.00
;TYPE:WALL-OUTER
;WIDTH:0.800
G1 F1800 X109.125 Y0.400 E2.4280
G1 X109.125 Y6.162 E0.7666
;TYPE:WALL-OUTER
;WIDTH:0.800
G1 X109.125 Y6.732 E0.0758
G1 X90.875 Y6.732 E2.4280
G1 X90.875 Y6.162 E0.0758
;TYPE:WALL-OUTER
;WIDTH:0.800
G1 X90.875 Y0.800 E0.7134
G0 F1800 X90.875 Y0.400
M204 S2000.00
G0 F7200 X91.675 Y1.200
;TYPE:WALL-INNER
;WIDTH:0.800
G1 F3600 X108.325 Y1.200 E2.2151
G1 X108.325 Y5.932 E0.6295
G1 X91.675 Y5.932 E2.2151
G1 X91.675 Y1.600 E0.5763
G0 F3600 X91.675 Y1.200
G0 F7200 X92.475 Y2.000
G1 F3600 X107.525 Y2.000 E2.0023
G1 X107.525 Y5.132 E0.4167
G1 X92.475 Y5.132 E2.0023
G1 X92.475 Y2.400 E0.3635
G0 F3600 X92.475 Y2.000
G0 F7200 X92.874 Y2.610
;TYPE:FILL
;WIDTH:0.800
G1 F3600 X96.550 Y4.732 E0.5647
G0 F7200 X97.862 Y4.732
G1 F3600 X97.862 Y2.400 E0.3103
G0 F7200 X96.840 Y2.399
G1 F3600 X92.875 Y4.688 E0.6091
;PRINTING_TIME: 23
;REMAINING_TIME: 1187
;LAYER:9
;Z:5.894
;HEIGHT:0.566
;HEIGHT-BELT:0.400
;PRINTING: little_table-wedgeWedge.stl
;PRINTING_ID: 0
G0 F1200 Z5.894
G0 F7200 X90.875 Y0.400
M204 S1500.00
;TYPE:WALL-OUTER
;WIDTH:0.800
G1 F1800 X109.125 Y0.400 E2.4280
G1 X109.125 Y6.962 E0.8730
;TYPE:WALL-OUTER
;WIDTH:0.800
G1 X109.125 Y7.532 E0.0758
G1 X90.875 Y7.532 E2.4280
G1 X90.875 Y6.962 E0.0758
;TYPE:WALL-OUTER
;WIDTH:0.800
G1 X90.875 Y0.800 E0.8198
G0 F1800 X90.875 Y0.400
M204 S2000.00
G0 F7200 X91.675 Y1.200
;TYPE:WALL-INNER
;WIDTH:0.800
G1 F3600 X108.325 Y1.200 E2.2151
G1 X108.325 Y6.732 E0.7360
G1 X91.675 Y6.732 E2.2151
G1 X91.675 Y1.600 E0.6828
G0 F3600 X91.675 Y1.200
G0 F7200 X92.475 Y2.000
G1 F3600 X107.525 Y2.000 E2.0023
G1 X107.525 Y5.932 E0.5231
G1 X92.475 Y5.932 E2.0023
G1 X92.475 Y2.400 E0.4699
G0 F3600 X92.475 Y2.000
G0 F7200 X92.874 Y2.936
;TYPE:FILL
;WIDTH:0.800
G1 F3600 X97.370 Y5.532 E0.6907
G0 F7200 X98.145 Y5.532
G1 F3600 X98.145 Y2.400 E0.4167
G0 F7200 X96.274 Y2.398
G1 F3600 X92.874 Y4.361 E0.5223
;PRINTING_TIME: 27
;REMAINING_TIME: 1183
;LAYER:10
;Z:6.460
;HEIGHT:0.566
;HEIGHT-BELT:0.400
;PRINTING: little_table-wedgeWedge.stl
;PRINTING_ID: 0
G0 F1200 Z6.460
G0 F7200 X90.875 Y0.400
M204 S1500.00
;TYPE:WALL-OUTER
;WIDTH:0.800
G1 F1800 X109.125 Y0.400 E2.4280
G1 X109.125 Y7.762 E0.9794
;TYPE:WALL-OUTER
;WIDTH:0.800
G1 X109.125 Y8.332 E0.0758
G1 X90.875 Y8.332 E2.4280
G1 X90.875 Y7.762 E0.0758
;TYPE:WALL-OUTER
;WIDTH:0.800
G1 X90.875 Y0.800 E0.9262
G0 F1800 X90.875 Y0.400
M204 S2000.00
G0 F7200 X91.675 Y1.200
;TYPE:WALL-INNER
;WIDTH:0.800
G1 F3600 X108.325 Y1.200 E2.2151
G1 X108.325 Y7.532 E0.8424
G1 X91.675 Y7.532 E2.2151
G1 X91.675 Y1.600 E0.7892
G0 F3600 X91.675 Y1.200
G0 F7200 X92.475 Y2.000
G1 F3600 X107.525 Y2.000 E2.0023
G1 X107.525 Y6.732 E0.6295
G1 X92.475 Y6.732 E2.0023
G1 X92.475 Y2.400 E0.5763
G0 F3600 X92.475 Y2.000
G0 F7200 X92.874 Y3.263
;TYPE:FILL
;WIDTH:0.800
G1 F3600 X98.189 Y6.332 E0.8165
G0 F7200 X98.428 Y6.332
G1 F3600 X98.428 Y2.400 E0.5231
G0 F7200 X95.709 Y2.398
G1 F3600 X92.875 Y4.034 E0.4354
;PRINTING_TIME: 31
;REMAINING_TIME: 1179
;LAYER:11
;Z:7.026
;HEIGHT:0.566
;HEIGHT-BELT:0.400
;PRINTING: little_table-wedgeWedge.stl
;PRINTING_ID: 0
G0 F1200 Z7.026
G0 F7200 X90.875 Y0.400
M204 S1500.00
;TYPE:WALL-OUTER
;WIDTH:0.800
G1 F1800 X109.125 Y0.400 E2.4280
G1 X109.125 Y8.562 E1.0859
;TYPE:WALL-OUTER
;WIDTH:0.800
G1 X109.125 Y9.132 E0.0758
G1 X90.875 Y9.132 E2.4280
G1 X90.875 Y8.562 E0.0758
;TYPE:WALL-OUTER
;WIDTH:0.800
G1 X90.875 Y0.800 E1.0327
G0 F1800 X90.875 Y0.400
M204 S2000.00
G0 F7200 X91.675 Y1.200
;TYPE:WALL-INNER
;WIDTH:0.800
G1 F3600 X108.325 Y1.200 E2.2151
G1 X108.325 Y8.332 E0.9488
G1 X91.675 Y8.332 E2.2151
G1 X91.675 Y1.600 E0.8956
G0 F3600 X91.675 Y1.200
G0 F7200 X92.475 Y2.000
G1 F3600 X107.525 Y2.000 E2.0023
G1 X107.525 Y7.532 E0.7360
G1 X92.475 Y7.532 E2.0023
G1 X92.475 Y2.400 E0.6828
G0 F3600 X92.475 Y2.000
G0 F7200 X92.874 Y3.590
;TYPE:FILL
;WIDTH:0.800
G1 F3600 X99.007 Y7.131 E0.9422
G0 F7200 X98.711 Y7.132
G1 F3600 X98.711 Y2.400 E0.6295
G0 F7200 X95.143 Y2.398
G1 F3600 X92.875 Y3.708 E0.3485
G0 F7200 X106.145 Y7.131
G1 F3600 X107.123 Y6.567 E0.1502
;PRINTING_TIME: 35
;REMAINING_TIME: 1174
;LAYER:12
;Z:7.592
;HEIGHT:0.566
;HEIGHT-BELT:0.400
;PRINTING: little_table-wedgeWedge.stl
;PRINTING_ID: 0
G0 F1200 Z7.592
G0 F7200 X90.875 Y0.400
M204 S1500.00
;TYPE:WALL-OUTER
;WIDTH:0.800
G1 F1800 X109.125 Y0.400 E2.4280
G1 X109.125 Y9.362 E1.1923
;TYPE:WALL-OUTER
;WIDTH:0.800
G1 X109.125 Y9.932 E0.0758
G1 X90.875 Y9.932 E2.4280
G1 X90.875 Y9.362 E0.0758
;TYPE:WALL-OUTER
;WIDTH:0.800
G1 X90.875 Y0.800 E1.1391
G0 F1800 X90.875 Y0.400
M204 S2000.00
G0 F7200 X91.675 Y1.200
;TYPE:WALL-INNER
;WIDTH:0.800
G1 F3600 X108.325 Y1.200 E2.2151
G1 X108.325 Y9.132 E1.0553
G1 X91.675 Y9.132 E2.2151
G1 X91.675 Y1.600 E1.0021
G0 F3600 X91.675 Y1.200
G0 F7200 X92.475 Y2.000
G1 F3600 X107.525 Y2.000 E2.0023
G1 X107.525 Y8.332 E0.8424
G1 X92.475 Y8.332 E2.0023
G1 X92.475 Y2.400 E0.7892
G0 F3600 X92.475 Y2.000
G0 F7200 X92.874 Y3.381
;TYPE:FILL
;WIDTH:0.800
G1 F3600 X94.576 Y2.399 E0.2614
G0 F7200 X92.874 Y3.916
G1 F3600 X99.827 Y7.931 E1.0682
G0 F7200 X98.994 Y7.932
G1 F3600 X98.994 Y2.400 E0.7360
G0 F7200 X104.193 Y7.932
G1 F3600 X107.123 Y6.240 E0.4501
;PRINTING_TIME: 40
;REMAINING_TIME: 1169
;LAYER:13
;Z:8.158
;HEIGHT:0.566
;HEIGHT-BELT:0.400
;PRINTING: little_table-wedgeWedge.stl
;PRINTING_ID: 0
G0 F1200 Z8.158
G0 F7200 X90.875 Y0.400
M204 S1500.00
;TYPE:WALL-OUTER
;WIDTH:0.800
G1 F1800 X109.125 Y0.400 E2.4280
G1 X109.125 Y10.162 E1.2987
;TYPE:WALL-OUTER
;WIDTH:0.800
G1 X109.125 Y10.732 E0.0758
G1 X90.875 Y10.732 E2.4280
G1 X90.875 Y10.162 E0.0758
;TYPE:WALL-OUTER
;WIDTH:0.800
G1 X90.875 Y0.800 E1.2455
G0 F1800 X90.875 Y0.400
M204 S2000.00
G0 F7200 X91.675 Y1.200
;TYPE:WALL-INNER
;WIDTH:0.800
G1 F3600 X108.325 Y1.200 E2.2151
G1 X108.325 Y9.932 E1.1617
G1 X91.675 Y9.932 E2.2151
G1 X91.675 Y1.600 E1.1085
G0 F3600 X91.675 Y1.200
G0 F7200 X92.475 Y2.000
G1 F3600 X107.525 Y2.000 E2.0023
G1 X107.525 Y9.132 E0.9488
G1 X92.475 Y9.132 E2.0023
G1 X92.475 Y2.400 E0.8956
G0 F3600 X92.475 Y2.000
G0 F7200 X92.875 Y3.054
;TYPE:FILL
;WIDTH:0.800
G1 F3600 X94.010 Y2.399 E0.1743
G0 F7200 X92.873 Y4.243
G1 F3600 X100.648 Y8.732 E1.1944
G0 F7200 X99.277 Y8.732
G1 F3600 X99.277 Y2.400 E0.8424
G0 F7200 X102.241 Y8.731
G1 F3600 X107.123 Y5.913 E0.7499
;PRINTING_TIME: 45
;REMAINING_TIME: 1165
;LAYER:14
;Z:8.724
;HEIGHT:0.566
;HEIGHT-BELT:0.400
;PRINTING: little_table-wedgeWedge.stl
;PRINTING_ID: 0
G0 F1200 Z8.724
G0 F7200 X90.875 Y0.400
M204 S1500.00
;TYPE:WALL-OUTER
;WIDTH:0.800
G1 F1800 X109.125 Y0.400 E2.4280
G1 X109.125 Y10.962 E1.4052
;TYPE:WALL-OUTER
;WIDTH:0.800
G1 X109.125 Y11.532 E0.0758
G1 X90.875 Y11.532 E2.4280
G1 X90.875 Y10.962 E0.0758
;TYPE:WALL-OUTER
;WIDTH:0.800
G1 X90.875 Y0.800 E1.3520
G0 F1800 X90.875 Y0.400
M204 S2000.00
G0 F7200 X91.675 Y1.200
;TYPE:WALL-INNER
;WIDTH:0.800
G1 F3600 X108.325 Y1.200 E2.2151
G1 X108.325 Y10.732 E1.2681
G1 X91.675 Y10.732 E2.2151
G1 X91.675 Y1.600 E1.2149
G0 F3600 X91.675 Y1.200
G0 F7200 X92.475 Y2.000
G1 F3600 X107.525 Y2.000 E2.0023
G1 X107.525 Y9.932 E1.0553
G1 X92.475 Y9.932 E2.0023
G1 X92.475 Y2.400 E1.0021
G0 F3600 X92.475 Y2.000
G0 F7200 X92.874 Y2.728
;TYPE:FILL
;WIDTH:0.800
G1 F3600 X93.444 Y2.399 E0.0876
G0 F7200 X92.874 Y4.570
G1 F3600 X101.468 Y9.532 E1.3202
G0 F7200 X100.289 Y9.532
G1 F3600 X107.123 Y5.586 E1.0499
G0 F7200 X99.560 Y2.400
G1 F3600 X99.560 Y9.532 E0.9488
;PRINTING_TIME: 50
;REMAINING_TIME: 1159
;LAYER:15
;Z:9.290
;HEIGHT:0.566
;HEIGHT-BELT:0.400
;PRINTING: little_table-wedgeWedge.stl
;PRINTING_ID: 0
G0 F1200 Z9.290
G0 F7200 X90.875 Y0.400
M204 S1500.00
;TYPE:WALL-OUTER
;WIDTH:0.800
G1 F1800 X109.125 Y0.400 E2.4280
G1 X109.125 Y11.762 E1.5116
;TYPE:WALL-OUTER
;WIDTH:0.800
G1 X109.125 Y12.332 E0.0758
G1 X90.875 Y12.332 E2.4280
G1 X90.875 Y11.762 E0.0758
;TYPE:WALL-OUTER
;WIDTH:0.800
G1 X90.875 Y0.800 E1.4584
G0 F1800 X90.875 Y0.400
M204 S2000.00
G0 F7200 X91.675 Y1.200
;TYPE:WALL-INNER
;WIDTH:0.800
G1 F3600 X108.325 Y1.200 E2.2151
G1 X108.325 Y11.532 E1.3746
G1 X91.675 Y11.532 E2.2151
G1 X91.675 Y1.600 E1.3214
G0 F3600 X91.675 Y1.200
G0 F7200 X92.475 Y2.000
G1 F3600 X107.525 Y2.000 E2.0023
G1 X107.525 Y10.732 E1.1617
G1 X92.475 Y10.732 E2.0023
G1 X92.475 Y2.400 E1.1085
G0 F3600 X92.475 Y2.000
G0 F7200 X92.874 Y4.896
;TYPE:FILL
;WIDTH:0.800
G1 F3600 X102.289 Y10.331 E1.4463
G0 F7200 X99.842 Y10.332
G1 F3600 X99.842 Y2.400 E1.0553
G0 F7200 X107.123 Y5.261
G1 F3600 X98.340 Y10.332 E1.3493
;PRINTING_TIME: 56
;REMAINING_TIME: 1154
;LAYER:16
;Z:9.856
;HEIGHT:0.566
;HEIGHT-BELT:0.400
;PRINTING: little_table-wedgeWedge.stl
;PRINTING_ID: 0
G0 F1200 Z9.856
G0 F7200 X90.875 Y0.400
M204 S1500.00
;TYPE:WALL-OUTER
;WIDTH:0.800
G1 F1800 X109.125 Y0.400 E2.4280
G1 X109.125 Y12.562 E1.6180
;TYPE:WALL-OUTER
;WIDTH:0.800
G1 X109.125 Y13.132 E0.0758
G1 X90.875 Y13.132 E2.4280
G1 X90.875 Y12.562 E0.0758
;TYPE:WALL-OUTER
;WIDTH:0.800
G1 X90.875 Y0.800 E1.5648
G0 F1800 X90.875 Y0.400
M204 S2000.00
G0 F7200 X91.675 Y1.200
;TYPE:WALL-INNER
;WIDTH:0.800
G1 F3600 X108.325 Y1.200 E2.2151
G1 X108.325 Y12.332 E1.4810
G1 X91.675 Y12.332 E2.2151
G1 X91.675 Y1.600 E1.4278
G0 F3600 X91.675 Y1.200
G0 F7200 X92.475 Y2.000
G1 F3600 X107.525 Y2.000 E2.0023
G1 X107.525 Y11.532 E1.2681
G1 X92.475 Y11.532 E2.0023
G1 X92.475 Y2.400 E1.2149
G0 F3600 X92.475 Y2.000
G0 F7200 X92.874 Y5.222
;TYPE:FILL
;WIDTH:0.800
G1 F3600 X103.109 Y11.132 E1.5724
