;Sliced by ideaMaker 4.3.2.6470, 2023-04-18 10:50:24 UTC-0500
;Dimension: 200.000 9999.000 170.000 0.800
;Plate Shape: 0
;Origin Center: 0
;Belt Printer: 1
;Belt Base Y: 5269.200
;Belt Base Z: 0.000
;Belt Offset Y: 0.000
;Belt Offset Z: 3725.887
;Belt Gantry Angle: 45
;Belt Remove Z: 0.000
;Belt Repetition: 1
;Extruder Offset #1: 25.000 0.000
;Filament Diameter #1: 1.750
;Filament Diameter #2: 1.750
;Filament Compensation #1: 100.00
;Filament Compensation #2: 90.00
;Filament Density #1: 1240.00
;Filament Density #2: 1240.00
;Filament Type #1: PLA
;Filament Type #2: 
;Filament Name #1: [Raise3D] PLA 1.75mm
;Filament Name #2: 
;Firmware: Marlin
;Bounding Box: 49.100 150.900 -0.100 18.384 0.000 178.166
;Model Gap: 0.000
;
;
M92 E203.00000
M221 T0 S100.00
M140 S60.00
M104 T0 S200.00
M109 T0 S200.00
T0
M190 S60.00
G90 ; Set to Absolute Positioning
M82 ; Set extruder to absolute mode
G21 ; Metric values
;M808 L ; This is your looping code, any number after the L is the number of repeats, leave blank for infinite loops
M104 T0 S200 ; For some reason ideamaker forces the nozzle to cooldown when the command isnt even in the endgcode, this turns it straight back on after the loop, 245 is the degrees in this case
G28; Home
G92 X0 Y0 Z0 E0 ; zero out all axes (include extruder)
M83 ; set extruder to relative coordinates
G0 Z80 E25 ; extrude short Z line
G92 E0 Z0 ; Set all axis to 0
G0 X215 E40 F800 ; Primeline placed after the loop code so every looped print will get a primeline for better adhesion
G92 E0 Z0
M82
M117 Please stick...
;end of Start GCode
;TOTAL_NUM: 3
;PRINTING_TIME: 0
;REMAINING_TIME: 3347
M83
;LAYER:0
;Z:0.800
;HEIGHT:0.800
;HEIGHT-BELT:0.566
;BELT-FIRST-Z:0.800
M106 S255
;PRINTING: little_table-wedgeWedge003.stl
;PRINTING_ID: 2
M204 S2000.00
M205 X5.00 Y5.00
G0 F7200 X49.500 Y0.300
G0 F1200 Z0.800
M204 S1500.00
;TYPE:WALL-OUTER
;WIDTH:0.800
G1 F1800 X150.500 Y0.300 E19.0135
G1 X150.500 Y0.431 E0.0247
G1 X49.768 Y0.432 E18.9630
G0 F1800 X49.500 Y0.432
G0 F1800 X49.500 Y0.300
;PRINTING_TIME: 7
;REMAINING_TIME: 3340
;LAYER:1
;Z:1.366
;HEIGHT:0.566
;HEIGHT-BELT:0.400
;PRINTING: little_table-wedgeWedge003.stl
;PRINTING_ID: 2
M204 S2000.00
G0 F1200 Z1.366
G0 F7200 X49.600 Y0.400
M204 S1500.00
;TYPE:WALL-OUTER
;WIDTH:0.800
G1 F1800 X150.400 Y0.400 E13.4105
;TYPE:WALL-OUTER
;WIDTH:0.800
G1 X150.400 Y1.131 E0.0973
G1 X49.600 Y1.132 E13.4105
G1 X49.600 Y0.800 E0.0442
G0 F1800 X49.600 Y0.662
G0 F1800 X49.600 Y0.400
;PRINTING_TIME: 14
;REMAINING_TIME: 3333
;LAYER:2
;Z:1.932
;HEIGHT:0.566
;HEIGHT-BELT:0.400
;PRINTING: little_table-wedgeWedge003.stl
;PRINTING_ID: 2
M204 S2000.00
G0 F1200 Z1.932
G0 F7200 X49.600 Y0.400
M204 S1500.00
;TYPE:WALL-OUTER
;WIDTH:0.800
G1 F1800 X150.400 Y0.400 E13.4105
G1 X150.400 Y1.361 E0.1279
;TYPE:WALL-OUTER
;WIDTH:0.800
G1 X150.400 Y1.931 E0.0758
G1 X49.600 Y1.932 E13.4105
G1 X49.600 Y1.362 E0.0758
;TYPE:WALL-OUTER
;WIDTH:0.800
G1 X49.600 Y0.800 E0.0748
G0 F1800 X49.600 Y0.400
;PRINTING_TIME: 22
;REMAINING_TIME: 3325
;LAYER:3
;Z:2.498
;HEIGHT:0.566
;HEIGHT-BELT:0.400
;PRINTING: little_table-wedgeWedge003.stl
;PRINTING_ID: 2
M204 S2000.00
G0 F1200 Z2.498
G0 F7200 X49.600 Y0.400
M204 S1500.00
;TYPE:WALL-OUTER
;WIDTH:0.800
G1 F1800 X150.400 Y0.400 E13.4105
G1 X150.400 Y2.161 E0.2343
;TYPE:WALL-OUTER
;WIDTH:0.800
G1 X150.400 Y2.731 E0.0758
G1 X49.600 Y2.732 E13.4105
G1 X49.600 Y2.162 E0.0758
;TYPE:WALL-OUTER
;WIDTH:0.800
G1 X49.600 Y0.800 E0.1812
G0 F1800 X49.600 Y0.400
;PRINTING_TIME: 29
;REMAINING_TIME: 3318
;LAYER:4
;Z:3.064
;HEIGHT:0.566
;HEIGHT-BELT:0.400
;PRINTING: little_table-wedgeWedge003.stl
;PRINTING_ID: 2
M204 S2000.00
G0 F1200 Z3.064
G0 F7200 X49.600 Y0.400
M204 S1500.00
;TYPE:WALL-OUTER
;WIDTH:0.800
G1 F1800 X150.400 Y0.400 E13.4105
G1 X150.400 Y2.961 E0.3407
;TYPE:WALL-OUTER
;WIDTH:0.800
G1 X150.400 Y3.531 E0.0758
G1 X49.600 Y3.532 E13.4105
G1 X49.600 Y2.962 E0.0758
;TYPE:WALL-OUTER
;WIDTH:0.800
G1 X49.600 Y0.800 E0.2876
G0 F1800 X49.600 Y0.400
M204 S2000.00
G0 F7200 X50.400 Y1.200
;TYPE:WALL-INNER
;WIDTH:0.800
G1 F3600 X149.600 Y1.200 E13.1976
G1 X149.600 Y2.731 E0.2037
G1 X50.400 Y2.732 E13.1976
G1 X50.400 Y1.600 E0.1506
G0 F3600 X50.400 Y1.200
;PRINTING_TIME: 39
;REMAINING_TIME: 3308
;LAYER:5
;Z:3.630
;HEIGHT:0.566
;HEIGHT-BELT:0.400
;PRINTING: little_table-wedgeWedge003.stl
;PRINTING_ID: 2
G0 F1200 Z3.630
G0 F7200 X49.600 Y0.400
M204 S1500.00
;TYPE:WALL-OUTER
;WIDTH:0.800
G1 F1800 X150.400 Y0.400 E13.4105
G1 X150.400 Y3.761 E0.4471
;TYPE:WALL-OUTER
;WIDTH:0.800
G1 X150.400 Y4.331 E0.0758
G1 X49.600 Y4.332 E13.4105
G1 X49.600 Y3.762 E0.0758
;TYPE:WALL-OUTER
;WIDTH:0.800
G1 X49.600 Y0.800 E0.3941
G0 F1800 X49.600 Y0.400
M204 S2000.00
G0 F7200 X50.400 Y1.200
;TYPE:WALL-INNER
;WIDTH:0.800
G1 F3600 X149.600 Y1.200 E13.1976
G1 X149.600 Y3.531 E0.3101
G1 X50.400 Y3.532 E13.1976
G1 X50.400 Y1.600 E0.2570
G0 F3600 X50.400 Y1.200
;PRINTING_TIME: 50
;REMAINING_TIME: 3297
;LAYER:6
;Z:4.196
;HEIGHT:0.566
;HEIGHT-BELT:0.400
;PRINTING: little_table-wedgeWedge003.stl
;PRINTING_ID: 2
G0 F1200 Z4.196
G0 F7200 X49.600 Y0.400
M204 S1500.00
;TYPE:WALL-OUTER
;WIDTH:0.800
G1 F1800 X150.400 Y0.400 E13.4105
G1 X150.400 Y4.561 E0.5536
;TYPE:WALL-OUTER
;WIDTH:0.800
G1 X150.400 Y5.131 E0.0758
G1 X49.600 Y5.132 E13.4105
G1 X49.600 Y4.562 E0.0758
;TYPE:WALL-OUTER
;WIDTH:0.800
G1 X49.600 Y0.800 E0.5005
G0 F1800 X49.600 Y0.400
M204 S2000.00
G0 F7200 X50.400 Y1.200
;TYPE:WALL-INNER
;WIDTH:0.800
G1 F3600 X149.600 Y1.200 E13.1976
G1 X149.600 Y4.331 E0.4165
G1 X50.400 Y4.332 E13.1976
G1 X50.400 Y1.600 E0.3635
G0 F3600 X50.400 Y1.200
G0 F7200 X51.200 Y2.000
G1 F3600 X148.800 Y2.000 E12.9848
G1 X148.800 Y3.531 E0.2037
G1 X51.200 Y3.532 E12.9848
G1 X51.200 Y2.400 E0.1506
G0 F3600 X51.200 Y2.000
;PRINTING_TIME: 64
;REMAINING_TIME: 3283
;LAYER:7
;Z:4.762
;HEIGHT:0.566
;HEIGHT-BELT:0.400
;PRINTING: little_table-wedgeWedge003.stl
;PRINTING_ID: 2
G0 F1200 Z4.762
G0 F7200 X49.600 Y0.400
M204 S1500.00
;TYPE:WALL-OUTER
;WIDTH:0.800
G1 F1800 X150.400 Y0.400 E13.4105
G1 X150.400 Y5.361 E0.6600
;TYPE:WALL-OUTER
;WIDTH:0.800
G1 X150.400 Y5.931 E0.0758
G1 X49.600 Y5.932 E13.4105
G1 X49.600 Y5.362 E0.0758
;TYPE:WALL-OUTER
;WIDTH:0.800
G1 X49.600 Y0.800 E0.6069
G0 F1800 X49.600 Y0.400
M204 S2000.00
G0 F7200 X50.400 Y1.200
;TYPE:WALL-INNER
;WIDTH:0.800
G1 F3600 X149.600 Y1.200 E13.1976
G1 X149.600 Y5.131 E0.5230
G1 X50.400 Y5.132 E13.1976
G1 X50.400 Y1.600 E0.4699
G0 F3600 X50.400 Y1.200
G0 F7200 X51.200 Y2.000
G1 F3600 X148.800 Y2.000 E12.9848
G1 X148.800 Y4.331 E0.3101
G1 X51.200 Y4.332 E12.9848
G1 X51.200 Y2.400 E0.2570
G0 F3600 X51.200 Y2.000
;PRINTING_TIME: 79
;REMAINING_TIME: 3268
;LAYER:8
;Z:5.328
;HEIGHT:0.566
;HEIGHT-BELT:0.400
;PRINTING: little_table-wedgeWedge003.stl
;PRINTING_ID: 2
G0 F1200 Z5.328
G0 F7200 X49.600 Y0.400
M204 S1500.00
;TYPE:WALL-OUTER
;WIDTH:0.800
G1 F1800 X150.400 Y0.400 E13.4105
G1 X150.400 Y6.161 E0.7664
;TYPE:WALL-OUTER
;WIDTH:0.800
G1 X150.400 Y6.731 E0.0758
G1 X49.600 Y6.732 E13.4105
G1 X49.600 Y6.162 E0.0758
;TYPE:WALL-OUTER
;WIDTH:0.800
G1 X49.600 Y0.800 E0.7134
G0 F1800 X49.600 Y0.400
M204 S2000.00
G0 F7200 X50.400 Y1.200
;TYPE:WALL-INNER
;WIDTH:0.800
G1 F3600 X149.600 Y1.200 E13.1976
G1 X149.600 Y5.931 E0.6294
G1 X50.400 Y5.932 E13.1976
G1 X50.400 Y1.600 E0.5763
G0 F3600 X50.400 Y1.200
G0 F7200 X51.200 Y2.000
G1 F3600 X148.800 Y2.000 E12.9848
G1 X148.800 Y5.131 E0.4165
G1 X51.200 Y5.132 E12.9848
G1 X51.200 Y2.400 E0.3635
G0 F3600 X51.200 Y2.000
G0 F7200 X54.111 Y2.400
;TYPE:FILL
;WIDTH:0.800
G1 F3600 X58.150 Y4.732 E0.6205
G0 F7200 X59.462 Y4.732
G1 F3600 X59.462 Y2.400 E0.3103
G0 F7200 X58.439 Y2.399
G1 F3600 X54.398 Y4.732 E0.6208
G0 F7200 X69.062 Y4.732
G1 F3600 X69.062 Y2.400 E0.3103
G0 F7200 X73.311 Y2.400
G1 F3600 X77.349 Y4.731 E0.6203
G0 F7200 X78.662 Y4.732
G1 F3600 X78.662 Y2.400 E0.3103
G0 F7200 X77.639 Y2.399
G1 F3600 X73.599 Y4.732 E0.6207
G0 F7200 X88.262 Y4.732
G1 F3600 X88.262 Y2.400 E0.3103
G0 F7200 X92.511 Y2.400
G1 F3600 X96.549 Y4.731 E0.6203
G0 F7200 X97.862 Y4.732
G1 F3600 X97.862 Y2.400 E0.3103
G0 F7200 X96.839 Y2.399
G1 F3600 X92.799 Y4.732 E0.6207
G0 F7200 X107.462 Y4.732
G1 F3600 X107.462 Y2.400 E0.3103
G0 F7200 X111.711 Y2.400
G1 F3600 X115.748 Y4.731 E0.6202
G0 F7200 X117.062 Y4.732
G1 F3600 X117.062 Y2.400 E0.3103
G0 F7200 X116.040 Y2.399
G1 F3600 X112.000 Y4.731 E0.6206
G0 F7200 X126.662 Y4.732
G1 F3600 X126.662 Y2.400 E0.3103
G0 F7200 X130.911 Y2.400
G1 F3600 X134.949 Y4.731 E0.6203
G0 F7200 X136.262 Y4.732
G1 F3600 X136.262 Y2.400 E0.3103
G0 F7200 X135.240 Y2.399
G1 F3600 X131.200 Y4.731 E0.6206
G0 F7200 X145.862 Y4.732
G1 F3600 X145.862 Y2.400 E0.3103
;PRINTING_TIME: 97
;REMAINING_TIME: 3250
;LAYER:9
;Z:5.894
;HEIGHT:0.566
;HEIGHT-BELT:0.400
;PRINTING: little_table-wedgeWedge003.stl
;PRINTING_ID: 2
G0 F1200 Z5.894
G0 F7200 X49.600 Y0.400
M204 S1500.00
;TYPE:WALL-OUTER
;WIDTH:0.800
G1 F1800 X150.400 Y0.400 E13.4105
G1 X150.400 Y6.961 E0.8729
;TYPE:WALL-OUTER
;WIDTH:0.800
G1 X150.400 Y7.531 E0.0758
G1 X49.600 Y7.532 E13.4105
G1 X49.600 Y6.962 E0.0758
;TYPE:WALL-OUTER
;WIDTH:0.800
G1 X49.600 Y0.800 E0.8198
G0 F1800 X49.600 Y0.400
M204 S2000.00
G0 F7200 X50.400 Y1.200
;TYPE:WALL-INNER
;WIDTH:0.800
G1 F3600 X149.600 Y1.200 E13.1976
G1 X149.600 Y6.731 E0.7358
G1 X50.400 Y6.732 E13.1976
G1 X50.400 Y1.600 E0.6828
G0 F3600 X50.400 Y1.200
G0 F7200 X51.200 Y2.000
G1 F3600 X148.800 Y2.000 E12.9848
G1 X148.800 Y5.931 E0.5230
G1 X51.200 Y5.932 E12.9848
G1 X51.200 Y2.400 E0.4699
G0 F3600 X51.200 Y2.000
G0 F7200 X53.545 Y2.400
;TYPE:FILL
;WIDTH:0.800
G1 F3600 X58.968 Y5.531 E0.8331
G0 F7200 X59.745 Y5.532
G1 F3600 X59.745 Y2.400 E0.4167
G0 F7200 X57.873 Y2.399
G1 F3600 X52.448 Y5.531 E0.8334
G0 F7200 X69.345 Y5.532
G1 F3600 X69.345 Y2.400 E0.4167
G0 F7200 X72.745 Y2.400
G1 F3600 X78.168 Y5.531 E0.8331
G0 F7200 X78.945 Y5.532
G1 F3600 X78.945 Y2.400 E0.4167
G0 F7200 X77.073 Y2.399
G1 F3600 X71.648 Y5.531 E0.8334
G0 F7200 X88.545 Y5.532
G1 F3600 X88.545 Y2.400 E0.4167
G0 F7200 X91.945 Y2.400
G1 F3600 X97.368 Y5.531 E0.8331
G0 F7200 X98.145 Y5.532
G1 F3600 X98.145 Y2.400 E0.4167
G0 F7200 X96.274 Y2.399
G1 F3600 X90.849 Y5.531 E0.8334
G0 F7200 X107.745 Y5.532
G1 F3600 X107.745 Y2.400 E0.4167
G0 F7200 X111.145 Y2.400
G1 F3600 X116.567 Y5.530 E0.8329
G0 F7200 X117.345 Y5.532
G1 F3600 X117.345 Y2.400 E0.4167
G0 F7200 X115.473 Y2.399
G1 F3600 X110.049 Y5.531 E0.8333
G0 F7200 X126.945 Y5.532
G1 F3600 X126.945 Y2.400 E0.4167
G0 F7200 X130.345 Y2.400
G1 F3600 X135.767 Y5.530 E0.8329
G0 F7200 X136.545 Y5.532
G1 F3600 X136.545 Y2.400 E0.4167
G0 F7200 X134.673 Y2.399
G1 F3600 X129.249 Y5.531 E0.8333
G0 F7200 X146.145 Y5.532
G1 F3600 X146.145 Y2.400 E0.4167
;PRINTING_TIME: 116
;REMAINING_TIME: 3231
;LAYER:10
;Z:6.460
;HEIGHT:0.566
;HEIGHT-BELT:0.400
;PRINTING: little_table-wedgeWedge003.stl
;PRINTING_ID: 2
G0 F1200 Z6.460
G0 F7200 X49.600 Y0.400
M204 S1500.00
;TYPE:WALL-OUTER
;WIDTH:0.800
G1 F1800 X150.400 Y0.400 E13.4105
G1 X150.400 Y7.761 E0.9793
;TYPE:WALL-OUTER
;WIDTH:0.800
G1 X150.400 Y8.330 E0.0757
G1 X49.600 Y8.331 E13.4105
G1 X49.600 Y7.762 E0.0757
;TYPE:WALL-OUTER
;WIDTH:0.800
G1 X49.600 Y0.800 E0.9262
G0 F1800 X49.600 Y0.400
M204 S2000.00
G0 F7200 X50.400 Y1.200
;TYPE:WALL-INNER
;WIDTH:0.800
G1 F3600 X149.600 Y1.200 E13.1976
G1 X149.600 Y7.530 E0.8421
G1 X50.400 Y7.531 E13.1976
G1 X50.400 Y1.600 E0.7891
G0 F3600 X50.400 Y1.200
G0 F7200 X51.200 Y2.000
G1 F3600 X148.800 Y2.000 E12.9848
G1 X148.800 Y6.730 E0.6293
G1 X51.200 Y6.731 E12.9848
G1 X51.200 Y2.400 E0.5762
G0 F3600 X51.200 Y2.000
G0 F7200 X52.979 Y2.400
;TYPE:FILL
;WIDTH:0.800
G1 F3600 X59.786 Y6.330 E1.0457
G0 F7200 X60.028 Y6.331
G1 F3600 X60.028 Y2.400 E0.5230
G0 F7200 X57.307 Y2.399
G1 F3600 X51.599 Y5.695 E0.8769
G0 F7200 X69.628 Y6.331
G1 F3600 X69.628 Y2.400 E0.5230
G0 F7200 X72.179 Y2.400
G1 F3600 X78.986 Y6.330 E1.0457
G0 F7200 X79.228 Y6.331
G1 F3600 X79.228 Y2.400 E0.5230
G0 F7200 X76.507 Y2.399
G1 F3600 X69.699 Y6.330 E1.0459
G0 F7200 X88.828 Y6.331
G1 F3600 X88.828 Y2.400 E0.5230
G0 F7200 X91.379 Y2.400
G1 F3600 X98.186 Y6.330 E1.0457
G0 F7200 X98.428 Y6.331
G1 F3600 X98.428 Y2.400 E0.5230
G0 F7200 X95.707 Y2.399
G1 F3600 X88.899 Y6.330 E1.0459
G0 F7200 X108.028 Y6.331
G1 F3600 X108.028 Y2.400 E0.5230
G0 F7200 X110.579 Y2.400
G1 F3600 X117.385 Y6.329 E1.0455
G0 F7200 X117.628 Y6.331
G1 F3600 X117.628 Y2.400 E0.5230
G0 F7200 X114.907 Y2.399
G1 F3600 X108.099 Y6.330 E1.0459
G0 F7200 X127.228 Y6.331
G1 F3600 X127.228 Y2.400 E0.5230
G0 F7200 X129.779 Y2.400
G1 F3600 X136.586 Y6.330 E1.0457
G0 F7200 X136.828 Y6.331
G1 F3600 X136.828 Y2.400 E0.5230
G0 F7200 X134.107 Y2.399
G1 F3600 X127.300 Y6.329 E1.0457
G0 F7200 X146.428 Y6.331
G1 F3600 X146.428 Y2.400 E0.5230
G0 F7200 X148.398 Y5.233
G1 F3600 X146.501 Y6.329 E0.2915
;PRINTING_TIME: 136
;REMAINING_TIME: 3211
;LAYER:11
;Z:7.026
;HEIGHT:0.566
;HEIGHT-BELT:0.400
;PRINTING: little_table-wedgeWedge003.stl
;PRINTING_ID: 2
G0 F1200 Z7.026
G0 F7200 X49.600 Y0.400
M204 S1500.00
;TYPE:WALL-OUTER
;WIDTH:0.800
G1 F1800 X150.400 Y0.400 E13.4105
G1 X150.400 Y8.560 E1.0856
;TYPE:WALL-OUTER
;WIDTH:0.800
G1 X150.400 Y9.130 E0.0758
G1 X49.600 Y9.131 E13.4105
G1 X49.600 Y8.561 E0.0758
;TYPE:WALL-OUTER
;WIDTH:0.800
G1 X49.600 Y0.800 E1.0325
G0 F1800 X49.600 Y0.400
M204 S2000.00
G0 F7200 X50.400 Y1.200
;TYPE:WALL-INNER
;WIDTH:0.800
G1 F3600 X149.600 Y1.200 E13.1976
G1 X149.600 Y8.330 E0.9486
G1 X50.400 Y8.331 E13.1976
G1 X50.400 Y1.600 E0.8955
G0 F3600 X50.400 Y1.200
G0 F7200 X51.200 Y2.000
G1 F3600 X148.800 Y2.000 E12.9848
G1 X148.800 Y7.530 E0.7357
G1 X51.200 Y7.531 E12.9848
G1 X51.200 Y2.400 E0.6826
G0 F3600 X51.200 Y2.000
G0 F7200 X52.412 Y2.400
;TYPE:FILL
;WIDTH:0.800
G1 F3600 X60.606 Y7.130 E1.2587
G0 F7200 X60.311 Y7.131
G1 F3600 X60.311 Y2.400 E0.6294
G0 F7200 X56.741 Y2.399
G1 F3600 X51.599 Y5.368 E0.7899
G0 F7200 X67.746 Y7.130
G1 F3600 X75.941 Y2.399 E1.2589
G0 F7200 X79.511 Y2.400
G1 F3600 X79.511 Y7.131 E0.6294
G0 F7200 X79.806 Y7.130
G1 F3600 X71.613 Y2.400 E1.2586
G0 F7200 X69.911 Y2.400
G1 F3600 X69.911 Y7.131 E0.6294
G0 F7200 X86.947 Y7.130
G1 F3600 X95.141 Y2.399 E1.2588
G0 F7200 X98.711 Y2.400
G1 F3600 X98.711 Y7.131 E0.6294
G0 F7200 X99.006 Y7.130
G1 F3600 X90.813 Y2.400 E1.2586
G0 F7200 X89.111 Y2.400
G1 F3600 X89.111 Y7.131 E0.6294
G0 F7200 X106.148 Y7.130
G1 F3600 X114.341 Y2.399 E1.2587
G0 F7200 X117.911 Y2.400
G1 F3600 X117.911 Y7.131 E0.6294
G0 F7200 X118.205 Y7.130
G1 F3600 X110.013 Y2.400 E1.2585
G0 F7200 X108.311 Y2.400
G1 F3600 X108.311 Y7.131 E0.6294
G0 F7200 X125.348 Y7.129
G1 F3600 X133.541 Y2.399 E1.2586
G0 F7200 X137.111 Y2.400
G1 F3600 X137.111 Y7.131 E0.6294
G0 F7200 X137.405 Y7.130
G1 F3600 X129.214 Y2.400 E1.2584
G0 F7200 X127.511 Y2.400
G1 F3600 X127.511 Y7.131 E0.6294
G0 F7200 X144.548 Y7.129
G1 F3600 X148.399 Y4.906 E0.5916
G0 F7200 X146.711 Y7.131
G1 F3600 X146.711 Y2.400 E0.6294
;PRINTING_TIME: 157
;REMAINING_TIME: 3190
;LAYER:12
;Z:7.592
;HEIGHT:0.566
;HEIGHT-BELT:0.400
;PRINTING: little_table-wedgeWedge003.stl
;PRINTING_ID: 2
G0 F1200 Z7.592
G0 F7200 X49.600 Y0.400
M204 S1500.00
;TYPE:WALL-OUTER
;WIDTH:0.800
G1 F1800 X150.400 Y0.400 E13.4105
G1 X150.400 Y9.360 E1.1920
;TYPE:WALL-OUTER
;WIDTH:0.800
G1 X150.400 Y9.930 E0.0758
G1 X49.600 Y9.931 E13.4105
G1 X49.600 Y9.361 E0.0758
;TYPE:WALL-OUTER
;WIDTH:0.800
G1 X49.600 Y0.800 E1.1390
G0 F1800 X49.600 Y0.400
M204 S2000.00
G0 F7200 X50.400 Y1.200
;TYPE:WALL-INNER
;WIDTH:0.800
G1 F3600 X149.600 Y1.200 E13.1976
G1 X149.600 Y9.130 E1.0550
G1 X50.400 Y9.131 E13.1976
G1 X50.400 Y1.600 E1.0019
G0 F3600 X50.400 Y1.200
G0 F7200 X51.200 Y2.000
G1 F3600 X148.800 Y2.000 E12.9848
G1 X148.800 Y8.330 E0.8421
G1 X51.200 Y8.331 E12.9848
G1 X51.200 Y2.400 E0.7891
G0 F3600 X51.200 Y2.000
G0 F7200 X51.847 Y2.400
;TYPE:FILL
;WIDTH:0.800
G1 F3600 X61.427 Y7.931 E1.4717
G0 F7200 X60.594 Y7.931
G1 F3600 X60.594 Y2.400 E0.7358
G0 F7200 X56.175 Y2.400
G1 F3600 X51.599 Y5.041 E0.7029
G0 F7200 X65.795 Y7.930
G1 F3600 X75.375 Y2.399 E1.4717
G0 F7200 X71.047 Y2.400
G1 F3600 X80.626 Y7.930 E1.4715
G0 F7200 X79.794 Y7.931
G1 F3600 X79.794 Y2.400 E0.7358
G0 F7200 X84.995 Y7.930
