;Sliced by ideaMaker 4.3.2.6470, 2023-05-08 17:21:20 UTC-0500
;Dimension: 200.000 9999.000 170.000 0.800
;Plate Shape: 0
;Origin Center: 0
;Belt Printer: 1
;Belt Base Y: 5131.100
;Belt Base Z: 0.000
;Belt Offset Y: 0.000
;Belt Offset Z: 3628.235
;Belt Gantry Angle: 45
;Belt Remove Z: 0.000
;Belt Repetition: 1
;Extruder Offset #1: 25.000 0.000
;Filament Diameter #1: 1.750
;Filament Diameter #2: 1.750
;Filament Compensation #1: 100.00
;Filament Compensation #2: 90.00
;Filament Density #1: 1240.00
;Filament Density #2: 1240.00
;Filament Type #1: PLA
;Filament Type #2: 
;Filament Name #1: [Raise3D] PLA 1.75mm
;Filament Name #2: 
;Firmware: Marlin
;Bounding Box: 90.375 109.625 -0.100 18.384 0.000 80.566
;Model Gap: 0.000
;
;
M92 E203.00000
M221 T0 S100.00
M140 S60.00
M104 T0 S200.00
M109 T0 S200.00
T0
M190 S60.00
G90 ; Set to Absolute Positioning
M82 ; Set extruder to absolute mode
G21 ; Metric values
;M808 L ; This is your looping code, any number after the L is the number of repeats, leave blank for infinite loops
M104 T0 S200 ; For some reason ideamaker forces the nozzle to cooldown when the command isnt even in the endgcode, this turns it straight back on after the loop, 245 is the degrees in this case
G28; Home
G92 X0 Y0 Z0 E0 ; zero out all axes (include extruder)
M83 ; set extruder to relative coordinates
G0 Z80 E25 ; extrude short Z line
G92 E0 Z0 ; Set all axis to 0
G0 X215 E40 F800 ; Primeline placed after the loop code so every looped print will get a primeline for better adhesion
G92 E0 Z0
M82
M117 Please stick...
;end of Start GCode
;TOTAL_NUM: 1
;PRINTING_TIME: 0
;REMAINING_TIME: 1031
M83
;LAYER:0
;Z:0.800
;HEIGHT:0.800
;HEIGHT-BELT:0.566
;BELT-FIRST-Z:0.800
M106 S255
;PRINTING: little_table-wedgeWedge.stl
;PRINTING_ID: 0
M204 S2000.00
M205 X5.00 Y5.00
G0 F7200 X90.775 Y0.300
G0 F1200 Z0.800
M204 S1500.00
;TYPE:WALL-OUTER
;WIDTH:0.800
G1 F1500 X109.225 Y0.300 E3.4733
G1 X109.225 Y0.432 E0.0248
G1 X91.043 Y0.432 E3.4228
G0 F1500 X90.775 Y0.432
G0 F1500 X90.775 Y0.300
;PRINTING_TIME: 3
;REMAINING_TIME: 1028
;LAYER:1
;Z:1.366
;HEIGHT:0.566
;HEIGHT-BELT:0.400
;PRINTING: little_table-wedgeWedge.stl
;PRINTING_ID: 0
M204 S2000.00
G0 F1200 Z1.366
G0 F7200 X90.975 Y0.410
G0 X90.875 Y0.400
M204 S1500.00
;TYPE:WALL-OUTER
;WIDTH:0.800
G1 F1575 X109.125 Y0.400 E2.4280
;TYPE:WALL-OUTER
;WIDTH:0.800
G1 F1800 X109.125 Y1.132 E0.0974
G1 X90.875 Y1.132 E2.4280
G1 X90.875 Y0.800 E0.0442
G0 F1800 X90.875 Y0.662
G0 F1800 X90.875 Y0.400
;PRINTING_TIME: 4
;REMAINING_TIME: 1027
;LAYER:2
;Z:1.932
;HEIGHT:0.566
;HEIGHT-BELT:0.400
;PRINTING: little_table-wedgeWedge.stl
;PRINTING_ID: 0
M204 S2000.00
G0 F1200 Z1.932
G0 F7200 X90.875 Y0.400
M204 S1500.00
;TYPE:WALL-OUTER
;WIDTH:0.800
G1 F1650 X109.125 Y0.400 E2.4280
G1 X109.125 Y1.362 E0.1280
;TYPE:WALL-OUTER
;WIDTH:0.800
G1 F1800 X109.125 Y1.932 E0.0758
G1 X90.875 Y1.932 E2.4280
G1 X90.875 Y1.362 E0.0758
;TYPE:WALL-OUTER
;WIDTH:0.800
G1 F1650 X90.875 Y0.800 E0.0748
G0 F1650 X90.875 Y0.400
M204 S2000.00
G0 F7200 X90.975 Y0.410
G0 X91.128 Y0.795
G0 F7200 X91.275 Y1.166
M204 S1500.00
;TYPE:SOLID-FILL
;WIDTH:0.732
G1 F1800 X108.725 Y1.166 E2.1242
;PRINTING_TIME: 6
;REMAINING_TIME: 1025
;LAYER:3
;Z:2.498
;HEIGHT:0.566
;HEIGHT-BELT:0.400
;PRINTING: little_table-wedgeWedge.stl
;PRINTING_ID: 0
M204 S2000.00
G0 F1200 Z2.498
G0 F7200 X108.725 Y1.166
G0 X91.274 Y0.422
G0 F7200 X90.975 Y0.410
G0 F7200 X90.875 Y0.400
M204 S1500.00
;TYPE:WALL-OUTER
;WIDTH:0.800
G1 F1725 X109.125 Y0.400 E2.4280
G1 X109.125 Y2.162 E0.2344
;TYPE:WALL-OUTER
;WIDTH:0.800
G1 F1800 X109.125 Y2.732 E0.0758
G1 X90.875 Y2.732 E2.4280
G1 X90.875 Y2.162 E0.0758
;TYPE:WALL-OUTER
;WIDTH:0.800
G1 F1725 X90.875 Y0.800 E0.1812
G0 F1725 X90.875 Y0.400
M204 S2000.00
G0 F7200 X90.975 Y0.410
G0 X91.175 Y1.179
G0 F7200 X91.275 Y1.566
M204 S1500.00
;TYPE:SOLID-FILL
;WIDTH:1.532
G1 F1950 X108.725 Y1.566 E4.4458
;PRINTING_TIME: 9
;REMAINING_TIME: 1022
;LAYER:4
;Z:3.064
;HEIGHT:0.566
;HEIGHT-BELT:0.400
;PRINTING: little_table-wedgeWedge.stl
;PRINTING_ID: 0
M204 S2000.00
G0 F1200 Z3.064
G0 F7200 X108.725 Y1.566
G0 X91.274 Y0.429
G0 F7200 X90.975 Y0.410
G0 F7200 X90.875 Y0.400
M204 S1500.00
;TYPE:WALL-OUTER
;WIDTH:0.800
G1 F1800 X109.125 Y0.400 E2.4280
G1 X109.125 Y2.962 E0.3408
;TYPE:WALL-OUTER
;WIDTH:0.800
G1 X109.125 Y3.532 E0.0758
G1 X90.875 Y3.532 E2.4280
G1 X90.875 Y2.962 E0.0758
;TYPE:WALL-OUTER
;WIDTH:0.800
G1 X90.875 Y0.800 E0.2876
G0 F1800 X90.875 Y0.400
M204 S2000.00
G0 F7200 X90.975 Y0.410
G0 X93.524 Y2.480
G0 F7200 X93.834 Y2.732
;TYPE:FILL
;WIDTH:0.800
G1 F3600 X94.242 Y2.360 E0.0735
G1 X94.765 Y2.047 E0.0811
G1 X95.289 Y1.895 E0.0726
G1 X95.551 Y1.865 E0.0351
G1 X95.812 Y1.862 E0.0347
G1 X96.336 Y1.935 E0.0704
G1 X96.597 Y2.016 E0.0364
G1 X96.859 Y2.131 E0.0381
G1 X97.383 Y2.485 E0.0841
G1 X97.642 Y2.732 E0.0476
G1 X102.210 Y2.732 E0.6077
G1 X102.617 Y2.360 E0.0734
G1 X103.141 Y2.047 E0.0812
G1 X103.664 Y1.895 E0.0725
G1 X103.926 Y1.865 E0.0351
G1 X104.188 Y1.862 E0.0349
G1 X104.711 Y1.935 E0.0703
G1 X104.973 Y2.016 E0.0365
G1 X105.235 Y2.131 E0.0381
G1 X105.724 Y2.462 E0.0786
G0 F3600 X105.758 Y2.485
G0 F3600 X106.018 Y2.732
;PRINTING_TIME: 11
;REMAINING_TIME: 1020
;LAYER:5
;Z:3.630
;HEIGHT:0.566
;HEIGHT-BELT:0.400
;PRINTING: little_table-wedgeWedge.stl
;PRINTING_ID: 0
G0 F1200 Z3.630
G0 F7200 X106.018 Y2.732
G0 X91.271 Y0.455
G0 F7200 X90.975 Y0.410
G0 F7200 X90.875 Y0.400
M204 S1500.00
;TYPE:WALL-OUTER
;WIDTH:0.800
G1 F1800 X109.125 Y0.400 E2.4280
G1 X109.125 Y3.762 E0.4473
;TYPE:WALL-OUTER
;WIDTH:0.800
G1 X109.125 Y4.332 E0.0758
G1 X90.875 Y4.332 E2.4280
G1 X90.875 Y3.762 E0.0758
;TYPE:WALL-OUTER
;WIDTH:0.800
G1 X90.875 Y0.800 E0.3941
G0 F1800 X90.875 Y0.400
M204 S2000.00
G0 F7200 X90.975 Y0.410
G0 X92.419 Y3.178
G0 F7200 X92.604 Y3.532
;TYPE:FILL
;WIDTH:0.800
G1 F3600 X92.671 Y3.491 E0.0105
G1 X93.195 Y2.998 E0.0957
G1 X93.457 Y2.700 E0.0528
G1 X93.718 Y2.405 E0.0524
G1 X93.980 Y2.153 E0.0484
G1 X94.242 Y1.965 E0.0429
G1 X94.504 Y1.841 E0.0386
G1 X94.765 Y1.769 E0.0360
G1 X95.289 Y1.739 E0.0698
G1 X95.812 Y1.821 E0.0704
G1 X96.336 Y2.008 E0.0740
G1 X96.597 Y2.149 E0.0395
G1 X96.859 Y2.330 E0.0424
G1 X97.383 Y2.823 E0.0957
G1 X97.644 Y3.121 E0.0527
G1 X97.906 Y3.415 E0.0524
G1 X98.027 Y3.532 E0.0224
G1 X100.980 Y3.532 E0.3929
G1 X101.047 Y3.491 E0.0105
G1 X101.570 Y2.998 E0.0956
G1 X101.832 Y2.700 E0.0528
G1 X102.094 Y2.405 E0.0525
G1 X102.356 Y2.153 E0.0484
G1 X102.617 Y1.965 E0.0428
G1 X102.879 Y1.841 E0.0386
G1 X103.141 Y1.769 E0.0361
G1 X103.664 Y1.739 E0.0697
G1 X104.188 Y1.821 E0.0706
G1 X104.711 Y2.008 E0.0739
G1 X104.973 Y2.149 E0.0396
G1 X105.235 Y2.330 E0.0424
G1 X105.758 Y2.823 E0.0956
G1 X106.020 Y3.121 E0.0528
G1 X106.128 Y3.242 E0.0216
G0 F3600 X106.282 Y3.415
G0 F3600 X106.403 Y3.532
;PRINTING_TIME: 13
;REMAINING_TIME: 1017
;LAYER:6
;Z:4.196
;HEIGHT:0.566
;HEIGHT-BELT:0.400
;PRINTING: little_table-wedgeWedge.stl
;PRINTING_ID: 0
G0 F1200 Z4.196
G0 F7200 X106.403 Y3.532
G0 X91.269 Y0.469
G0 F7200 X90.975 Y0.410
G0 F7200 X90.875 Y0.400
M204 S1500.00
;TYPE:WALL-OUTER
;WIDTH:0.800
G1 F1800 X109.125 Y0.400 E2.4280
G1 X109.125 Y4.562 E0.5537
;TYPE:WALL-OUTER
;WIDTH:0.800
G1 X109.125 Y5.132 E0.0758
G1 X90.875 Y5.132 E2.4280
G1 X90.875 Y4.562 E0.0758
;TYPE:WALL-OUTER
;WIDTH:0.800
G1 X90.875 Y0.800 E0.5005
G0 F1800 X90.875 Y0.400
M204 S2000.00
G0 F7200 X90.975 Y0.410
G0 X91.601 Y3.689
G0 F7200 X91.675 Y4.081
;TYPE:FILL
;WIDTH:0.800
G1 F3600 X92.148 Y3.802 E0.0731
G1 X92.671 Y3.325 E0.0942
G1 X93.195 Y2.587 E0.1204
G1 X93.457 Y2.140 E0.0689
G1 X93.588 Y1.929 E0.0330
G1 X93.718 Y1.745 E0.0300
G1 X93.980 Y1.497 E0.0480
G1 X94.242 Y1.389 E0.0377
G1 X94.504 Y1.363 E0.0350
G1 X94.765 Y1.384 E0.0348
G1 X95.289 Y1.506 E0.0716
G1 X95.551 Y1.598 E0.0369
G1 X95.812 Y1.711 E0.0378
G1 X96.336 Y2.019 E0.0809
G1 X96.597 Y2.230 E0.0447
G1 X96.859 Y2.496 E0.0497
G1 X97.383 Y3.234 E0.1204
G1 X97.644 Y3.681 E0.0689
G1 X97.775 Y3.892 E0.0330
G1 X97.906 Y4.076 E0.0300
G1 X98.168 Y4.323 E0.0479
G1 X98.190 Y4.332 E0.0032
G1 X99.403 Y4.332 E0.1614
G1 X99.477 Y4.315 E0.0101
G1 X100.000 Y4.110 E0.0747
G1 X100.523 Y3.802 E0.0807
G1 X101.047 Y3.325 E0.0943
G1 X101.570 Y2.587 E0.1203
G1 X101.832 Y2.140 E0.0689
G1 X101.963 Y1.929 E0.0330
G1 X102.094 Y1.745 E0.0300
G1 X102.356 Y1.497 E0.0480
G1 X102.617 Y1.389 E0.0376
G1 X102.879 Y1.363 E0.0350
G1 X103.141 Y1.384 E0.0350
G1 X103.664 Y1.506 E0.0714
G1 X103.926 Y1.598 E0.0369
G1 X104.188 Y1.711 E0.0380
G1 X104.711 Y2.019 E0.0807
G1 X104.973 Y2.230 E0.0448
G1 X105.235 Y2.496 E0.0497
G1 X105.758 Y3.234 E0.1203
G1 X106.020 Y3.681 E0.0689
G1 X106.151 Y3.892 E0.0330
G1 X106.282 Y4.076 E0.0300
G1 X106.543 Y4.323 E0.0478
G1 X106.565 Y4.332 E0.0032
G1 X107.779 Y4.332 E0.1615
G1 X107.852 Y4.315 E0.0100
G1 X107.952 Y4.275 E0.0143
G0 F3600 X108.325 Y4.130
;PRINTING_TIME: 16
;REMAINING_TIME: 1015
;LAYER:7
;Z:4.762
;HEIGHT:0.566
;HEIGHT-BELT:0.400
;PRINTING: little_table-wedgeWedge.stl
;PRINTING_ID: 0
G0 F1200 Z4.762
G0 F7200 X108.325 Y4.130
G0 X91.268 Y0.472
G0 F7200 X90.975 Y0.410
G0 F7200 X90.875 Y0.400
M204 S1500.00
;TYPE:WALL-OUTER
;WIDTH:0.800
G1 F1800 X109.125 Y0.400 E2.4280
G1 X109.125 Y5.362 E0.6601
;TYPE:WALL-OUTER
;WIDTH:0.800
G1 X109.125 Y5.932 E0.0758
G1 X90.875 Y5.932 E2.4280
G1 X90.875 Y5.362 E0.0758
;TYPE:WALL-OUTER
;WIDTH:0.800
G1 X90.875 Y0.800 E0.6069
G0 F1800 X90.875 Y0.400
M204 S2000.00
G0 F7200 X90.975 Y0.410
G0 X91.607 Y4.027
G0 F7200 X91.675 Y4.421
;TYPE:FILL
;WIDTH:0.800
G1 F3600 X92.059 Y3.957 E0.0801
G1 X92.312 Y3.696 E0.0484
G1 X92.513 Y3.434 E0.0439
G1 X92.806 Y2.910 E0.0799
G1 X92.911 Y2.649 E0.0374
G1 X92.995 Y2.387 E0.0366
G1 X93.094 Y1.863 E0.0709
G1 X93.099 Y1.602 E0.0347
G1 X93.055 Y1.340 E0.0353
G1 X92.987 Y1.200 E0.0207
G1 X95.340 Y1.200 E0.3130
G1 X95.551 Y1.340 E0.0337
G1 X96.246 Y1.863 E0.1157
G1 X96.701 Y2.387 E0.0923
G1 X96.994 Y2.910 E0.0798
G1 X97.182 Y3.434 E0.0741
G1 X97.282 Y3.957 E0.0708
G1 X97.287 Y4.219 E0.0349
G1 X97.242 Y4.481 E0.0354
G1 X97.114 Y4.743 E0.0388
G1 X96.862 Y5.004 E0.0483
G1 X96.605 Y5.132 E0.0382
G1 X98.827 Y5.132 E0.2956
G1 X98.950 Y5.004 E0.0236
G1 X99.323 Y4.743 E0.0606
G1 X99.739 Y4.481 E0.0654
G1 X100.434 Y3.957 E0.1158
G1 X100.687 Y3.696 E0.0484
G1 X100.889 Y3.434 E0.0440
G1 X101.182 Y2.910 E0.0799
G1 X101.287 Y2.649 E0.0374
G1 X101.370 Y2.387 E0.0366
G1 X101.469 Y1.863 E0.0709
G1 X101.475 Y1.602 E0.0347
G1 X101.430 Y1.340 E0.0354
G1 X101.362 Y1.200 E0.0207
G1 X103.716 Y1.200 E0.3132
G1 X103.927 Y1.340 E0.0337
G1 X104.622 Y1.863 E0.1157
G1 X105.077 Y2.387 E0.0923
G1 X105.369 Y2.910 E0.0797
G1 X105.558 Y3.434 E0.0741
G1 X105.657 Y3.957 E0.0708
G1 X105.663 Y4.219 E0.0349
G1 X105.618 Y4.481 E0.0354
G1 X105.490 Y4.743 E0.0388
G1 X105.237 Y5.004 E0.0484
G1 X104.980 Y5.132 E0.0382
G1 X107.202 Y5.132 E0.2956
G1 X107.326 Y5.004 E0.0237
G1 X107.699 Y4.743 E0.0606
G1 X107.999 Y4.553 E0.0472
G0 F3600 X108.114 Y4.481
G0 F3600 X108.325 Y4.322
;PRINTING_TIME: 19
;REMAINING_TIME: 1012
;LAYER:8
;Z:5.328
;HEIGHT:0.566
;HEIGHT-BELT:0.400
;PRINTING: little_table-wedgeWedge.stl
;PRINTING_ID: 0
G0 F1200 Z5.328
G0 F7200 X108.325 Y4.322
G0 X91.267 Y0.475
G0 F7200 X90.975 Y0.410
G0 F7200 X90.875 Y0.400
M204 S1500.00
;TYPE:WALL-OUTER
;WIDTH:0.800
G1 F1800 X109.125 Y0.400 E2.4280
G1 X109.125 Y6.162 E0.7666
;TYPE:WALL-OUTER
;WIDTH:0.800
G1 X109.125 Y6.732 E0.0758
G1 X90.875 Y6.732 E2.4280
G1 X90.875 Y6.162 E0.0758
;TYPE:WALL-OUTER
;WIDTH:0.800
G1 X90.875 Y0.800 E0.7134
G0 F1800 X90.875 Y0.400
M204 S2000.00
G0 F7200 X90.975 Y0.410
G0 X92.046 Y1.006
G0 F7200 X92.395 Y1.200
;TYPE:FILL
;WIDTH:0.800
G1 F3600 X92.514 Y1.340 E0.0244
G1 X92.726 Y1.863 E0.0751
G1 X92.773 Y2.387 E0.0700
G1 X92.752 Y2.649 E0.0350
G1 X92.705 Y2.910 E0.0353
G1 X92.533 Y3.434 E0.0734
G1 X92.400 Y3.696 E0.0391
G1 X92.228 Y3.957 E0.0416
G1 X91.756 Y4.481 E0.0938
G1 X91.675 Y4.643 E0.0241
G1 X91.675 Y5.932 E0.1715
G1 X95.469 Y5.932 E0.5048
G1 X96.257 Y5.004 E0.1620
G1 X96.702 Y4.481 E0.0914
G1 X96.914 Y3.957 E0.0752
G1 X96.953 Y3.696 E0.0351
G1 X96.960 Y3.434 E0.0349
G1 X96.893 Y2.910 E0.0703
G1 X96.821 Y2.649 E0.0360
G1 X96.720 Y2.387 E0.0374
G1 X96.416 Y1.863 E0.0806
G1 X95.943 Y1.340 E0.0938
G1 X95.789 Y1.200 E0.0277
G1 X100.770 Y1.200 E0.6627
G1 X100.889 Y1.340 E0.0244
G1 X101.102 Y1.863 E0.0751
G1 X101.148 Y2.387 E0.0700
G1 X101.127 Y2.649 E0.0350
G1 X101.081 Y2.910 E0.0353
G1 X100.908 Y3.434 E0.0734
G1 X100.775 Y3.696 E0.0391
G1 X100.604 Y3.957 E0.0415
G1 X100.131 Y4.481 E0.0939
G1 X99.843 Y4.743 E0.0518
G1 X99.555 Y5.004 E0.0517
G1 X99.111 Y5.528 E0.0914
G1 X100.141 Y5.932 E0.1472
G1 X103.844 Y5.932 E0.4926
G1 X104.632 Y5.004 E0.1620
G1 X105.077 Y4.481 E0.0914
G1 X105.289 Y3.957 E0.0752
G1 X105.329 Y3.696 E0.0351
G1 X105.336 Y3.434 E0.0349
G1 X105.269 Y2.910 E0.0703
G1 X105.196 Y2.649 E0.0361
G1 X105.096 Y2.387 E0.0373
G1 X104.791 Y1.863 E0.0807
G1 X104.319 Y1.340 E0.0937
G1 X104.165 Y1.200 E0.0277
G1 X108.325 Y1.200 E0.5534
G1 X108.325 Y4.647 E0.4586
G1 X108.219 Y4.743 E0.0190
G1 X107.931 Y5.004 E0.0517
G1 X107.486 Y5.528 E0.0915
G1 X107.953 Y5.711 E0.0667
G0 F3600 X108.325 Y5.857
;PRINTING_TIME: 22
;REMAINING_TIME: 1009
;LAYER:9
;Z:5.894
;HEIGHT:0.566
;HEIGHT-BELT:0.400
;PRINTING: little_table-wedgeWedge.stl
;PRINTING_ID: 0
G0 F1200 Z5.894
G0 F7200 X108.325 Y5.857
G0 X91.261 Y0.499
G0 F7200 X90.975 Y0.410
G0 F7200 X90.875 Y0.400
M204 S1500.00
;TYPE:WALL-OUTER
;WIDTH:0.800
G1 F1800 X109.125 Y0.400 E2.4280
G1 X109.125 Y6.962 E0.8730
;TYPE:WALL-OUTER
;WIDTH:0.800
G1 X109.125 Y7.532 E0.0758
G1 X90.875 Y7.532 E2.4280
G1 X90.875 Y6.962 E0.0758
;TYPE:WALL-OUTER
;WIDTH:0.800
G1 X90.875 Y0.800 E0.8198
G0 F1800 X90.875 Y0.400
M204 S2000.00
G0 F7200 X90.975 Y0.410
G0 X91.615 Y4.553
G0 F7200 X91.675 Y4.948
;TYPE:FILL
;WIDTH:0.800
G1 F3600 X92.093 Y4.481 E0.0834
G1 X92.432 Y3.957 E0.0830
G1 X92.540 Y3.696 E0.0376
G1 X92.613 Y3.434 E0.0362
G1 X92.672 Y2.910 E0.0702
G1 X92.662 Y2.649 E0.0347
G1 X92.625 Y2.387 E0.0352
G1 X92.458 Y1.863 E0.0732
G1 X92.131 Y1.340 E0.0821
G1 X92.001 Y1.200 E0.0254
G1 X96.150 Y1.200 E0.5520
G1 X96.281 Y1.340 E0.0255
G1 X96.620 Y1.863 E0.0829
G1 X96.800 Y2.387 E0.0737
G1 X96.843 Y2.649 E0.0353
G1 X96.859 Y2.910 E0.0348
G1 X96.813 Y3.434 E0.0700
G1 X96.746 Y3.696 E0.0360
G1 X96.645 Y3.957 E0.0372
G1 X96.318 Y4.481 E0.0822
G1 X95.834 Y5.004 E0.0948
G1 X95.344 Y5.528 E0.0954
G1 X95.004 Y6.051 E0.0830
G1 X94.824 Y6.575 E0.0737
G1 X95.114 Y6.732 E0.0439
G1 X99.307 Y6.732 E0.5578
G1 X99.000 Y6.575 E0.0459
G1 X99.167 Y6.051 E0.0732
G1 X99.494 Y5.528 E0.0821
G1 X99.978 Y5.004 E0.0949
G1 X100.468 Y4.481 E0.0953
G1 X100.808 Y3.957 E0.0831
G1 X100.915 Y3.696 E0.0375
G1 X100.988 Y3.434 E0.0362
G1 X101.047 Y2.910 E0.0702
G1 X101.037 Y2.649 E0.0347
G1 X101.000 Y2.387 E0.0352
G1 X100.833 Y1.863 E0.0732
G1 X100.506 Y1.340 E0.0821
G1 X100.376 Y1.200 E0.0254
G1 X104.525 Y1.200 E0.5520
G1 X104.656 Y1.340 E0.0255
G1 X104.996 Y1.863 E0.0830
G1 X105.176 Y2.387 E0.0737
G1 X105.219 Y2.649 E0.0353
G1 X105.235 Y2.910 E0.0348
G1 X105.188 Y3.434 E0.0700
G1 X105.122 Y3.696 E0.0359
G1 X105.021 Y3.957 E0.0372
G1 X104.694 Y4.481 E0.0822
G1 X104.209 Y5.004 E0.0949
G1 X103.719 Y5.528 E0.0954
G1 X103.380 Y6.051 E0.0829
G1 X103.200 Y6.575 E0.0737
G1 X103.490 Y6.732 E0.0439
G1 X107.682 Y6.732 E0.5577
G1 X107.375 Y6.575 E0.0459
G1 X107.542 Y6.051 E0.0732
G1 X107.869 Y5.528 E0.0821
G1 X108.054 Y5.328 E0.0362
G0 F3600 X108.325 Y5.035
;PRINTING_TIME: 26
;REMAINING_TIME: 1005
;LAYER:10
;Z:6.460
;HEIGHT:0.566
;HEIGHT-BELT:0.400
;PRINTING: little_table-wedgeWedge.stl
;PRINTING_ID: 0
G0 F1200 Z6.460
G0 F7200 X108.325 Y5.035
G0 X91.264 Y0.487
G0 F7200 X90.975 Y0.410
G0 F7200 X90.875 Y0.400
M204 S1500.00
;TYPE:WALL-OUTER
;WIDTH:0.800
G1 F1800 X109.125 Y0.400 E2.4280
G1 X109.125 Y7.762 E0.9794
;TYPE:WALL-OUTER
;WIDTH:0.800
G1 X109.125 Y8.332 E0.0758
G1 X90.875 Y8.332 E2.4280
G1 X90.875 Y7.762 E0.0758
;TYPE:WALL-OUTER
;WIDTH:0.800
G1 X90.875 Y0.800 E0.9262
G0 F1800 X90.875 Y0.400
M204 S2000.00
G0 F7200 X90.975 Y0.410
G0 X91.621 Y5.066
G0 F7200 X91.675 Y5.462
;TYPE:FILL
;WIDTH:0.800
G1 F3600 X92.019 Y5.004 E0.0762
G1 X92.467 Y4.481 E0.0916
G1 X92.693 Y3.957 E0.0759
G1 X92.740 Y3.696 E0.0353
